Lut/day1.cube
# Created by Adobe Lightroom plugin Export LUT (1.24.0)
# www.johnrellis.com/lightroom/exportlut.htm
# Photo: 未命名_1.1.1.jpg
# Color profile: C:\Program Files (x86)\Common Files\Adobe\Color\Profiles\Recommended\AdobeRGB1998.icc
LUT_3D_SIZE 8
DOMAIN_MIN 0.000000 0.000000 0.000000
DOMAIN_MAX 0.903226 0.903226 0.903226
0.058961 0.066804 0.071015
0.105867 0.067048 0.071351
0.215152 0.095949 0.056916
0.368933 0.104891 0.011597
0.537530 0.102815 0.000000
0.713863 0.141299 0.000000
0.845945 0.214023 0.000000
0.957183 0.296757 0.000000
0.042054 0.104585 0.088563
0.095186 0.109255 0.080507
0.206760 0.134066 0.076478
0.360296 0.146944 0.064546
0.532403 0.151858 0.025269
0.697749 0.180636 0.000000
0.833616 0.238193 0.000000
0.950378 0.313603 0.000000
0.000000 0.197635 0.153811
0.046326 0.199496 0.144045
0.183902 0.211582 0.115541
0.348547 0.246067 0.126436
0.538689 0.271427 0.123079
0.704738 0.297398 0.108095
0.847807 0.346288 0.112947
0.958465 0.400153 0.128237
0.000000 0.325292 0.229374
0.000000 0.326268 0.223239
0.136355 0.317876 0.201205
0.328435 0.356237 0.173556
0.537530 0.396796 0.191562
0.703182 0.436591 0.212497
0.841672 0.469306 0.213352
0.953307 0.501152 0.210605
0.000000 0.460548 0.309667
0.000000 0.462135 0.306584
0.077974 0.460914 0.292790
0.253910 0.457893 0.273259
0.479805 0.487282 0.234440
0.661067 0.514672 0.247013
0.814664 0.567895 0.288243
0.934356 0.610193 0.326696
0.000000 0.600397 0.399756
0.000000 0.607507 0.402441
0.000000 0.604639 0.391028
0.261540 0.591211 0.366247
0.390936 0.588190 0.336431
0.627283 0.614984 0.301610
0.788815 0.642542 0.322484
0.918761 0.695949 0.392248
0.000000 0.740505 0.500633
0.000000 0.741421 0.499458
0.000000 0.736385 0.488655
0.248173 0.725154 0.467994
0.419593 0.706783 0.444648
0.546258 0.713375 0.410620
0.760678 0.738979 0.386511
0.894865 0.758206 0.418219
0.000000 0.874449 0.606836
0.000000 0.873442 0.604669
0.000000 0.869535 0.598047
0.270451 0.860349 0.588556
0.467872 0.832059 0.560998
0.582696 0.823850 0.553674
0.706325 0.839780 0.525658
0.881376 0.859068 0.515068
0.026612 0.068696 0.122591
0.096681 0.076631 0.121492
0.204593 0.078553 0.118471
0.353246 0.080903 0.110536
0.522789 0.080171 0.101167
0.686824 0.118868 0.090211
0.825284 0.194003 0.076692
0.944091 0.280735 0.075441
0.004883 0.109895 0.130373
0.091341 0.115602 0.132113
0.201389 0.124727 0.129000
0.350805 0.133944 0.122988
0.520989 0.140108 0.115267
0.680262 0.167239 0.104311
0.816709 0.222599 0.089570
0.937194 0.298009 0.084718
0.000000 0.197421 0.179721
0.040528 0.207431 0.182162
0.181247 0.215854 0.161959
0.341436 0.245640 0.169924
0.524987 0.262943 0.159854
0.682704 0.283970 0.151675
0.822446 0.325231 0.146578
0.942779 0.382391 0.150698
0.000000 0.323247 0.249821
0.000000 0.327184 0.247288
0.148745 0.323217 0.229313
0.314458 0.346593 0.205783
0.505547 0.379248 0.218296
0.672084 0.414893 0.229435
0.817960 0.447761 0.222721
0.938720 0.485542 0.221775
0.000000 0.461738 0.327886
0.000000 0.462440 0.324865
0.079377 0.461433 0.312932
0.259434 0.450141 0.290105
0.462593 0.474189 0.255467
0.644465 0.504112 0.267674
0.801389 0.558282 0.303166
0.925628 0.601129 0.333562
0.000000 0.593774 0.409216
0.000000 0.594903 0.407721
0.000000 0.594690 0.398840
0.261753 0.584527 0.376410
0.390784 0.581170 0.351385
0.621607 0.611078 0.320745
0.782864 0.639185 0.340734
0.912810 0.691890 0.403723
0.000000 0.730190 0.503288
0.000000 0.728603 0.500114
0.000000 0.726192 0.491371
0.239536 0.718654 0.474037
0.420874 0.702235 0.452461
0.542199 0.707210 0.420905
0.751247 0.730800 0.394751
0.885740 0.750149 0.422889
0.000000 0.868559 0.609583
0.000000 0.868589 0.608423
0.000000 0.866026 0.602594
0.259403 0.858488 0.594141
0.482033 0.839597 0.579187
0.591608 0.826932 0.567742
0.705562 0.838224 0.535424
0.878233 0.856504 0.522362
0.000000 0.089143 0.237919
0.064668 0.093812 0.238193
0.194980 0.111666 0.236423
0.353460 0.087495 0.237186
0.526024 0.000000 0.220157
0.685420 0.071412 0.217441
0.826810 0.179507 0.217990
0.945892 0.277287 0.221592
0.000000 0.130892 0.243595
0.036378 0.131868 0.245212
0.191623 0.147158 0.241672
0.347509 0.129366 0.238224
0.518364 0.098817 0.222446
0.678096 0.140047 0.221622
0.819944 0.212070 0.221286
0.941650 0.297459 0.224277
0.000000 0.214603 0.260838
0.000000 0.218387 0.262150
0.181765 0.232242 0.263035
0.344854 0.229923 0.250401
0.523125 0.248203 0.252720
0.680751 0.273655 0.251682
0.820554 0.317266 0.249882
0.940490 0.376135 0.252049
0.000000 0.325353 0.303502
0.000000 0.331334 0.306188
0.153109 0.350591 0.313817
0.321996 0.362036 0.299626
0.516472 0.397314 0.313359
0.681300 0.420966 0.310643
0.821988 0.449409 0.305608
0.939269 0.487098 0.306950
0.000000 0.462715 0.378302
0.000000 0.467292 0.379614
0.077150 0.480140 0.381170
0.305150 0.473976 0.363470
0.472724 0.488167 0.337621
0.651057 0.519310 0.351904
0.802609 0.567071 0.378607
0.926970 0.604456 0.393103
0.000000 0.597406 0.455756
0.000000 0.600427 0.456214
0.000000 0.604608 0.452277
0.277775 0.599084 0.435554
0.420813 0.585016 0.411688
0.617578 0.611749 0.385107
0.779294 0.643610 0.407233
0.911894 0.699763 0.466651
0.000000 0.738338 0.547021
0.000000 0.737758 0.544762
0.000000 0.735225 0.536400
0.243198 0.728359 0.520989
0.446357 0.709071 0.497505
0.556329 0.709133 0.475807
0.753750 0.736721 0.454383
0.889403 0.760494 0.485817
0.000000 0.872313 0.641566
0.000000 0.870970 0.638911
0.000000 0.868345 0.632441
0.242435 0.863951 0.626337
0.487587 0.844999 0.610925
0.608911 0.829831 0.601587
0.710903 0.839261 0.576471
0.878569 0.859648 0.565148
0.000000 0.119112 0.367285
0.000000 0.123049 0.369726
0.179202 0.143099 0.366247
0.335332 0.159487 0.364477
0.518486 0.146304 0.375433
0.672206 0.081209 0.355535
0.809995 0.111849 0.336522
0.933349 0.230350 0.333257
0.000000 0.154299 0.375036
0.000000 0.156863 0.376043
0.178408 0.173190 0.372625
0.335393 0.191318 0.369146
0.515770 0.181979 0.378149
0.667842 0.132509 0.354833
0.806210 0.156008 0.336400
0.931823 0.256199 0.335149
0.000000 0.237430 0.384741
0.000000 0.240116 0.385077
0.159731 0.249882 0.385290
0.335790 0.273167 0.383917
0.512535 0.268925 0.389014
0.672602 0.242435 0.365148
0.817472 0.282261 0.358618
0.937652 0.351629 0.359167
0.000000 0.343999 0.406653
0.000000 0.347753 0.407233
0.126558 0.360174 0.408789
0.329564 0.377661 0.410681
0.507134 0.367864 0.395941
0.665766 0.384314 0.390356
0.810513 0.420508 0.391577
0.934081 0.468147 0.395789
0.000000 0.467201 0.445289
0.000000 0.468971 0.445075
0.060121 0.478309 0.448249
0.313390 0.497658 0.458778
0.479683 0.502739 0.444465
0.658625 0.539605 0.461494
0.806882 0.571984 0.468177
0.929259 0.599420 0.465553
0.000000 0.598016 0.516350
0.000000 0.605463 0.522087
0.000000 0.611505 0.523369
0.284855 0.623041 0.524773
0.478614 0.611658 0.505791
0.622797 0.623804 0.483192
0.782467 0.659571 0.507561
0.911742 0.710231 0.549737
0.000000 0.734676 0.601038
0.000000 0.737087 0.601801
0.000000 0.743191 0.601740
0.233982 0.747951 0.596307
0.472847 0.734066 0.577630
0.590753 0.719356 0.558312
0.754452 0.743130 0.536065
0.889158 0.769833 0.564904
0.000000 0.876707 0.693721
0.000000 0.878019 0.693263
0.000000 0.879454 0.688533
0.176852 0.875120 0.678889
0.478279 0.858946 0.664515
0.631556 0.837339 0.651545
0.720302 0.840787 0.636316
0.878477 0.863645 0.626123
0.000000 0.156832 0.501457
0.000000 0.160678 0.503136
0.143008 0.176852 0.500206
0.335882 0.205386 0.499214
0.500664 0.220523 0.501732
0.658991 0.223880 0.509209
0.799252 0.216159 0.498756
0.924590 0.240879 0.478950
0.000000 0.185824 0.505303
0.000000 0.189517 0.507408
0.140566 0.202884 0.505730
0.336858 0.229923 0.503197
0.499397 0.245701 0.503868
0.658106 0.249638 0.511833
0.798764 0.238865 0.499763
0.924346 0.259709 0.478614
0.000000 0.263859 0.513939
0.000000 0.266606 0.514702
0.122927 0.277440 0.517906
0.333806 0.297765 0.514214
0.492988 0.314519 0.508782
0.649073 0.317266 0.514977
0.794064 0.298222 0.498360
0.920562 0.311009 0.472328
0.000000 0.368872 0.531609
0.000000 0.371649 0.531579
0.074250 0.380896 0.532372
0.317479 0.391730 0.533074
0.492256 0.410224 0.525780
0.647364 0.412848 0.529808
0.795468 0.385626 0.499062
0.922271 0.412696 0.480049
0.000000 0.479255 0.551965
0.000000 0.481727 0.552087
0.000000 0.488533 0.551293
0.295506 0.498817 0.550378
0.480385 0.509422 0.547967
0.643580 0.502129 0.532158
0.792477 0.519341 0.521752
0.920378 0.557977 0.525078
0.000000 0.586084 0.576440
0.000000 0.587640 0.576318
0.000000 0.591424 0.574731
0.255314 0.601038 0.576532
0.454017 0.614771 0.581170
0.615351 0.624262 0.575677
0.783536 0.671809 0.603967
0.912078 0.707118 0.618128
0.000000 0.722652 0.652430
0.000000 0.722805 0.651514
0.000000 0.726680 0.651606
0.186313 0.736995 0.654688
0.441321 0.747158 0.653803
0.622644 0.731685 0.636103
0.749355 0.744991 0.617426
0.886137 0.776883 0.644648
0.000000 0.861570 0.737636
0.000000 0.862516 0.737087
0.000000 0.865293 0.734615
0.000000 0.875364 0.735195
0.421332 0.872953 0.724636
0.635401 0.851682 0.709895
0.733639 0.840909 0.699947
0.873716 0.863493 0.685359
0.000000 0.204898 0.644038
0.000000 0.209232 0.646601
0.088838 0.222843 0.646387
0.337316 0.247471 0.641840
0.503380 0.275181 0.634058
0.645197 0.295720 0.635096
0.784939 0.326879 0.646815
0.910063 0.366247 0.648829
0.000000 0.227481 0.642451
0.000000 0.230655 0.643061
0.073396 0.241550 0.642847
0.330999 0.264195 0.638117
0.498421 0.291508 0.630945
0.640375 0.312078 0.632563
0.781918 0.341253 0.645869
0.908629 0.375463 0.647608
0.000000 0.301946 0.655177
0.000000 0.303929 0.654353
0.025574 0.310735 0.653162
0.327764 0.326574 0.648615
0.499458 0.352056 0.639155
0.639002 0.371679 0.639063
0.780758 0.395941 0.652308
0.908812 0.413275 0.648737
0.000000 0.400855 0.664637
0.000000 0.401709 0.663325
0.000000 0.406989 0.663020
0.315923 0.418891 0.666651
0.504967 0.441566 0.661158
0.643732 0.462379 0.656703
0.784451 0.476081 0.666438
0.912627 0.471809 0.650202
0.000000 0.500877 0.670130
0.000000 0.502892 0.670314
0.000000 0.508721 0.670649
0.282597 0.516838 0.671778
0.476081 0.523796 0.670161
0.633143 0.543938 0.662074
0.777737 0.548974 0.666865
0.911070 0.532158 0.635615
0.000000 0.601160 0.684047
0.000000 0.604486 0.686000
0.000000 0.608728 0.685573
0.246250 0.614832 0.684627
0.450263 0.622278 0.681971
0.623529 0.637873 0.682368
0.777981 0.637751 0.669245
0.910002 0.664240 0.666041
0.000000 0.719997 0.726040
0.000000 0.722011 0.726955
0.000000 0.725216 0.726162
0.160952 0.731960 0.725551
0.417853 0.741146 0.724056
0.609216 0.751949 0.724392
0.750851 0.753231 0.712490
0.894072 0.797482 0.741695
0.000000 0.849790 0.787747
0.000000 0.850309 0.787228
0.000000 0.853300 0.786404
0.000000 0.860868 0.787076
0.350927 0.867887 0.785245
0.591852 0.871275 0.779385
0.760952 0.851255 0.768063
0.871794 0.867094 0.755734
0.000000 0.256107 0.773251
0.000000 0.258915 0.773495
0.000000 0.269322 0.772122
0.336492 0.292027 0.767849
0.509819 0.325048 0.760403
0.645777 0.358679 0.755032
0.768215 0.390295 0.757626
0.889830 0.446693 0.770596
0.000000 0.275029 0.773342
0.000000 0.277745 0.773556
0.000000 0.286229 0.772641
0.333349 0.307469 0.767788
0.508293 0.339361 0.760525
0.644312 0.372717 0.754665
0.766262 0.402594 0.757259
0.888548 0.455268 0.770291
0.000000 0.336095 0.777707
0.000000 0.338170 0.777493
0.000000 0.344457 0.776577
0.325444 0.359442 0.773159
0.506523 0.388373 0.765530
0.644373 0.421698 0.758633
0.765438 0.448188 0.761227
0.888945 0.491005 0.774472
0.000000 0.425055 0.784054
0.000000 0.425757 0.783322
0.000000 0.429419 0.782620
0.303532 0.437507 0.781033
0.499214 0.459541 0.775021
0.644587 0.491463 0.766873
0.764431 0.513329 0.768154
0.889647 0.543694 0.779934
0.000000 0.524773 0.789151
0.000000 0.525597 0.788998
0.000000 0.528099 0.788663
0.259190 0.530938 0.788113
0.470954 0.538628 0.785550
0.637964 0.564355 0.777737
0.761898 0.587030 0.775662
0.890745 0.608606 0.785977
0.000000 0.624689 0.796902
0.000000 0.625727 0.796933
0.000000 0.628748 0.797086
0.214633 0.632715 0.797208
0.441047 0.638392 0.796536
0.619623 0.649104 0.793973
0.761959 0.673701 0.787778
0.893126 0.683406 0.791653
0.000000 0.722713 0.812009
0.000000 0.723720 0.812070
0.000000 0.726436 0.811917
0.163241 0.730831 0.811673
0.419989 0.737057 0.810361
0.600885 0.747402 0.807980
0.756832 0.763210 0.805020
0.893339 0.766354 0.791501
0.000000 0.833768 0.847196
0.000000 0.834745 0.847257
0.000000 0.838560 0.847868
0.000000 0.844205 0.847776
0.338750 0.851804 0.846433
0.558343 0.862669 0.843992
0.745571 0.872709 0.842161
0.872679 0.873350 0.832425
0.000000 0.324254 0.892027
0.000000 0.327214 0.891844
0.146487 0.337255 0.890349
0.380346 0.364233 0.886442
0.545159 0.405554 0.880522
0.675837 0.451759 0.873777
0.784237 0.486183 0.870878
0.886503 0.527153 0.873777
0.000000 0.338842 0.892058
0.000000 0.341619 0.891844
0.138125 0.350805 0.890593
0.376989 0.375982 0.886748
0.543877 0.416480 0.880827
0.675074 0.461280 0.873991
0.783413 0.495003 0.870756
0.885801 0.534813 0.873838
0.000000 0.387549 0.893797
0.000000 0.389624 0.893492
0.106477 0.396826 0.892058
0.365515 0.415778 0.889464
0.539696 0.452766 0.883299
0.673823 0.494148 0.876127
0.782712 0.527184 0.872251
0.884886 0.562768 0.875517
0.000000 0.461067 0.897063
0.000000 0.462531 0.896941
0.000000 0.467170 0.895750
0.338231 0.478523 0.893431
0.525475 0.505638 0.888457
0.669886 0.543420 0.881010
0.782193 0.577142 0.875792
0.884245 0.606744 0.879088
0.000000 0.550713 0.900816
0.000000 0.551232 0.900755
0.000000 0.552514 0.900084
0.277653 0.556176 0.898466
0.489937 0.568994 0.894865
0.657435 0.601434 0.888060
0.780697 0.637171 0.881224
0.883207 0.662318 0.883848
0.000000 0.647059 0.904784
0.000000 0.647242 0.904662
0.000000 0.647791 0.904265
0.187137 0.649439 0.903502
0.440955 0.653712 0.901732
0.629480 0.670375 0.897917
0.778134 0.705470 0.890776
0.882780 0.729030 0.890562
0.000000 0.742489 0.910399
0.000000 0.742916 0.910369
0.000000 0.744411 0.910246
0.109590 0.747250 0.909941
0.409949 0.751949 0.909117
0.599207 0.761440 0.907256
0.761990 0.777951 0.903258
0.882689 0.805203 0.898833
0.000000 0.837797 0.923552
0.000000 0.838315 0.923461
0.000000 0.840085 0.923278
0.000000 0.843198 0.922789
0.384253 0.848020 0.921599
0.581567 0.856321 0.919219
0.746944 0.869444 0.915801
0.885740 0.888212 0.912810
