Lut/day1.cube
# Created by Adobe Lightroom plugin Export LUT (1.24.0)
# www.johnrellis.com/lightroom/exportlut.htm
# Photo: 未命名_1.1.1.jpg
# Color profile: C:\Program Files (x86)\Common Files\Adobe\Color\Profiles\Recommended\AdobeRGB1998.icc
LUT_3D_SIZE 32
DOMAIN_MIN 0.0 0.0 0.0
DOMAIN_MAX 1.0 1.0 1.0
0.058961 0.066804 0.071015
0.058961 0.066804 0.071015
0.067231 0.065949 0.071260
0.084779 0.064729 0.071229
0.105867 0.067048 0.071351
0.128328 0.072755 0.070222
0.153872 0.080781 0.067445
0.182864 0.088960 0.062531
0.215152 0.095949 0.056916
0.250401 0.099580 0.049897
0.288151 0.102388 0.038727
0.327642 0.104189 0.025757
0.368933 0.104891 0.011597
0.411322 0.104005 0.000000
0.453712 0.102907 0.000000
0.495979 0.102113 0.000000
0.537530 0.102815 0.000000
0.589197 0.105837 0.000000
0.634394 0.114046 0.000000
0.675319 0.126131 0.000000
0.713863 0.141299 0.000000
0.750484 0.158877 0.000000
0.784451 0.176730 0.000000
0.816159 0.194980 0.000000
0.845945 0.214023 0.000000
0.874662 0.233158 0.000000
0.902770 0.253330 0.000000
0.930266 0.274662 0.000000
0.957183 0.296757 0.000000
0.983398 0.319646 0.000000
1.000000 0.343175 0.008545
1.000000 0.366644 0.071046
0.058961 0.066804 0.071015
0.058900 0.067231 0.070985
0.066926 0.068116 0.071107
0.084108 0.070344 0.071168
0.105226 0.074037 0.071199
0.127565 0.080323 0.069551
0.152895 0.087282 0.066835
0.181735 0.095186 0.062226
0.213840 0.100496 0.059388
0.248936 0.104402 0.052216
0.286534 0.107240 0.044007
0.325811 0.108705 0.031342
0.366766 0.109804 0.017365
0.408820 0.109224 0.006806
0.450904 0.108461 0.000000
0.492897 0.108034 0.000000
0.534508 0.108461 0.000000
0.584955 0.111330 0.000000
0.629297 0.119112 0.000000
0.669764 0.130282 0.000000
0.708095 0.143862 0.000000
0.744686 0.160006 0.000000
0.778836 0.177462 0.000000
0.810880 0.195193 0.000000
0.841123 0.213626 0.000000
0.870268 0.232303 0.000000
0.898863 0.252567 0.000000
0.926787 0.273625 0.000000
0.954131 0.295537 0.000000
0.980713 0.318334 0.000000
1.000000 0.341802 0.000000
1.000000 0.365270 0.061372
0.057832 0.072175 0.072389
0.057313 0.073335 0.072663
0.065339 0.074311 0.071717
0.082399 0.078096 0.072724
0.104250 0.082734 0.071534
0.126528 0.088655 0.069886
0.152071 0.095186 0.066743
0.180331 0.101045 0.064149
0.212436 0.106325 0.061280
0.247410 0.110109 0.057404
0.284794 0.113252 0.049104
0.324193 0.115175 0.037018
0.365026 0.115480 0.026734
0.406806 0.115969 0.014984
0.448890 0.115877 0.002167
0.490822 0.115297 0.000000
0.533318 0.116121 0.000000
0.582696 0.119448 0.000000
0.626581 0.126131 0.000000
0.666835 0.136355 0.000000
0.705074 0.149905 0.000000
0.741604 0.164584 0.000000
0.776028 0.181033 0.000000
0.808225 0.198367 0.000000
0.838682 0.216220 0.000000
0.868070 0.234806 0.000000
0.896880 0.254582 0.000000
0.925078 0.275425 0.000000
0.952697 0.297276 0.000000
0.979431 0.319982 0.000000
1.000000 0.343175 0.000000
1.000000 0.366308 0.060151
0.053040 0.086580 0.077058
0.053254 0.087800 0.077607
0.061555 0.087221 0.076234
0.079835 0.090761 0.073671
0.100099 0.095857 0.074586
0.122469 0.102266 0.074617
0.149355 0.108431 0.071656
0.179355 0.113619 0.067964
0.211460 0.118288 0.066163
0.246372 0.121920 0.062989
0.283543 0.125246 0.059388
0.322606 0.127199 0.053773
0.363317 0.128878 0.045319
0.405005 0.129061 0.034913
0.446967 0.129610 0.024201
0.488777 0.129763 0.010498
0.532525 0.130861 0.000000
0.580194 0.134524 0.000000
0.622889 0.140902 0.000000
0.662226 0.150149 0.000000
0.699794 0.161349 0.000000
0.736080 0.175265 0.000000
0.770962 0.190372 0.000000
0.804044 0.206577 0.000000
0.835630 0.224369 0.000000
0.866026 0.242679 0.000000
0.895598 0.262303 0.000000
0.924163 0.282414 0.000000
0.951843 0.303868 0.000000
0.978454 0.325414 0.000000
1.000000 0.347723 0.000244
1.000000 0.369909 0.062196
0.042054 0.104585 0.088563
0.042695 0.105287 0.088746
0.058808 0.104616 0.086946
0.070314 0.103883 0.084199
0.095186 0.109255 0.080507
0.117983 0.114443 0.080598
0.143618 0.121981 0.080323
0.172732 0.128298 0.079622
0.206760 0.134066 0.076478
0.243687 0.138460 0.072419
0.280674 0.142092 0.070466
0.319707 0.144594 0.068147
0.360296 0.146944 0.064546
0.401984 0.148165 0.060670
0.444282 0.148806 0.052735
0.486519 0.149630 0.041505
0.532403 0.151858 0.025269
0.579126 0.156161 0.009339
0.621546 0.162417 0.000000
0.660487 0.170565 0.000000
0.697749 0.180636 0.000000
0.733761 0.192752 0.000000
0.768551 0.206638 0.000000
0.801846 0.221897 0.000000
0.833616 0.238193 0.000000
0.864286 0.255436 0.000000
0.894011 0.274083 0.000000
0.922698 0.293492 0.000000
0.950378 0.313603 0.000000
0.977050 0.334508 0.000000
1.000000 0.355840 0.024994
1.000000 0.377325 0.070954
0.021881 0.123079 0.102937
0.023316 0.124056 0.103334
0.042145 0.123964 0.101564
0.066224 0.122530 0.096803
0.081147 0.123201 0.091463
0.112490 0.129854 0.087526
0.139315 0.135470 0.087098
0.168307 0.143832 0.088411
0.200961 0.151614 0.089937
0.237278 0.157839 0.089540
0.276890 0.162661 0.086366
0.318669 0.166384 0.081300
0.359533 0.168887 0.078553
0.401343 0.170871 0.075044
0.443702 0.172519 0.070893
0.486030 0.173587 0.066499
0.534020 0.177127 0.060304
0.579889 0.181857 0.048859
0.621912 0.187930 0.036439
0.660945 0.195682 0.021668
0.698299 0.205112 0.012726
0.734585 0.216251 0.001343
0.802426 0.252659 0.044434
0.833158 0.267216 0.049561
0.862150 0.282200 0.051698
0.889799 0.298009 0.058778
0.916289 0.314214 0.065370
0.941985 0.331273 0.072389
0.966918 0.349096 0.082918
0.991089 0.367559 0.096071
1.000000 0.386236 0.110079
1.000000 0.404700 0.125765
0.000000 0.146822 0.120302
0.000000 0.147311 0.120027
0.012726 0.147799 0.118318
0.054536 0.147524 0.114046
0.077272 0.145663 0.108400
0.096712 0.147951 0.101045
0.135042 0.155917 0.096254
0.166751 0.161746 0.095491
0.200443 0.171328 0.097902
0.237491 0.180453 0.100801
0.276951 0.187655 0.102419
0.319249 0.193271 0.101228
0.363104 0.197024 0.097230
0.407904 0.199466 0.091707
0.450782 0.200870 0.087373
0.495247 0.203799 0.083528
0.543877 0.208621 0.079957
0.589319 0.214054 0.074800
0.631159 0.220401 0.070619
0.670863 0.228672 0.068025
0.710262 0.239475 0.065675
0.749386 0.252232 0.065217
0.787167 0.267063 0.065797
0.822568 0.282994 0.067964
0.855344 0.299199 0.072175
0.885222 0.315160 0.076814
0.912993 0.331090 0.082429
0.939178 0.347112 0.089479
0.964477 0.363806 0.097566
0.988708 0.381018 0.107485
1.000000 0.398505 0.119509
1.000000 0.415900 0.133303
0.000000 0.170809 0.136660
0.000000 0.171420 0.135866
0.000000 0.171939 0.134737
0.022278 0.172427 0.131380
0.069245 0.170840 0.124788
0.089326 0.169223 0.119295
0.113710 0.173495 0.110567
0.157778 0.182315 0.105501
0.193912 0.187930 0.104463
0.230564 0.197757 0.107210
0.270359 0.207950 0.111360
0.311742 0.216007 0.114382
0.354498 0.222232 0.115236
0.399329 0.226566 0.112856
0.444282 0.229557 0.108583
0.495125 0.234287 0.102602
0.543206 0.238834 0.097353
0.587274 0.243778 0.094118
0.628229 0.249821 0.091341
0.667506 0.257328 0.088777
0.706355 0.266758 0.087587
0.745174 0.278416 0.087007
0.782620 0.291844 0.087587
0.817929 0.306096 0.089631
0.850736 0.320897 0.091676
0.880827 0.335393 0.095308
0.908873 0.349950 0.099519
0.935424 0.364691 0.104097
0.961028 0.380255 0.111177
0.985565 0.396277 0.119448
1.000000 0.412604 0.129854
1.000000 0.429114 0.142184
0.000000 0.197635 0.153811
0.000000 0.198245 0.153140
0.000000 0.198886 0.152255
0.000000 0.199680 0.149477
0.046326 0.199496 0.144045
0.083162 0.196811 0.137057
0.103487 0.196262 0.131319
0.134310 0.202365 0.120851
0.183902 0.211582 0.115541
0.224063 0.216892 0.113985
0.263127 0.226535 0.117525
0.305180 0.237125 0.122499
0.348547 0.246067 0.126436
0.392401 0.252873 0.128878
0.440253 0.259770 0.129488
0.490364 0.266392 0.127474
0.538689 0.271427 0.123079
0.584955 0.276280 0.116670
0.627436 0.281651 0.110231
0.666194 0.288426 0.109316
0.704738 0.297398 0.108095
0.743099 0.308080 0.107668
0.780240 0.320165 0.108431
0.815183 0.332891 0.110628
0.847807 0.346288 0.112947
0.877928 0.359350 0.115267
0.906065 0.372473 0.118776
0.932769 0.386023 0.122560
0.958465 0.400153 0.128237
0.983093 0.414710 0.135409
1.000000 0.429908 0.144137
1.000000 0.445075 0.154391
0.000000 0.226871 0.171725
0.000000 0.227512 0.170871
0.000000 0.228061 0.170108
0.000000 0.228916 0.167788
0.000000 0.229129 0.163302
0.070008 0.226902 0.156008
0.098787 0.224277 0.149996
0.120333 0.225101 0.143160
0.157931 0.233219 0.132174
0.212375 0.242496 0.126802
0.255802 0.246799 0.124941
0.296300 0.255772 0.128786
0.340032 0.266361 0.134035
0.387182 0.277256 0.139223
0.437415 0.288029 0.143709
0.485878 0.296483 0.146822
0.533593 0.303471 0.146365
0.579919 0.310033 0.143496
0.623163 0.315862 0.139040
0.664027 0.322087 0.134127
0.703761 0.329229 0.128023
0.740658 0.338384 0.127932
0.776455 0.348577 0.128145
0.810452 0.359594 0.129274
0.842588 0.371038 0.130922
0.872831 0.382849 0.132967
0.901518 0.395117 0.135164
0.928862 0.407782 0.139101
0.955230 0.421149 0.144320
0.980468 0.435035 0.151461
1.000000 0.449348 0.159884
1.000000 0.463905 0.169833
0.000000 0.256657 0.189303
0.000000 0.257023 0.188785
0.000000 0.257572 0.187991
0.000000 0.258488 0.185916
0.000000 0.259098 0.182132
0.028992 0.258061 0.176028
0.089754 0.255344 0.169284
0.116732 0.253452 0.164004
0.140688 0.256168 0.155795
0.185275 0.265537 0.144350
0.243198 0.274449 0.139010
0.289555 0.277989 0.136660
0.332799 0.286992 0.140810
0.382025 0.300267 0.147768
0.432013 0.312657 0.154330
0.480781 0.323308 0.159182
0.527611 0.332311 0.163363
0.572900 0.340093 0.164584
0.615930 0.347265 0.163546
0.656733 0.354376 0.161227
0.696681 0.361913 0.157717
0.735988 0.370336 0.154086
0.773831 0.379400 0.149844
0.808469 0.389471 0.149172
0.840482 0.399786 0.150942
0.870695 0.410376 0.152926
0.899260 0.421332 0.155337
0.926574 0.432685 0.158663
0.952880 0.444770 0.163302
0.978180 0.457465 0.169223
1.000000 0.470588 0.176974
1.000000 0.484016 0.186282
0.000000 0.288090 0.207767
0.000000 0.288640 0.207370
0.000000 0.289128 0.206363
0.000000 0.289982 0.204929
0.000000 0.290654 0.201755
0.000000 0.290288 0.196719
0.071931 0.288029 0.189792
0.111604 0.285069 0.183902
0.137240 0.284276 0.178805
0.165347 0.288731 0.168887
0.215427 0.299107 0.157900
0.278294 0.309239 0.152895
0.347509 0.328130 0.156527
0.397406 0.338415 0.162020
0.449561 0.351629 0.170047
0.500755 0.364630 0.177707
0.549432 0.376165 0.183597
0.594476 0.386145 0.188113
0.635004 0.394079 0.191623
0.673701 0.401556 0.193301
0.711849 0.409247 0.193332
0.749081 0.417243 0.192111
0.784451 0.425177 0.190127
0.818112 0.432959 0.187625
0.849821 0.440986 0.185214
0.879301 0.449012 0.183413
0.906310 0.457984 0.186374
0.932189 0.467231 0.189303
0.957122 0.477302 0.193606
0.981262 0.488045 0.199008
1.000000 0.499367 0.205692
1.000000 0.511101 0.213931
0.000000 0.325292 0.229374
0.000000 0.325689 0.228946
0.000000 0.325902 0.228061
0.000000 0.326238 0.226352
0.000000 0.326268 0.223239
0.000000 0.325658 0.218845
0.016297 0.323766 0.212802
0.101411 0.320409 0.206210
0.136355 0.317876 0.201205
0.161929 0.318669 0.195377
0.197391 0.328588 0.186007
0.257694 0.343969 0.177035
0.328435 0.356237 0.173556
0.386816 0.362341 0.171969
0.436286 0.371160 0.176577
0.487556 0.383795 0.184085
0.537530 0.396796 0.191562
0.584344 0.408881 0.197879
0.626551 0.419043 0.203555
0.665614 0.427832 0.208469
0.703182 0.436591 0.212497
0.740414 0.445350 0.214603
0.775845 0.453559 0.215122
0.809659 0.461616 0.214481
0.841672 0.469306 0.213352
0.871977 0.476967 0.211551
0.900725 0.484443 0.209384
0.928099 0.491951 0.206760
0.953307 0.501152 0.210605
0.977691 0.511040 0.216190
1.000000 0.521599 0.222477
1.000000 0.532555 0.230625
0.000000 0.356695 0.247776
0.000000 0.357061 0.247379
0.000000 0.357122 0.246586
0.000000 0.357305 0.244877
0.000000 0.357458 0.242100
0.000000 0.357000 0.238376
0.000000 0.355627 0.233249
0.082521 0.352850 0.226810
0.130739 0.351263 0.222202
0.163058 0.352300 0.219181
0.191379 0.357183 0.214298
0.232517 0.367987 0.203342
0.297124 0.382361 0.194186
0.369055 0.392523 0.189731
0.426978 0.396612 0.187259
0.473915 0.402869 0.190677
0.522332 0.414069 0.197696
0.570031 0.426764 0.205234
0.614282 0.438727 0.211948
0.655299 0.449744 0.218753
0.694179 0.460121 0.225071
0.731472 0.470130 0.230625
0.767147 0.479377 0.234958
0.801297 0.488167 0.237308
0.833707 0.496468 0.238560
0.864530 0.504509 0.239292
0.893828 0.512291 0.238773
0.921721 0.520073 0.238499
0.948547 0.528008 0.237766
0.974395 0.536217 0.237919
0.998413 0.545647 0.242161
1.000000 0.555901 0.249973
0.000000 0.388678 0.266575
0.000000 0.389105 0.266270
0.000000 0.389075 0.265476
0.000000 0.389258 0.263981
0.000000 0.389227 0.261540
0.000000 0.389288 0.258610
0.000000 0.390173 0.255344
0.040742 0.389685 0.250584
0.121126 0.388251 0.245518
0.162325 0.387274 0.241581
0.192874 0.388830 0.238346
0.222660 0.394568 0.231540
0.269474 0.405585 0.219791
0.337163 0.418494 0.210758
0.408545 0.426581 0.205753
0.464881 0.429023 0.202426
0.509667 0.433509 0.204410
0.555749 0.443793 0.210971
0.601068 0.456184 0.218540
0.643702 0.468452 0.226474
0.684169 0.480446 0.234409
0.722896 0.492042 0.241367
0.759121 0.502617 0.248539
0.793393 0.512444 0.254795
0.826017 0.521721 0.259312
0.857450 0.530510 0.262699
0.887480 0.539269 0.265782
0.916228 0.547967 0.268070
0.943847 0.556786 0.270817
0.970336 0.565850 0.273808
0.995453 0.574914 0.277256
1.000000 0.583856 0.280766
0.000000 0.423804 0.287297
0.000000 0.424445 0.287327
0.000000 0.424872 0.286809
0.000000 0.425788 0.286046
0.000000 0.426886 0.284611
0.000000 0.427832 0.282506
0.000000 0.428443 0.279606
0.000000 0.428229 0.275639
0.105592 0.426581 0.270176
0.157931 0.424567 0.265080
0.194553 0.423468 0.261143
0.223758 0.424964 0.256840
0.255528 0.430396 0.247684
0.306065 0.440284 0.234897
0.374823 0.450843 0.225284
0.444068 0.456916 0.220066
0.499062 0.458442 0.216159
0.542138 0.462196 0.217746
0.586938 0.472511 0.224094
0.631189 0.485389 0.232334
0.673671 0.498878 0.241917
0.714473 0.512383 0.251133
0.752621 0.524865 0.260044
0.788235 0.536339 0.268467
0.821317 0.546838 0.276707
0.852811 0.556756 0.284123
0.882963 0.566247 0.290471
0.911894 0.575586 0.295995
0.939544 0.584863 0.301274
0.965911 0.593988 0.306645
0.990814 0.603082 0.312016
1.000000 0.611749 0.317174
0.000000 0.460548 0.309667
0.000000 0.460792 0.309483
0.000000 0.461036 0.309117
0.000000 0.461524 0.308141
0.000000 0.462135 0.306584
0.000000 0.462684 0.304723
0.000000 0.462959 0.302007
0.000000 0.462409 0.297917
0.077974 0.460914 0.292790
0.147616 0.458686 0.287358
0.191806 0.456458 0.282628
0.224887 0.455848 0.278660
0.253910 0.457893 0.273259
0.288884 0.463722 0.262516
0.343267 0.473060 0.249577
0.412451 0.482246 0.240146
0.479805 0.487282 0.234440
0.533501 0.488472 0.230381
0.575525 0.491981 0.231357
0.618158 0.501701 0.237858
0.661067 0.514672 0.247013
0.702998 0.528862 0.257389
0.742855 0.542809 0.267552
0.780026 0.555840 0.278111
0.814664 0.567895 0.288243
0.847044 0.579187 0.298528
0.877501 0.589868 0.308537
0.906554 0.600092 0.318059
0.934356 0.610193 0.326696
0.960845 0.619959 0.335027
0.985992 0.629572 0.343328
1.000000 0.638849 0.351690
0.000000 0.496376 0.332036
0.000000 0.496986 0.332067
0.000000 0.512261 0.341497
0.000000 0.512474 0.340703
0.000000 0.512566 0.339086
0.000000 0.512352 0.336980
0.000000 0.511742 0.333776
0.000000 0.510796 0.330114
0.009216 0.508965 0.324956
0.140230 0.506157 0.318578
0.194003 0.502892 0.312505
0.233646 0.500237 0.307774
0.264775 0.499001 0.302922
0.293431 0.500328 0.295109
0.332128 0.505425 0.282322
0.389532 0.513420 0.268559
0.458778 0.521019 0.258793
0.524315 0.524895 0.252964
0.575738 0.525475 0.248997
0.615290 0.527733 0.249607
0.655482 0.536461 0.256046
0.696986 0.549248 0.265904
0.737301 0.563287 0.276921
0.775143 0.576867 0.288548
0.809964 0.589380 0.300023
0.842496 0.601007 0.311559
0.872892 0.611810 0.322606
0.901488 0.622248 0.334112
0.928923 0.632685 0.346227
0.955291 0.643183 0.358038
0.980407 0.653407 0.369604
1.000000 0.663233 0.380926
0.000000 0.534936 0.356695
0.000000 0.537377 0.358099
0.000000 0.539910 0.359197
0.000000 0.542107 0.359777
0.000000 0.543755 0.359533
0.000000 0.544305 0.357977
0.000000 0.543999 0.355352
0.000000 0.543023 0.351812
0.000000 0.541558 0.347051
0.117037 0.538964 0.341039
0.183444 0.535546 0.334356
0.229648 0.532006 0.328588
0.265415 0.529137 0.323613
0.294743 0.527977 0.317845
0.324010 0.529503 0.308690
0.365820 0.534447 0.294652
0.425086 0.541863 0.281102
0.493141 0.548577 0.271916
0.556176 0.552148 0.266911
0.606256 0.553246 0.263005
0.645258 0.555779 0.263737
0.684810 0.564904 0.270817
0.725368 0.577905 0.281346
0.764279 0.591882 0.293645
0.800717 0.605432 0.306462
0.834714 0.618280 0.319585
0.866361 0.630488 0.332921
0.896056 0.642084 0.346654
0.924071 0.653468 0.361212
0.950469 0.664759 0.376562
0.975341 0.675715 0.392004
0.998779 0.686183 0.406622
0.000000 0.567651 0.378027
0.000000 0.569970 0.379278
0.000000 0.572259 0.380499
0.000000 0.574334 0.380987
0.000000 0.575769 0.380682
0.000000 0.576196 0.379309
0.000000 0.575830 0.376928
0.000000 0.574762 0.373388
0.000000 0.573449 0.369207
0.082185 0.571160 0.363592
0.169070 0.567834 0.356847
0.223270 0.564050 0.350378
0.264317 0.560204 0.344549
0.297063 0.557580 0.339483
0.325414 0.556664 0.332677
0.356176 0.558495 0.321935
0.401129 0.563531 0.307591
0.461616 0.570581 0.294713
0.528222 0.576959 0.286503
0.589105 0.580896 0.282109
0.638025 0.582605 0.278782
0.676905 0.585687 0.279942
0.715206 0.594598 0.287114
0.753902 0.607080 0.298344
0.791104 0.620508 0.311498
0.826169 0.634028 0.325963
0.858915 0.647089 0.340764
0.889708 0.659693 0.356390
0.918578 0.672053 0.372992
0.945617 0.684108 0.390387
0.970733 0.695827 0.408789
0.993957 0.706935 0.427070
0.000000 0.600397 0.399756
0.000000 0.602502 0.401160
0.000000 0.604608 0.402197
0.000000 0.606378 0.402808
0.000000 0.607507 0.402441
0.000000 0.607782 0.400977
0.000000 0.607172 0.398505
0.000000 0.606104 0.395300
0.000000 0.604639 0.391028
0.000000 0.602533 0.386023
0.151034 0.599359 0.379431
0.214572 0.595361 0.372503
0.261540 0.591211 0.366247
0.298650 0.587579 0.360662
0.329198 0.585321 0.355383
0.357366 0.585168 0.347997
0.390936 0.588190 0.336431
0.439490 0.594324 0.322820
0.501549 0.602197 0.311254
0.567529 0.609674 0.304906
0.627283 0.614984 0.301610
0.676448 0.618219 0.299535
0.715084 0.621973 0.301305
0.751766 0.630457 0.309667
0.788815 0.642542 0.322484
0.824521 0.655970 0.337743
0.858122 0.669581 0.354803
0.889525 0.682918 0.372808
0.918761 0.695949 0.392248
0.945769 0.708583 0.412421
0.970611 0.720638 0.433387
0.993530 0.731960 0.453803
0.000000 0.639368 0.427039
0.000000 0.640345 0.427436
0.000000 0.641230 0.427771
0.000000 0.641749 0.427497
0.000000 0.642054 0.426734
0.000000 0.641810 0.424964
0.000000 0.641230 0.422736
0.000000 0.640497 0.419776
0.000000 0.639399 0.416297
0.000000 0.637873 0.411841
0.133272 0.635554 0.406317
0.208927 0.632013 0.399542
0.262333 0.627680 0.392645
0.304295 0.623499 0.386847
0.338384 0.619959 0.381506
0.367163 0.618067 0.375677
0.395239 0.618402 0.367346
0.431250 0.621759 0.354894
0.481636 0.627924 0.341192
0.542779 0.635584 0.330480
0.606012 0.642695 0.324376
0.663172 0.647547 0.321294
0.709804 0.650080 0.319280
0.746609 0.652888 0.320867
0.780880 0.660060 0.329198
0.815946 0.671321 0.342809
0.850065 0.684413 0.359533
0.882383 0.697963 0.378698
0.912474 0.711482 0.399481
0.940246 0.724697 0.421668
0.965667 0.737240 0.444373
0.989075 0.749325 0.467079
0.000000 0.671321 0.449622
0.000000 0.672236 0.450172
0.000000 0.673213 0.450568
0.000000 0.673793 0.450263
0.000000 0.674006 0.449592
0.000000 0.673671 0.447852
0.000000 0.672999 0.445594
0.000000 0.672023 0.442817
0.000000 0.670924 0.439368
0.000000 0.669429 0.435218
0.106386 0.667262 0.429969
0.197269 0.664057 0.423560
0.257755 0.659815 0.416724
0.304784 0.655451 0.410498
0.342779 0.651514 0.405035
0.374395 0.648646 0.400183
0.402686 0.647547 0.394141
0.431373 0.648890 0.385138
0.470039 0.653101 0.372503
0.521630 0.659785 0.359747
0.581842 0.667750 0.350042
0.643122 0.674952 0.344945
0.698085 0.679957 0.342473
0.743404 0.682765 0.341619
0.774441 0.680842 0.339757
0.807095 0.687373 0.348211
0.840726 0.698238 0.362829
0.873442 0.710964 0.381323
0.904387 0.724422 0.402594
0.933104 0.738064 0.426307
0.959625 0.751461 0.451270
0.983948 0.764492 0.476661
0.000000 0.709499 0.477699
0.000000 0.710506 0.478279
0.000000 0.711055 0.478523
0.000000 0.711086 0.477882
0.000000 0.710689 0.476661
0.000000 0.709834 0.474708
0.000000 0.708461 0.471962
0.000000 0.706905 0.468696
0.000000 0.704952 0.464637
0.000000 0.702724 0.460243
0.067201 0.699825 0.454658
0.184268 0.696407 0.448585
0.252140 0.691890 0.441321
0.303746 0.686946 0.434424
0.345098 0.681910 0.428290
0.379095 0.677485 0.422614
0.407691 0.674434 0.417060
0.434668 0.673579 0.410346
0.464240 0.675502 0.400366
0.504967 0.680537 0.388128
0.557153 0.687800 0.376349
0.616175 0.695918 0.368017
0.675013 0.702815 0.363439
0.727291 0.707240 0.361486
0.770291 0.709346 0.360418
0.804715 0.711543 0.362737
0.835752 0.717433 0.372107
0.867308 0.727321 0.387762
0.898070 0.739376 0.408087
0.927092 0.752438 0.431678
0.954223 0.765927 0.457923
0.979065 0.779232 0.485023
0.000000 0.740505 0.500633
0.000000 0.741360 0.501122
0.000000 0.741909 0.501366
0.000000 0.741878 0.500786
0.000000 0.741421 0.499458
0.000000 0.740566 0.497597
0.000000 0.739498 0.495155
0.000000 0.738033 0.492164
0.000000 0.736385 0.488655
0.000000 0.734585 0.484657
0.000000 0.732113 0.479805
0.172580 0.729122 0.474434
0.248173 0.725154 0.467994
0.305364 0.720394 0.461311
0.350927 0.715358 0.455146
0.388464 0.710597 0.449775
0.419593 0.706783 0.444648
0.447028 0.704738 0.439643
0.473457 0.704921 0.432776
0.504601 0.707851 0.422797
0.546258 0.713375 0.410620
0.597742 0.720760 0.399786
0.654749 0.728450 0.392187
0.710719 0.734890 0.388128
0.760678 0.738979 0.386511
0.801968 0.740963 0.386206
0.835477 0.743282 0.389685
0.865049 0.748775 0.400366
0.894865 0.758206 0.418219
0.923735 0.769924 0.441688
0.951049 0.782895 0.468299
0.976074 0.795987 0.496834
0.000000 0.773251 0.525536
0.000000 0.773831 0.525872
0.000000 0.774014 0.525872
0.000000 0.773770 0.525078
0.000000 0.773098 0.523735
0.000000 0.772091 0.521782
0.000000 0.770840 0.519341
0.000000 0.769345 0.516289
0.000000 0.767666 0.512902
0.000000 0.765835 0.509270
0.000000 0.763516 0.504845
0.159854 0.760739 0.500084
0.243809 0.757076 0.494545
0.306126 0.752377 0.487892
0.355596 0.747280 0.481849
0.396368 0.742245 0.476570
0.430213 0.737850 0.471778
0.459052 0.734859 0.467750
0.485298 0.733700 0.462745
0.511498 0.734951 0.456092
0.543816 0.738674 0.445930
0.585779 0.744564 0.434394
0.636225 0.751766 0.424018
0.690822 0.758999 0.417243
0.743984 0.764889 0.413550
0.791226 0.768521 0.412512
0.830808 0.770352 0.412818
0.862913 0.772457 0.417365
0.891081 0.777523 0.429358
0.919310 0.786709 0.449531
0.946410 0.798093 0.475044
0.971618 0.810330 0.503319
0.000000 0.803983 0.549248
0.000000 0.804257 0.549432
0.000000 0.804471 0.549340
0.000000 0.804318 0.548669
0.000000 0.804013 0.547784
0.000000 0.803616 0.546380
0.000000 0.803403 0.544945
0.000000 0.803098 0.543328
0.000000 0.802762 0.541466
0.000000 0.802182 0.539422
0.000000 0.801114 0.536828
0.166629 0.799405 0.533837
0.255833 0.796689 0.530053
0.322454 0.792813 0.525200
0.376318 0.788174 0.520378
0.419959 0.783200 0.515923
0.455940 0.778653 0.511833
0.486152 0.775082 0.508354
0.512230 0.773098 0.504906
0.537011 0.772946 0.500420
0.562524 0.774838 0.493477
0.594934 0.778897 0.483406
0.635859 0.784573 0.472480
0.684016 0.791257 0.463050
0.735286 0.797696 0.456825
0.784878 0.802853 0.453712
0.829191 0.805936 0.453040
0.866392 0.807523 0.454597
0.897032 0.809720 0.461219
0.923430 0.814481 0.475593
0.949035 0.822751 0.497627
0.973083 0.832853 0.524681
0.000000 0.843534 0.581811
0.000000 0.843717 0.581903
0.000000 0.843595 0.581598
0.000000 0.843137 0.580743
0.000000 0.842374 0.579461
0.000000 0.841459 0.577691
0.000000 0.840452 0.575860
0.000000 0.839353 0.573754
0.000000 0.838071 0.571344
0.000000 0.836515 0.568688
0.000000 0.834501 0.565728
0.167941 0.831876 0.562310
0.259892 0.828458 0.558556
0.328435 0.824216 0.554253
