Lut/day1.cube
# Created by Adobe Lightroom plugin Export LUT (1.24.0)
# www.johnrellis.com/lightroom/exportlut.htm
# Photo: 未命名_1.1.1.jpg
# Color profile: C:\Program Files (x86)\Common Files\Adobe\Color\Profiles\Recommended\AdobeRGB1998.icc
LUT_3D_SIZE 5
DOMAIN_MIN 0.000000 0.000000 0.000000
DOMAIN_MAX 0.903226 0.903226 0.903226
0.058961 0.066804 0.071015
0.182864 0.088960 0.062531
0.453712 0.102907 0.000000
0.750484 0.158877 0.000000
0.957183 0.296757 0.000000
0.000000 0.170809 0.136660
0.157778 0.182315 0.105501
0.444282 0.229557 0.108583
0.745174 0.278416 0.087007
0.961028 0.380255 0.111177
0.000000 0.388678 0.266575
0.040742 0.389685 0.250584
0.408545 0.426581 0.205753
0.722896 0.492042 0.241367
0.943847 0.556786 0.270817
0.000000 0.639368 0.427039
0.000000 0.640497 0.419776
0.338384 0.619959 0.381506
0.663172 0.647547 0.321294
0.912474 0.711482 0.399481
0.000000 0.874449 0.606836
0.000000 0.870756 0.599939
0.377447 0.841184 0.567681
0.606226 0.825528 0.550011
0.881376 0.859068 0.515068
0.000000 0.081910 0.204166
0.164187 0.101686 0.203891
0.432349 0.000000 0.188174
0.717067 0.110933 0.184115
0.941741 0.274205 0.184482
0.000000 0.185306 0.225528
0.153079 0.199161 0.228153
0.433265 0.209506 0.216342
0.716091 0.253361 0.213870
0.941894 0.355993 0.215885
0.000000 0.390784 0.324071
0.015045 0.407935 0.326940
0.391913 0.418860 0.290806
0.703212 0.484657 0.318822
0.939361 0.549126 0.325994
0.000000 0.643305 0.473304
0.000000 0.647333 0.470161
0.370855 0.629145 0.435492
0.659236 0.648127 0.385687
0.908446 0.715816 0.458412
0.000000 0.877073 0.637385
0.000000 0.874174 0.630945
0.392615 0.855344 0.611658
0.627619 0.830533 0.590784
0.882261 0.862730 0.559167
0.000000 0.137270 0.434424
0.108827 0.153079 0.434058
0.419989 0.189914 0.434455
0.702541 0.158999 0.432166
0.929320 0.213962 0.398871
0.000000 0.226658 0.446815
0.084321 0.235935 0.446754
0.418036 0.272374 0.444739
0.697993 0.246098 0.435309
0.929992 0.298589 0.406195
0.000000 0.412421 0.480385
0.000000 0.421088 0.479561
0.404852 0.444160 0.479408
0.692714 0.444221 0.456245
0.927947 0.514366 0.462928
0.000000 0.627832 0.564874
0.000000 0.632074 0.565423
0.373175 0.654108 0.573327
0.655573 0.656886 0.542016
0.903685 0.728237 0.593591
0.000000 0.868040 0.713985
0.000000 0.872343 0.712581
0.318151 0.873228 0.699947
0.661799 0.837430 0.674952
0.874540 0.861814 0.651942
0.000000 0.215213 0.673579
0.000000 0.226963 0.675074
0.421942 0.269993 0.667170
0.674586 0.314458 0.663966
0.903319 0.386908 0.681361
0.000000 0.285435 0.678401
0.000000 0.293126 0.678553
0.417151 0.326604 0.670802
0.667842 0.366979 0.664240
0.900145 0.418799 0.679866
0.000000 0.450660 0.690181
0.000000 0.455848 0.690333
0.387152 0.467079 0.689326
0.661707 0.503777 0.678737
0.902525 0.514641 0.680140
0.000000 0.634791 0.720302
0.000000 0.636774 0.718044
0.344213 0.647395 0.716976
0.657618 0.669490 0.714412
0.903838 0.685237 0.694087
0.000000 0.845762 0.800198
0.000000 0.850217 0.801053
0.171115 0.863127 0.802609
0.634699 0.872648 0.796414
0.870390 0.867033 0.772488
0.000000 0.324254 0.892027
0.000000 0.333562 0.890898
0.467689 0.383246 0.883696
0.704402 0.461982 0.872465
0.886503 0.527153 0.873777
0.000000 0.372839 0.893370
0.000000 0.380316 0.892210
0.461311 0.421180 0.885893
0.703395 0.494209 0.874052
0.885374 0.554437 0.875181
0.000000 0.504387 0.898924
0.000000 0.506767 0.898039
0.417243 0.522637 0.893767
0.696529 0.580072 0.881773
0.883635 0.632898 0.881193
0.000000 0.671748 0.906340
0.000000 0.672541 0.906035
0.321202 0.676265 0.904814
0.663233 0.696925 0.899046
0.882567 0.746944 0.892332
0.000000 0.837797 0.923552
0.000000 0.839506 0.923339
0.255528 0.845304 0.922332
0.624750 0.859098 0.918425
0.885740 0.888212 0.912810
