Lut/day2.cube
# Created by Adobe Lightroom plugin Export LUT (1.24.0)
# www.johnrellis.com/lightroom/exportlut.htm
# Photo: 未命名_1.1.1.jpg
# Color profile: C:\Program Files (x86)\Common Files\Adobe\Color\Profiles\Recommended\AdobeRGB1998.icc
LUT_3D_SIZE 5
DOMAIN_MIN 0.000000 0.000000 0.000000
DOMAIN_MAX 0.903226 0.903226 0.903226
0.058961 0.066804 0.071015
0.228183 0.114168 0.062440
0.556847 0.182010 0.084016
0.830442 0.343267 0.176333
0.994385 0.494118 0.283024
0.000000 0.192905 0.149111
0.198276 0.219760 0.118105
0.554589 0.312047 0.117556
0.829038 0.421729 0.192782
0.998505 0.543847 0.301396
0.000000 0.421241 0.284031
0.153109 0.408881 0.277928
0.501183 0.490974 0.239048
0.821164 0.600641 0.259525
0.989868 0.667811 0.358679
0.000000 0.647211 0.433906
0.035615 0.640864 0.429999
0.424811 0.603418 0.430518
0.744869 0.706691 0.382330
0.975677 0.789975 0.426917
0.000000 0.850004 0.592096
0.168460 0.842008 0.588891
0.508995 0.801633 0.582727
0.655573 0.791897 0.591516
0.924895 0.886595 0.576684
0.000000 0.121279 0.241520
0.187259 0.113802 0.268620
0.479561 0.197879 0.292515
0.774075 0.347845 0.352880
0.970001 0.507378 0.417151
0.000000 0.215671 0.270695
0.181552 0.238865 0.279332
0.489815 0.300786 0.316808
0.781827 0.411566 0.357610
0.974334 0.545830 0.420081
0.000000 0.438422 0.368078
0.000000 0.456123 0.372290
0.457588 0.471839 0.347143
0.789517 0.584619 0.381292
0.977203 0.668391 0.457069
0.000000 0.664698 0.494484
0.000000 0.663355 0.490608
0.450294 0.623285 0.478950
0.729488 0.701991 0.458625
0.966094 0.793820 0.510826
0.000000 0.860624 0.627283
0.000000 0.853971 0.622339
0.510246 0.821592 0.617823
0.670558 0.797055 0.627131
0.921843 0.888914 0.623621
0.000000 0.239292 0.482063
0.157565 0.248600 0.493965
0.447211 0.217166 0.532067
0.710597 0.278660 0.525048
0.919341 0.538445 0.620417
0.000000 0.306371 0.492531
0.182345 0.317998 0.499733
0.441077 0.308995 0.535088
0.705379 0.354101 0.533410
0.921324 0.578119 0.634852
0.000000 0.449897 0.533715
0.106569 0.460151 0.536065
0.447517 0.489448 0.543542
0.702388 0.543938 0.578759
0.937682 0.671595 0.652186
0.000000 0.656641 0.611444
0.000000 0.661128 0.612573
0.376226 0.678614 0.617884
0.682155 0.682979 0.610315
0.942565 0.801114 0.676875
0.000000 0.870237 0.724575
0.000000 0.874083 0.722286
0.385901 0.865324 0.705013
0.701625 0.813840 0.702083
0.907134 0.887114 0.718624
0.122683 0.380468 0.700130
0.239384 0.387335 0.705257
0.438209 0.389715 0.719295
0.663935 0.360174 0.744045
0.889464 0.440681 0.752285
0.157839 0.421393 0.702541
0.259098 0.427802 0.705898
0.447242 0.435492 0.718105
0.658320 0.411780 0.741512
0.887022 0.472236 0.750515
0.169070 0.519097 0.712398
0.275761 0.526299 0.714595
0.474098 0.546197 0.722225
0.655970 0.544945 0.743099
0.888396 0.573327 0.750179
0.000000 0.646326 0.746242
0.154421 0.649042 0.745693
0.442054 0.662837 0.748257
0.676112 0.693446 0.752987
0.897185 0.771420 0.798367
0.000000 0.845670 0.825589
0.000000 0.850553 0.825742
0.130190 0.864927 0.824216
0.623011 0.876280 0.812253
0.885801 0.881559 0.819883
0.415351 0.556634 0.884703
0.456733 0.561730 0.885130
0.561608 0.571893 0.887114
0.687922 0.572168 0.893584
0.848478 0.565972 0.915129
0.423041 0.577905 0.885679
0.463478 0.582635 0.886076
0.568536 0.594202 0.887877
0.692103 0.596277 0.893858
0.848692 0.590051 0.915312
0.425055 0.635859 0.889433
0.465431 0.639673 0.889921
0.577111 0.652735 0.891356
0.704677 0.664240 0.895964
0.851164 0.660243 0.916289
0.382116 0.714015 0.896727
0.426856 0.716793 0.897246
0.553277 0.728054 0.898924
0.718318 0.753719 0.902037
0.860014 0.766232 0.917937
0.219974 0.822202 0.919860
0.299992 0.824338 0.920195
0.475868 0.832944 0.921172
0.681025 0.853025 0.921782
0.889311 0.894255 0.923613
