Lut/day2.cube
# Created by Adobe Lightroom plugin Export LUT (1.24.0)
# www.johnrellis.com/lightroom/exportlut.htm
# Photo: 未命名_1.1.1.jpg
# Color profile: C:\Program Files (x86)\Common Files\Adobe\Color\Profiles\Recommended\AdobeRGB1998.icc
LUT_3D_SIZE 32
DOMAIN_MIN 0.0 0.0 0.0
DOMAIN_MAX 1.0 1.0 1.0
0.058961 0.066804 0.071015
0.067353 0.068452 0.071077
0.077516 0.070405 0.071382
0.097841 0.075105 0.071046
0.123354 0.084749 0.071199
0.153994 0.095674 0.069276
0.188785 0.105013 0.067201
0.228183 0.114168 0.062440
0.270420 0.122164 0.059876
0.315068 0.130282 0.059022
0.362005 0.138003 0.061830
0.410925 0.146395 0.066468
0.460273 0.156497 0.071565
0.509209 0.168093 0.078462
0.556847 0.182010 0.084016
0.602136 0.198550 0.090852
0.644831 0.217594 0.099245
0.690578 0.242588 0.113527
0.729641 0.267582 0.129335
0.765591 0.292943 0.144594
0.799283 0.318334 0.160128
0.830442 0.343267 0.176333
0.859007 0.367163 0.191531
0.885435 0.389868 0.206149
0.909819 0.411749 0.220829
0.932586 0.432837 0.235813
0.954314 0.453620 0.250889
0.974884 0.474006 0.266453
0.994385 0.494118 0.283024
1.000000 0.513725 0.299138
1.000000 0.532525 0.315618
1.000000 0.550225 0.331579
0.057679 0.073274 0.074098
0.065980 0.074159 0.073121
0.077058 0.077607 0.072541
0.097200 0.083528 0.072786
0.123384 0.092927 0.071748
0.153994 0.102327 0.070710
0.189120 0.111635 0.067018
0.228641 0.119875 0.063111
0.270512 0.128176 0.060029
0.314733 0.136019 0.060060
0.361242 0.143435 0.063844
0.409735 0.151797 0.067536
0.458717 0.161471 0.073396
0.507469 0.172641 0.078950
0.554620 0.186038 0.085237
0.599786 0.201846 0.092134
0.642969 0.220676 0.099031
0.687495 0.244236 0.113252
0.726009 0.268437 0.127596
0.761593 0.292821 0.142397
0.795163 0.317540 0.157687
0.826444 0.341985 0.172641
0.855253 0.365362 0.188144
0.882048 0.388159 0.202304
0.906767 0.409918 0.216831
0.929931 0.431067 0.231815
0.952026 0.451942 0.246891
0.972961 0.472480 0.262638
0.992767 0.492683 0.279149
1.000000 0.512383 0.295506
1.000000 0.531182 0.311742
1.000000 0.548852 0.327520
0.056489 0.081483 0.078462
0.064759 0.079591 0.078492
0.074556 0.084016 0.075898
0.095979 0.092287 0.075105
0.122316 0.101778 0.074342
0.152926 0.111299 0.072816
0.188144 0.120058 0.068879
0.227298 0.127871 0.065583
0.269627 0.135836 0.062928
0.314244 0.143252 0.062470
0.360693 0.150484 0.065705
0.409094 0.158938 0.068421
0.457740 0.167788 0.074739
0.506401 0.179019 0.080110
0.553491 0.191989 0.085725
0.598657 0.207218 0.092348
0.642267 0.225681 0.100343
0.686152 0.248417 0.112703
0.724331 0.271519 0.126589
0.759762 0.295293 0.141176
0.793210 0.319493 0.156374
0.824582 0.343420 0.171542
0.853544 0.366522 0.186252
0.880430 0.389014 0.200626
0.905272 0.410620 0.215457
0.928679 0.431617 0.230289
0.950988 0.452461 0.245212
0.972107 0.473060 0.260899
0.992065 0.493202 0.277562
1.000000 0.512749 0.293553
1.000000 0.531518 0.309880
1.000000 0.548974 0.325536
0.052918 0.098421 0.087617
0.065553 0.096407 0.087648
0.071595 0.095399 0.088472
0.091341 0.103365 0.082795
0.120455 0.115175 0.079103
0.151675 0.126894 0.077211
0.187411 0.136019 0.073976
0.226566 0.143862 0.071473
0.268559 0.151797 0.070558
0.312902 0.158785 0.071565
0.359899 0.166415 0.071839
0.408667 0.173800 0.074281
0.458045 0.182681 0.076448
0.506523 0.192599 0.080842
0.553246 0.204654 0.087037
0.598230 0.219028 0.092744
0.642664 0.237003 0.100862
0.685298 0.258152 0.112276
0.722286 0.279576 0.126284
0.756893 0.301671 0.140444
0.789944 0.324346 0.154452
0.821195 0.347143 0.169100
0.850584 0.369879 0.183200
0.878111 0.392340 0.197818
0.903716 0.414008 0.213413
0.927794 0.435248 0.228611
0.950530 0.456184 0.244633
0.971923 0.476478 0.260197
0.991913 0.496284 0.276646
1.000000 0.515404 0.292424
1.000000 0.533623 0.308324
1.000000 0.550500 0.323095
0.046174 0.116915 0.100801
0.061555 0.115969 0.100282
0.071962 0.113985 0.099825
0.082033 0.113649 0.098909
0.112123 0.126314 0.090761
0.148714 0.140902 0.083192
0.184237 0.154788 0.080903
0.223667 0.165011 0.079286
0.265873 0.173098 0.078828
0.309972 0.180636 0.080201
0.356847 0.187778 0.081025
0.405341 0.195468 0.082979
0.454658 0.203861 0.085115
0.503624 0.213321 0.088808
0.551568 0.224643 0.091371
0.597406 0.237461 0.096162
0.643885 0.254643 0.102846
0.686000 0.274083 0.112673
0.722591 0.293919 0.126741
0.756893 0.314397 0.139712
0.789487 0.335576 0.154421
0.820584 0.357336 0.167849
0.849699 0.378729 0.182834
0.877195 0.400061 0.197696
0.903044 0.421241 0.212680
0.927367 0.441871 0.227573
0.950134 0.462196 0.243473
0.971496 0.481941 0.259464
0.991577 0.501152 0.275456
1.000000 0.519738 0.291173
1.000000 0.537407 0.306157
1.000000 0.553826 0.320562
0.029053 0.138033 0.114992
0.049134 0.137728 0.114321
0.066194 0.136416 0.112825
0.082643 0.133059 0.112276
0.095766 0.135714 0.108919
0.136324 0.153048 0.098116
0.181827 0.170291 0.086946
0.221408 0.185672 0.086305
0.263828 0.197635 0.087190
0.308873 0.206271 0.087495
0.355901 0.214237 0.088411
0.404425 0.221775 0.091066
0.453773 0.230045 0.093812
0.502708 0.239231 0.097658
0.550744 0.249943 0.100771
0.596735 0.262089 0.104585
0.644617 0.279057 0.111727
0.686213 0.296452 0.121218
0.723110 0.314549 0.132815
0.757656 0.333288 0.144991
0.790768 0.352880 0.156832
0.822141 0.372961 0.170047
0.874388 0.416327 0.207858
0.899535 0.435889 0.223575
0.922759 0.454597 0.238376
0.944366 0.472663 0.253727
0.964599 0.490394 0.268833
0.983642 0.507683 0.283482
1.000000 0.524590 0.298680
1.000000 0.540887 0.313146
1.000000 0.556420 0.326909
1.000000 0.570581 0.339330
0.000000 0.164858 0.131991
0.020294 0.164858 0.131197
0.049165 0.164431 0.130037
0.077974 0.161776 0.128420
0.096803 0.158450 0.128481
0.115175 0.165133 0.120974
0.166934 0.186557 0.107393
0.222934 0.206027 0.091707
0.266728 0.222080 0.091920
0.312627 0.235904 0.095033
0.361059 0.246036 0.097047
0.411078 0.254765 0.098787
0.460822 0.263035 0.102419
0.509819 0.271885 0.106172
0.557031 0.282078 0.109865
0.605432 0.295079 0.115236
0.652247 0.311284 0.123079
0.692988 0.327428 0.132692
0.729763 0.343908 0.144503
0.764950 0.361852 0.157748
0.799222 0.381659 0.171969
0.832364 0.402411 0.187137
0.863615 0.423804 0.203799
0.892393 0.444526 0.221012
0.918456 0.464607 0.237919
0.941711 0.482979 0.254185
0.962890 0.500481 0.269169
0.982330 0.517082 0.284215
1.000000 0.533257 0.298955
1.000000 0.548699 0.313176
1.000000 0.563500 0.326482
1.000000 0.577081 0.338659
0.000000 0.192905 0.149111
0.000000 0.193301 0.148684
0.009613 0.193301 0.147829
0.065461 0.191592 0.145754
0.094789 0.187289 0.144625
0.112886 0.184939 0.144411
0.137697 0.195773 0.133547
0.198276 0.219760 0.118105
0.261845 0.240208 0.098634
0.308843 0.256016 0.098238
0.357183 0.271458 0.102205
0.406928 0.283604 0.107393
0.457496 0.293095 0.110292
0.506889 0.302281 0.113985
0.554589 0.312047 0.117556
0.605890 0.326421 0.123812
0.651057 0.340459 0.131075
0.690791 0.354559 0.140993
0.727169 0.369085 0.151797
0.761959 0.385199 0.164279
0.796078 0.402747 0.178256
0.829038 0.421729 0.192782
0.860105 0.441291 0.209293
0.889036 0.460578 0.225284
0.915190 0.479072 0.242069
0.938750 0.496315 0.257939
0.960204 0.512749 0.272679
0.979980 0.528618 0.287236
0.998505 0.543847 0.301396
1.000000 0.558679 0.315343
1.000000 0.572686 0.328527
1.000000 0.585626 0.340337
0.000000 0.223911 0.167880
0.000000 0.224155 0.167391
0.000000 0.224460 0.166751
0.024842 0.223667 0.165042
0.085573 0.219883 0.162539
0.114137 0.214908 0.162844
0.131563 0.214542 0.160494
0.164340 0.229648 0.147005
0.232975 0.255100 0.130159
0.303471 0.276432 0.107210
0.353979 0.291844 0.104768
0.403906 0.308049 0.110597
0.454139 0.321996 0.117342
0.504021 0.333135 0.123262
0.556237 0.345678 0.127382
0.606470 0.359075 0.133394
0.650660 0.371862 0.140841
0.689937 0.384314 0.149691
0.726070 0.397284 0.160067
0.760647 0.411536 0.172396
0.794491 0.427588 0.185611
0.827237 0.444648 0.200443
0.858183 0.462287 0.215976
0.886839 0.479927 0.232273
0.913085 0.496986 0.247959
0.936767 0.512963 0.263401
0.958312 0.528313 0.278325
0.978271 0.542931 0.292271
0.996887 0.557336 0.306126
1.000000 0.571069 0.319554
1.000000 0.584131 0.332280
1.000000 0.596155 0.343572
0.000000 0.256443 0.187106
0.000000 0.256626 0.186557
0.000000 0.256901 0.186221
0.000000 0.256382 0.184360
0.065553 0.253880 0.181979
0.109102 0.248142 0.180392
0.135470 0.243259 0.181277
0.153902 0.245914 0.176211
0.195163 0.264775 0.161532
0.269474 0.290837 0.143679
0.345281 0.312444 0.118624
0.399542 0.327611 0.112551
0.449897 0.344244 0.120333
0.502403 0.361364 0.128939
0.555810 0.377783 0.137942
0.605890 0.391913 0.143526
0.650446 0.404364 0.150240
0.690028 0.416022 0.159060
0.725978 0.427649 0.169711
0.760189 0.440070 0.181827
0.793271 0.453864 0.194644
0.825010 0.468605 0.208316
0.855222 0.484016 0.222721
0.883421 0.499519 0.237522
0.909392 0.514855 0.252873
0.933257 0.529534 0.267796
0.955352 0.543908 0.282109
0.975769 0.557824 0.296818
0.994903 0.571649 0.310979
1.000000 0.584863 0.324559
1.000000 0.597406 0.337591
1.000000 0.608881 0.348791
0.000000 0.288579 0.205905
0.000000 0.288731 0.205447
0.000000 0.288823 0.204746
0.000000 0.288670 0.203555
0.008698 0.286870 0.201175
0.097414 0.281956 0.198978
0.135256 0.275914 0.199435
0.158633 0.272892 0.200107
0.179660 0.279026 0.192264
0.228824 0.300633 0.176944
0.308568 0.327367 0.158450
0.388434 0.348852 0.132082
0.447944 0.365698 0.123079
0.502312 0.385290 0.132509
0.554406 0.404211 0.143038
0.603265 0.421210 0.152590
0.647608 0.434791 0.161074
0.687587 0.446052 0.169192
0.723781 0.456641 0.178897
0.758114 0.468086 0.190341
0.791318 0.480629 0.202274
0.823239 0.493935 0.215946
0.853422 0.507897 0.230716
0.881682 0.522148 0.245670
0.907805 0.536187 0.260410
0.931701 0.549706 0.275029
0.953735 0.562829 0.289708
0.974243 0.575555 0.303838
0.993378 0.588251 0.317510
1.000000 0.600397 0.330968
1.000000 0.611963 0.343511
1.000000 0.622614 0.354528
0.000000 0.321538 0.224979
0.000000 0.321660 0.224643
0.000000 0.321721 0.224033
0.000000 0.321538 0.222965
0.000000 0.320165 0.220890
0.078126 0.316320 0.218601
0.129641 0.310307 0.218021
0.162417 0.304631 0.219333
0.183658 0.303288 0.218418
0.209354 0.313390 0.208804
0.266056 0.337438 0.193057
0.352178 0.366064 0.175479
0.456489 0.404120 0.155642
0.522850 0.424048 0.144778
0.576471 0.444160 0.153689
0.624475 0.463355 0.166171
0.666926 0.478950 0.178775
0.705135 0.491524 0.191073
0.740322 0.501549 0.201175
0.773678 0.511589 0.211948
0.805325 0.522026 0.224674
0.835386 0.533196 0.237949
0.863493 0.544518 0.251896
0.889860 0.556207 0.266209
0.914305 0.567712 0.280735
0.936950 0.579156 0.294682
0.957885 0.590143 0.308415
0.977356 0.601007 0.321813
0.995605 0.611719 0.334508
1.000000 0.622156 0.347173
1.000000 0.632136 0.358495
1.000000 0.641260 0.368933
0.000000 0.358495 0.246525
0.000000 0.358740 0.246281
0.000000 0.358434 0.245518
0.000000 0.357733 0.244205
0.000000 0.356115 0.242405
0.036744 0.352514 0.240085
0.120607 0.346471 0.238163
0.163272 0.339910 0.239078
0.191836 0.335424 0.240726
0.212192 0.336675 0.238010
0.246525 0.353704 0.228763
0.315648 0.383825 0.215763
0.410224 0.415625 0.200107
0.501579 0.442237 0.175051
0.567956 0.462593 0.161654
0.618402 0.481483 0.168338
0.661463 0.498787 0.181643
0.700038 0.513542 0.195407
0.735286 0.525841 0.209171
0.768643 0.536767 0.222110
0.800961 0.546990 0.232975
0.831449 0.557427 0.245457
0.859861 0.567742 0.258854
0.886412 0.578363 0.272770
0.911040 0.588861 0.287205
0.933867 0.599115 0.300786
0.954986 0.609216 0.314488
0.974701 0.619074 0.327794
0.993225 0.628962 0.340246
1.000000 0.638605 0.352850
1.000000 0.647852 0.364416
1.000000 0.656397 0.374823
0.000000 0.389990 0.265263
0.000000 0.389929 0.264683
0.000000 0.389746 0.264347
0.000000 0.389136 0.263249
0.000000 0.387579 0.261601
0.000000 0.384588 0.259525
0.105623 0.379492 0.257633
0.158724 0.372625 0.257053
0.195987 0.368017 0.259739
0.222599 0.367254 0.262303
0.245579 0.373632 0.259037
0.286900 0.393622 0.248447
0.361669 0.423835 0.235569
0.457343 0.454505 0.219730
0.545525 0.480079 0.195407
0.608698 0.499092 0.179416
0.654261 0.514794 0.183261
0.693233 0.530297 0.197635
0.728969 0.544488 0.212222
0.762753 0.557397 0.226535
0.795224 0.569329 0.240787
0.826230 0.580194 0.254124
0.855406 0.590326 0.266789
0.882597 0.600549 0.280095
0.907744 0.610376 0.294224
0.930968 0.619989 0.308019
0.952483 0.629328 0.321904
0.972473 0.638483 0.335119
0.991241 0.647578 0.347906
1.000000 0.656580 0.360937
1.000000 0.665064 0.372534
1.000000 0.672877 0.382849
0.000000 0.421241 0.284031
0.000000 0.421271 0.283909
0.000000 0.421027 0.283330
0.000000 0.420356 0.282506
0.000000 0.418860 0.280919
0.000000 0.416541 0.279271
0.087373 0.413672 0.278233
0.153109 0.408881 0.277928
0.197910 0.403571 0.279637
0.230747 0.400061 0.282841
0.255039 0.400732 0.284123
0.280369 0.409674 0.278508
0.328252 0.431647 0.267399
0.407141 0.461555 0.254643
0.501183 0.490974 0.239048
0.585290 0.515251 0.214908
0.644404 0.532219 0.198123
0.686763 0.545892 0.199191
0.723049 0.560235 0.214450
0.757290 0.574548 0.229221
0.789975 0.588098 0.244724
0.821164 0.600641 0.259525
0.850401 0.611902 0.275242
0.878264 0.622004 0.288304
0.904051 0.631556 0.302098
0.927916 0.640894 0.316136
0.950072 0.650019 0.330297
0.970672 0.658961 0.344335
0.989868 0.667811 0.358679
1.000000 0.676417 0.372259
1.000000 0.684535 0.384955
1.000000 0.691920 0.395880
0.000000 0.454353 0.304387
0.000000 0.454597 0.304509
0.000000 0.454719 0.304173
0.000000 0.454688 0.303777
0.000000 0.454261 0.303166
0.000000 0.453010 0.302251
0.061769 0.450507 0.301152
0.144625 0.446113 0.300328
0.197421 0.440253 0.300725
0.236393 0.435065 0.303075
0.265415 0.432197 0.305730
0.287785 0.433417 0.304479
0.316350 0.444495 0.296849
0.369268 0.466987 0.284642
0.449744 0.495766 0.271702
0.540276 0.523491 0.256352
0.618433 0.545830 0.233829
0.675471 0.562036 0.216098
0.716121 0.574975 0.216800
0.752041 0.589746 0.231113
0.785641 0.604669 0.247471
0.817472 0.618891 0.264164
0.847318 0.631861 0.280674
0.875303 0.643427 0.297124
0.901335 0.653651 0.313146
0.925780 0.662898 0.327062
0.948425 0.671687 0.341253
0.969238 0.680201 0.355901
0.988617 0.688441 0.369879
1.000000 0.696284 0.383825
1.000000 0.703487 0.396124
1.000000 0.709926 0.406989
0.000000 0.488563 0.326116
0.000000 0.488533 0.325963
0.000000 0.488411 0.325566
0.000000 0.488167 0.325231
0.000000 0.487434 0.324529
0.000000 0.485939 0.323461
0.000000 0.483558 0.322332
0.132204 0.479469 0.320989
0.192355 0.473579 0.320165
0.237278 0.467597 0.321538
0.271794 0.462837 0.324071
0.297795 0.460883 0.325750
0.319524 0.463874 0.322637
0.352361 0.477272 0.313787
0.409979 0.500572 0.301518
0.490913 0.528649 0.289006
0.576684 0.554681 0.274327
0.649897 0.575341 0.253452
0.705715 0.591638 0.235142
0.745327 0.604303 0.236057
0.780331 0.618738 0.249119
0.812589 0.633570 0.266423
0.842893 0.647639 0.283757
0.871244 0.660609 0.301396
0.897673 0.672236 0.318791
0.922301 0.682551 0.336004
0.945312 0.691676 0.351812
0.966735 0.700069 0.366186
0.986450 0.708034 0.380591
1.000000 0.715511 0.394812
1.000000 0.722377 0.407935
1.000000 0.728359 0.419196
0.000000 0.521355 0.347265
0.000000 0.521569 0.347356
0.000000 0.533318 0.355444
0.000000 0.532830 0.354955
0.000000 0.531701 0.354040
0.000000 0.529839 0.352789
0.000000 0.527031 0.351171
0.125643 0.522789 0.349248
0.192752 0.516899 0.347631
0.243778 0.510277 0.347753
0.283848 0.504051 0.349432
0.314672 0.499458 0.351659
0.337987 0.497749 0.351415
0.360052 0.501854 0.345861
0.397009 0.516564 0.335393
0.458076 0.540032 0.322820
0.537316 0.566278 0.310979
0.617273 0.590173 0.297459
0.686519 0.609857 0.277928
0.740749 0.625910 0.258762
0.778500 0.637629 0.260044
0.811887 0.651179 0.271672
0.842161 0.665187 0.289799
0.870268 0.678401 0.307836
0.896178 0.690394 0.325628
0.920226 0.700984 0.343267
0.942626 0.710414 0.360143
0.963653 0.718929 0.376440
0.983551 0.726558 0.390936
1.000000 0.733761 0.405127
1.000000 0.740322 0.418433
1.000000 0.745937 0.429969
0.000000 0.555932 0.370397
0.000000 0.557610 0.371557
0.000000 0.559228 0.372564
0.000000 0.560327 0.373236
0.000000 0.560449 0.373266
0.000000 0.559411 0.372564
0.000000 0.556909 0.370947
0.108309 0.553155 0.369146
0.183566 0.547967 0.367407
0.239902 0.541222 0.366247
0.284306 0.534539 0.367071
0.319921 0.528679 0.369055
0.346777 0.524559 0.370520
0.367926 0.523735 0.368505
0.391638 0.529870 0.361151
0.432502 0.545892 0.350134
0.495003 0.568780 0.338415
0.571344 0.593805 0.327611
0.647395 0.616999 0.315282
0.714046 0.636713 0.297337
0.766842 0.652644 0.279606
0.804593 0.664851 0.280491
0.837125 0.677943 0.290806
0.865873 0.691310 0.309514
0.892332 0.703975 0.328283
0.916808 0.715572 0.346899
0.939513 0.726040 0.365148
0.960754 0.735439 0.382818
0.980560 0.744106 0.400214
0.999054 0.751675 0.416663
1.000000 0.758022 0.429999
1.000000 0.763394 0.441535
0.000000 0.585168 0.390143
0.000000 0.586816 0.391302
0.000000 0.588281 0.392340
0.000000 0.589258 0.392889
0.000000 0.589319 0.392981
0.000000 0.588190 0.392126
0.000000 0.585870 0.390692
0.087770 0.582391 0.388708
0.174319 0.577661 0.386908
0.235019 0.571466 0.385290
0.283604 0.564782 0.385260
0.323156 0.558221 0.386542
0.354284 0.552850 0.388403
0.378210 0.549615 0.388739
0.397925 0.549828 0.384985
0.424567 0.558068 0.376898
0.468696 0.574914 0.365820
0.531823 0.597498 0.355261
0.605432 0.621973 0.345647
0.678523 0.645014 0.334569
0.742397 0.664454 0.318303
0.793454 0.680171 0.302403
0.830655 0.692195 0.302464
0.861692 0.704311 0.311284
0.888701 0.716732 0.330571
0.913420 0.728664 0.349950
0.936370 0.739803 0.369146
0.957702 0.750027 0.388220
0.977691 0.759365 0.406836
0.996246 0.767727 0.424750
1.000000 0.774777 0.440803
1.000000 0.780331 0.453986
0.000000 0.614008 0.410040
0.000000 0.615442 0.411139
0.000000 0.616754 0.412146
0.000000 0.617487 0.412634
0.000000 0.617456 0.412665
0.000000 0.616236 0.411658
0.000000 0.614038 0.410224
0.065187 0.610712 0.408392
0.165866 0.606470 0.406561
0.230106 0.600610 0.404669
0.282628 0.593927 0.403784
0.325536 0.587152 0.404364
0.360327 0.580865 0.405951
0.387640 0.576226 0.407630
0.409277 0.573968 0.406744
0.429114 0.576165 0.401892
0.459388 0.586755 0.393500
0.506828 0.605035 0.383978
0.570489 0.628473 0.375067
0.642542 0.653559 0.367529
0.713008 0.676875 0.358404
0.774716 0.696345 0.344457
0.823972 0.711635 0.330663
0.860105 0.723384 0.330816
0.889342 0.734463 0.340581
0.914611 0.745968 0.360235
0.937560 0.757198 0.380987
0.958740 0.767819 0.401495
0.978332 0.777615 0.421973
0.996460 0.786313 0.440864
1.000000 0.793668 0.458350
1.000000 0.799619 0.473213
0.000000 0.647211 0.433906
0.000000 0.647761 0.434394
0.000000 0.648157 0.434668
0.000000 0.648035 0.434516
0.000000 0.647303 0.433967
0.000000 0.645869 0.432990
0.000000 0.643793 0.431647
0.035615 0.640864 0.429999
0.162570 0.637201 0.428473
0.229953 0.632319 0.427070
0.285832 0.626123 0.426001
0.332097 0.619532 0.426337
0.370184 0.612940 0.427619
0.400763 0.607324 0.429541
0.424811 0.603418 0.430518
0.444404 0.602136 0.428412
0.465278 0.606226 0.422553
0.498116 0.618402 0.414008
0.546929 0.637354 0.405188
0.609583 0.660639 0.397436
0.678492 0.684810 0.390723
0.744869 0.706691 0.382330
0.802823 0.724636 0.369390
0.848997 0.738277 0.356420
0.883421 0.748928 0.355352
0.910765 0.758755 0.365484
0.934569 0.769284 0.383795
0.955962 0.779873 0.405432
0.975677 0.789975 0.426917
0.993805 0.799130 0.447089
1.000000 0.807034 0.465614
1.000000 0.813626 0.482002
0.000000 0.674861 0.454017
0.000000 0.675380 0.454383
0.000000 0.675837 0.454810
0.000000 0.675776 0.454688
0.000000 0.675105 0.454322
0.000000 0.673671 0.453315
0.000000 0.671565 0.451942
0.000000 0.668635 0.450263
0.159152 0.665064 0.448676
0.228611 0.660517 0.447211
0.286290 0.654688 0.445960
0.335088 0.648157 0.445777
0.376013 0.641566 0.446967
0.409674 0.635462 0.448920
0.436591 0.630671 0.450813
0.458228 0.627771 0.451301
0.476509 0.627955 0.448219
0.499580 0.634424 0.441932
0.534966 0.648341 0.433967
0.584894 0.668177 0.426429
0.646540 0.691493 0.420233
0.712734 0.715053 0.414893
0.775692 0.735988 0.407630
0.830533 0.752895 0.396674
0.870848 0.762081 0.380346
0.904021 0.771908 0.378485
0.929717 0.780911 0.389380
0.952270 0.790555 0.406500
0.972229 0.800504 0.428901
0.990600 0.809934 0.450477
1.000000 0.818448 0.470649
1.000000 0.825834 0.489082
0.000000 0.706844 0.478065
0.000000 0.707515 0.478706
0.000000 0.707637 0.478828
0.000000 0.707179 0.478462
0.000000 0.706050 0.477607
0.000000 0.704189 0.476204
0.000000 0.701747 0.474617
0.000000 0.698512 0.472724
0.161105 0.694484 0.470588
0.231205 0.689693 0.468788
0.288792 0.683772 0.467140
0.339300 0.677028 0.466224
0.381903 0.670130 0.466743
0.417639 0.663355 0.468177
0.446571 0.657313 0.469947
0.469490 0.652796 0.471138
0.488411 0.650507 0.470161
0.505791 0.651850 0.465766
0.530938 0.660334 0.459388
0.568475 0.675685 0.452338
0.619318 0.696223 0.446052
0.679622 0.719203 0.441199
0.742519 0.741604 0.436713
0.801755 0.760922 0.430213
0.852750 0.776089 0.419623
0.893584 0.787076 0.408270
0.925109 0.796048 0.405676
0.948882 0.803708 0.416785
0.969818 0.812222 0.432837
0.988128 0.821164 0.455146
1.000000 0.829679 0.476417
1.000000 0.837339 0.496193
0.000000 0.733761 0.498238
0.000000 0.734249 0.498665
0.000000 0.734432 0.498970
0.000000 0.733974 0.498665
0.000000 0.732845 0.497841
0.000000 0.731106 0.496620
0.000000 0.728817 0.495064
0.000000 0.725856 0.493385
0.164126 0.722286 0.491707
0.234897 0.717952 0.490120
0.293217 0.712642 0.488777
0.345556 0.706355 0.487953
0.390265 0.699763 0.488441
0.428016 0.693141 0.489967
0.459327 0.686854 0.492073
0.484749 0.681666 0.494209
0.504997 0.678248 0.495033
0.522118 0.677241 0.493141
0.540581 0.680842 0.488655
0.567926 0.691249 0.482704
0.606958 0.707546 0.476692
0.657435 0.727962 0.471717
0.715297 0.749935 0.467903
0.774563 0.770809 0.464332
0.829709 0.788449 0.458595
0.877348 0.802152 0.449165
0.915526 0.812039 0.439368
0.945586 0.820157 0.435737
0.967498 0.826841 0.448280
0.986938 0.834257 0.463355
1.000000 0.842222 0.485573
1.000000 0.849607 0.506645
0.000000 0.762142 0.520195
0.000000 0.762478 0.520562
0.000000 0.762387 0.520439
0.000000 0.761746 0.520043
0.000000 0.760525 0.519097
0.000000 0.758724 0.517906
0.000000 0.756344 0.516289
0.038636 0.753445 0.514702
0.171298 0.749996 0.513146
0.241428 0.745846 0.511620
0.300084 0.740841 0.510399
0.352850 0.734981 0.509789
0.398871 0.728542 0.510185
0.438270 0.722011 0.511803
0.471077 0.715633 0.513909
0.497993 0.709926 0.516075
0.519585 0.705653 0.517754
0.537713 0.703304 0.517845
0.553826 0.703731 0.515251
0.574060 0.709560 0.510704
0.603449 0.721462 0.505486
0.643458 0.738216 0.500481
0.692988 0.758022 0.496773
0.748318 0.778714 0.493935
0.803799 0.797848 0.491096
0.855039 0.813718 0.485969
0.899321 0.825956 0.477577
0.934783 0.834501 0.468788
0.963287 0.841642 0.464271
0.983551 0.847379 0.477485
1.000000 0.853788 0.492470
1.000000 0.860410 0.512993
0.000000 0.789120 0.541253
0.000000 0.789212 0.541436
0.000000 0.789090 0.541314
0.000000 0.788571 0.541009
0.000000 0.787625 0.540368
0.000000 0.786313 0.539696
0.000000 0.784787 0.539086
0.088014 0.782864 0.538476
0.189456 0.780545 0.538079
0.258030 0.777584 0.537926
0.317418 0.773770 0.538048
0.370977 0.769009 0.538720
0.418585 0.763455 0.540063
0.459052 0.757565 0.542199
0.492805 0.751705 0.544640
0.520714 0.746151 0.547173
0.543664 0.741482 0.549493
0.562615 0.738338 0.550958
0.579187 0.737301 0.550408
0.595209 0.739345 0.547539
0.616938 0.746822 0.543236
0.647486 0.759396 0.538628
0.687221 0.775753 0.534630
0.734707 0.794308 0.531670
0.786282 0.813046 0.529778
0.837400 0.829984 0.527520
0.884306 0.843809 0.523278
0.924529 0.854124 0.516197
0.956909 0.861143 0.509056
0.983062 0.866941 0.504967
1.000000 0.871153 0.517937
1.000000 0.875822 0.532738
0.000000 0.822843 0.569482
0.000000 0.822812 0.569574
0.000000 0.822538 0.569451
0.000000 0.821714 0.568872
0.000000 0.820432 0.568048
0.000000 0.818753 0.567071
0.000000 0.816739 0.566125
0.133059 0.814267 0.565057
0.214755 0.811307 0.564324
0.277897 0.807797 0.563806
0.334356 0.803433 0.563470
0.386175 0.798276 0.563745
0.432319 0.792355 0.564416
0.471809 0.786313 0.565820
