Lut/day2.cube
# Created by Adobe Lightroom plugin Export LUT (1.24.0)
# www.johnrellis.com/lightroom/exportlut.htm
# Photo: 未命名_1.1.1.jpg
# Color profile: C:\Program Files (x86)\Common Files\Adobe\Color\Profiles\Recommended\AdobeRGB1998.icc
LUT_3D_SIZE 8
DOMAIN_MIN 0.000000 0.000000 0.000000
DOMAIN_MAX 0.903226 0.903226 0.903226
0.058961 0.066804 0.071015
0.123354 0.084749 0.071199
0.270420 0.122164 0.059876
0.460273 0.156497 0.071565
0.644831 0.217594 0.099245
0.799283 0.318334 0.160128
0.909819 0.411749 0.220829
0.994385 0.494118 0.283024
0.046174 0.116915 0.100801
0.112123 0.126314 0.090761
0.265873 0.173098 0.078828
0.454658 0.203861 0.085115
0.643885 0.254643 0.102846
0.789487 0.335576 0.154421
0.903044 0.421241 0.212680
0.991577 0.501152 0.275456
0.000000 0.223911 0.167880
0.085573 0.219883 0.162539
0.232975 0.255100 0.130159
0.454139 0.321996 0.117342
0.650660 0.371862 0.140841
0.794491 0.427588 0.185611
0.913085 0.496986 0.247959
0.996887 0.557336 0.306126
0.000000 0.358495 0.246525
0.000000 0.356115 0.242405
0.191836 0.335424 0.240726
0.410224 0.415625 0.200107
0.661463 0.498787 0.181643
0.800961 0.546990 0.232975
0.911040 0.588861 0.287205
0.993225 0.628962 0.340246
0.000000 0.488563 0.326116
0.000000 0.487434 0.324529
0.192355 0.473579 0.320165
0.319524 0.463874 0.322637
0.576684 0.554681 0.274327
0.780331 0.618738 0.249119
0.897673 0.672236 0.318791
0.986450 0.708034 0.380591
0.000000 0.614008 0.410040
0.000000 0.617456 0.412665
0.165866 0.606470 0.406561
0.360327 0.580865 0.405951
0.459388 0.586755 0.393500
0.713008 0.676875 0.358404
0.889342 0.734463 0.340581
0.978332 0.777615 0.421973
0.000000 0.733761 0.498238
0.000000 0.732845 0.497841
0.164126 0.722286 0.491707
0.390265 0.699763 0.488441
0.504997 0.678248 0.495033
0.606958 0.707546 0.476692
0.829709 0.788449 0.458595
0.967498 0.826841 0.448280
0.000000 0.850004 0.592096
0.000000 0.847776 0.590906
0.239261 0.839170 0.588434
0.448737 0.821653 0.590173
0.564599 0.791440 0.588495
0.636805 0.786191 0.594049
0.751888 0.830655 0.583581
0.924895 0.886595 0.576684
0.049958 0.090150 0.143008
0.108461 0.087922 0.154482
0.235019 0.116396 0.165835
0.416938 0.162142 0.188052
0.613733 0.222049 0.204471
0.768093 0.310521 0.233188
0.889281 0.404181 0.272129
0.982391 0.490578 0.321080
0.009888 0.127138 0.155093
0.104707 0.137392 0.161563
0.234745 0.162539 0.178378
0.422126 0.200259 0.190188
0.616632 0.254734 0.204990
0.765621 0.331487 0.231388
0.885130 0.415534 0.266972
0.979644 0.496895 0.313298
0.000000 0.233799 0.212070
0.014771 0.245945 0.216495
0.218845 0.255436 0.198611
0.432593 0.312444 0.196567
0.626978 0.358190 0.213016
0.772274 0.413367 0.240970
0.892424 0.480446 0.281010
0.985321 0.547112 0.329381
0.000000 0.367437 0.280583
0.000000 0.369268 0.277928
0.200961 0.351019 0.268925
0.387304 0.403082 0.245243
0.626368 0.477119 0.234623
0.771817 0.524315 0.268589
0.890837 0.571374 0.310704
0.982483 0.619135 0.359045
0.000000 0.497292 0.352331
0.000000 0.496132 0.349767
0.174685 0.484932 0.341985
0.326787 0.461738 0.341466
0.555444 0.540764 0.302342
0.762295 0.607538 0.286564
0.885252 0.663905 0.347021
0.978943 0.702419 0.401007
0.000000 0.614527 0.425513
0.000000 0.613703 0.424231
0.134554 0.605768 0.418097
0.357733 0.581292 0.415259
0.458473 0.581079 0.409094
0.704433 0.672053 0.382269
0.882414 0.731411 0.369360
0.972717 0.775357 0.443915
0.000000 0.729854 0.505852
0.000000 0.727169 0.503380
0.121248 0.719051 0.497719
0.379095 0.699123 0.493935
0.506493 0.677028 0.502312
0.602258 0.701717 0.486946
0.820920 0.781918 0.470710
0.960723 0.822049 0.461219
0.000000 0.848142 0.597192
0.000000 0.846799 0.596674
0.209506 0.839384 0.594110
0.437903 0.823087 0.595514
0.573571 0.799588 0.602716
0.643824 0.789609 0.606134
0.750088 0.828885 0.592493
0.921965 0.884916 0.586633
0.000000 0.135256 0.278813
0.062440 0.138766 0.287694
0.219821 0.125521 0.308507
0.393622 0.141329 0.307103
0.571710 0.236454 0.341924
0.731411 0.335271 0.384039
0.866453 0.431739 0.420813
0.966949 0.521080 0.459815
0.000000 0.170443 0.285466
0.075868 0.176852 0.291478
0.213321 0.173129 0.309880
0.387091 0.185458 0.310857
0.565820 0.267338 0.346899
0.727901 0.351843 0.383856
0.863493 0.441016 0.417426
0.965850 0.527367 0.455695
0.000000 0.247898 0.309392
0.000000 0.254337 0.312322
0.214664 0.275029 0.317876
0.381292 0.296361 0.332891
0.578729 0.354528 0.367529
0.739437 0.417823 0.392950
0.870573 0.491951 0.423102
0.969879 0.563470 0.456947
0.000000 0.372351 0.355383
0.000000 0.378820 0.358709
0.152407 0.397711 0.366796
0.364416 0.401526 0.358831
0.600916 0.473182 0.372473
0.753750 0.519707 0.400549
0.878904 0.575586 0.435462
0.973846 0.628321 0.469245
0.000000 0.507530 0.422248
0.000000 0.512383 0.424262
0.073732 0.524651 0.426398
0.362463 0.503197 0.412726
0.538811 0.541070 0.400275
0.746120 0.610986 0.408209
0.873625 0.666102 0.456031
0.970642 0.706966 0.495277
0.000000 0.631586 0.488930
0.000000 0.633570 0.488960
0.000000 0.631586 0.483406
0.346624 0.613825 0.470619
0.486397 0.587488 0.470344
0.686152 0.665736 0.457404
0.868498 0.731960 0.465095
0.964721 0.781155 0.528740
0.000000 0.746944 0.558831
0.000000 0.745480 0.556603
0.000000 0.739223 0.549004
0.353735 0.722469 0.538994
0.525048 0.691798 0.540429
0.608453 0.700252 0.536309
0.814633 0.783658 0.535210
0.956695 0.829221 0.540093
0.000000 0.859586 0.634363
0.000000 0.857420 0.632044
0.051453 0.850828 0.626825
0.405829 0.837919 0.625818
0.574548 0.811002 0.627344
0.658778 0.795560 0.636500
0.749905 0.827634 0.628046
0.918578 0.886870 0.631891
0.000000 0.200992 0.414832
0.000000 0.206943 0.420966
0.191531 0.209293 0.435187
0.364874 0.183078 0.455512
0.551232 0.196231 0.459113
0.688624 0.283055 0.467292
0.821530 0.427283 0.523247
0.933074 0.542290 0.580591
0.000000 0.230289 0.421759
0.017517 0.235447 0.425727
0.199374 0.240299 0.437934
0.365148 0.220615 0.459541
0.548608 0.229618 0.461524
0.685023 0.308232 0.470100
0.819333 0.442145 0.526360
0.933227 0.550378 0.581170
0.000000 0.293614 0.431830
0.031464 0.299321 0.433845
0.214176 0.313970 0.441627
0.361334 0.314611 0.463935
0.543481 0.319646 0.472084
0.687800 0.394995 0.493568
0.829648 0.508293 0.555627
0.941222 0.589715 0.594354
0.000000 0.383551 0.461555
0.000000 0.388128 0.463050
0.188327 0.402625 0.467506
0.372808 0.424384 0.474220
0.532982 0.429084 0.485176
0.687160 0.501305 0.526177
0.837125 0.572595 0.565759
0.949493 0.637964 0.595727
0.000000 0.508171 0.506615
0.000000 0.510674 0.507225
0.000000 0.521569 0.511620
0.323186 0.537499 0.518029
0.521721 0.533257 0.512963
0.711421 0.604486 0.540307
0.853056 0.661219 0.576654
0.956451 0.709438 0.605371
0.000000 0.630457 0.561212
0.000000 0.636591 0.566003
0.000000 0.642481 0.567926
0.291844 0.651820 0.569482
0.519493 0.633509 0.556359
0.661799 0.659358 0.556329
0.849638 0.736751 0.585138
0.952789 0.787655 0.632380
0.000000 0.751308 0.627344
0.000000 0.753445 0.627893
0.000000 0.758816 0.627588
0.279026 0.758267 0.620233
0.522728 0.733272 0.606806
0.634577 0.708888 0.608972
0.801358 0.782437 0.615137
0.947021 0.835599 0.632441
0.000000 0.876982 0.697597
0.000000 0.877073 0.696529
0.000000 0.873655 0.690120
0.315129 0.862730 0.679988
0.549920 0.837613 0.671229
0.677882 0.809201 0.678798
0.751156 0.825101 0.678279
0.912902 0.888945 0.692653
0.000000 0.278019 0.546899
0.000000 0.282078 0.550530
0.201389 0.287114 0.559106
0.347570 0.281773 0.579583
0.518212 0.252934 0.599329
0.672480 0.270085 0.597803
0.794797 0.344213 0.594537
0.909117 0.508965 0.645472
0.000000 0.298375 0.550042
0.056764 0.302617 0.553765
0.211429 0.309239 0.562890
0.350835 0.305364 0.580346
0.515984 0.279545 0.599573
0.671321 0.293858 0.599756
0.794125 0.364019 0.596735
0.908995 0.522332 0.649012
0.000000 0.353246 0.557916
0.097658 0.357916 0.561089
0.232578 0.368200 0.568353
0.361425 0.372137 0.581201
0.507836 0.354040 0.598199
0.662928 0.359228 0.601251
0.789609 0.422736 0.602289
0.907073 0.561975 0.658167
0.000000 0.425208 0.574426
0.054231 0.428687 0.575250
0.237095 0.440558 0.579248
0.381018 0.456489 0.586572
0.507500 0.457221 0.600977
0.659297 0.454505 0.611597
0.791073 0.517144 0.621302
0.911833 0.632136 0.683314
0.000000 0.510521 0.599451
0.000000 0.513176 0.600214
0.170748 0.520867 0.601801
0.363439 0.533043 0.604181
0.518791 0.550103 0.606439
0.651789 0.552605 0.616358
0.797269 0.629206 0.658289
0.925292 0.701534 0.699947
0.000000 0.611536 0.630610
0.000000 0.613245 0.631098
0.000000 0.617639 0.631678
0.273075 0.627344 0.634638
0.464546 0.641993 0.635737
0.643915 0.646845 0.635492
0.820249 0.727596 0.679561
0.938293 0.782589 0.716548
0.000000 0.739956 0.688746
0.000000 0.740505 0.688197
0.000000 0.744533 0.688350
0.171633 0.753750 0.689754
0.443702 0.762081 0.687129
0.649989 0.740291 0.674617
0.776852 0.771450 0.684718
0.931762 0.839200 0.719570
0.000000 0.864347 0.752926
0.000000 0.865354 0.752407
0.000000 0.868437 0.749691
0.000000 0.877104 0.747494
0.452918 0.869474 0.733394
0.671199 0.837339 0.724849
0.758602 0.822263 0.731777
0.902708 0.887083 0.749020
0.088563 0.363714 0.676234
0.146944 0.367041 0.678950
0.254368 0.372168 0.683467
0.372992 0.373571 0.691768
0.497963 0.360815 0.702937
0.638697 0.339147 0.718990
0.781308 0.360204 0.728298
0.894652 0.439246 0.724025
0.100710 0.374975 0.673182
0.151980 0.377203 0.674586
0.256229 0.382818 0.679194
0.372595 0.385443 0.687495
0.495705 0.375128 0.699336
0.634791 0.355169 0.716243
0.778897 0.374090 0.727169
0.893462 0.448615 0.723201
0.144778 0.422065 0.681666
0.183871 0.423713 0.681971
0.279088 0.429694 0.684627
0.389746 0.435340 0.690944
0.503258 0.430976 0.701045
0.632654 0.414679 0.717708
0.777615 0.425391 0.730526
0.893370 0.486610 0.724544
0.158236 0.481392 0.688746
0.196994 0.483040 0.688472
0.295415 0.490822 0.690974
0.414984 0.505211 0.699458
0.525200 0.513390 0.709407
0.636744 0.503532 0.724422
0.779965 0.501549 0.737972
0.895933 0.554406 0.730709
0.082795 0.543145 0.696590
0.152926 0.545464 0.697322
0.277195 0.552880 0.699306
0.409827 0.565728 0.703273
0.531243 0.579889 0.708309
0.634302 0.583124 0.720119
0.774594 0.576104 0.733791
0.894896 0.646479 0.742641
0.000000 0.617517 0.715572
0.000000 0.620417 0.717403
0.194736 0.625086 0.718410
0.366705 0.632868 0.719661
0.510704 0.644221 0.720577
0.645472 0.665064 0.725246
0.772183 0.673121 0.735561
0.904570 0.763485 0.786038
0.000000 0.723537 0.758816
0.000000 0.725368 0.759823
0.000000 0.729000 0.760464
0.237888 0.736416 0.761929
0.433143 0.747890 0.762387
0.603204 0.763333 0.758999
0.763577 0.760189 0.755184
0.918273 0.845029 0.803922
0.000000 0.851499 0.810330
0.000000 0.852262 0.809842
0.000000 0.855833 0.808804
0.000000 0.863584 0.808225
0.333013 0.871275 0.803952
0.584985 0.875090 0.794858
0.781125 0.844236 0.790036
0.890684 0.884276 0.807431
0.240360 0.448157 0.784482
0.265049 0.450019 0.785245
0.334905 0.454994 0.787259
0.426856 0.460548 0.791257
0.523705 0.460883 0.796628
0.626123 0.451453 0.805844
0.744747 0.439063 0.821378
0.875914 0.462287 0.836606
0.246891 0.458259 0.784756
0.270726 0.460090 0.785458
0.339635 0.465187 0.787442
0.430091 0.470680 0.790951
0.525963 0.472114 0.796445
0.626673 0.463508 0.805539
0.743923 0.451026 0.821103
0.875486 0.471595 0.836576
0.265354 0.491218 0.787137
0.288090 0.492927 0.787625
0.354498 0.498329 0.789303
0.443366 0.505699 0.792477
0.535241 0.509056 0.797543
0.630549 0.503075 0.806149
0.743343 0.491341 0.821836
0.875914 0.504631 0.837858
0.280613 0.539208 0.791287
0.301915 0.540490 0.791348
0.368109 0.546014 0.792813
0.457679 0.554894 0.795590
0.548363 0.561944 0.799985
0.637873 0.560693 0.807828
0.743252 0.550378 0.823178
0.877317 0.554742 0.839078
0.271183 0.592493 0.796384
0.294774 0.594049 0.796658
0.365301 0.599359 0.797910
0.457740 0.607752 0.800198
0.555627 0.617945 0.803677
0.648219 0.625391 0.810086
0.744808 0.619440 0.824186
0.879728 0.619684 0.839261
0.221103 0.651606 0.805936
0.251286 0.652888 0.806241
0.335149 0.657404 0.807187
0.438148 0.664912 0.808896
0.548058 0.676326 0.811337
0.659174 0.692775 0.815152
0.752834 0.700221 0.825803
0.883024 0.698482 0.837247
0.000000 0.722164 0.824338
0.102876 0.723110 0.824552
0.253910 0.726253 0.825162
0.387549 0.732052 0.826230
0.515618 0.741146 0.827481
0.643946 0.755734 0.828519
0.767636 0.778378 0.830533
0.882017 0.792172 0.836393
0.000000 0.820920 0.862364
0.000000 0.821897 0.862638
0.000000 0.825467 0.863645
0.181460 0.831754 0.864988
0.394385 0.841703 0.866209
0.557244 0.858152 0.866331
0.732174 0.874510 0.859586
0.873442 0.872099 0.859434
0.415351 0.556634 0.884703
0.428382 0.558312 0.884886
0.469215 0.563226 0.885283
0.528466 0.569421 0.886290
0.596124 0.573663 0.888212
0.668727 0.573175 0.892088
0.749874 0.567437 0.900053
0.848478 0.565972 0.915129
0.417792 0.563012 0.884855
0.430640 0.564630 0.885039
0.471351 0.569543 0.885466
0.530663 0.576013 0.886412
0.597986 0.580407 0.888304
0.670008 0.580316 0.892058
0.750301 0.574792 0.899931
0.848386 0.573083 0.915099
0.424537 0.584344 0.885985
0.437110 0.585779 0.886137
0.477211 0.590478 0.886473
0.537682 0.598047 0.887449
0.604456 0.603357 0.889128
0.674952 0.604425 0.892576
0.752834 0.600031 0.900084
0.848783 0.597589 0.915312
0.427649 0.616785 0.888090
0.440284 0.618128 0.888304
0.480659 0.622522 0.888731
0.542382 0.630152 0.889525
0.612787 0.638514 0.890898
0.682734 0.641932 0.893980
0.757595 0.639704 0.900877
0.850095 0.636347 0.915923
0.418341 0.656275 0.890929
0.431037 0.657374 0.891142
0.472206 0.661036 0.891722
0.535943 0.667506 0.892668
0.614069 0.677882 0.893797
0.691676 0.687922 0.896208
0.765194 0.690150 0.902220
0.852781 0.687343 0.916747
0.391455 0.701503 0.895140
0.404761 0.702327 0.895262
0.448310 0.705287 0.895781
0.517113 0.711299 0.896757
0.602625 0.721431 0.898161
0.696162 0.736995 0.900084
0.777951 0.749569 0.904723
0.858152 0.749386 0.917723
0.343084 0.754238 0.902831
0.358801 0.754971 0.902953
0.409583 0.757656 0.903410
0.486885 0.763088 0.904265
0.580926 0.772335 0.905241
0.683955 0.786954 0.906554
0.788815 0.808713 0.909148
0.869108 0.820859 0.918791
0.219974 0.822202 0.919860
0.246555 0.822782 0.919921
0.321843 0.825101 0.920287
0.421180 0.829618 0.920867
0.532708 0.837186 0.921447
0.650935 0.849119 0.921752
0.773770 0.867491 0.921904
0.889311 0.894255 0.923613
