Lut/inside1.cube
# Created by Adobe Lightroom plugin Export LUT (1.24.0)
# www.johnrellis.com/lightroom/exportlut.htm
# Photo: _27A0006.CR3
# Color profile: C:\Program Files (x86)\Common Files\Adobe\Color\Profiles\Recommended\AdobeRGB1998.icc
LUT_3D_SIZE 8
DOMAIN_MIN 0.000000 0.000000 0.000000
DOMAIN_MAX 0.903226 0.903226 0.903226
0.104646 0.104646 0.104646
0.166476 0.114015 0.101595
0.329747 0.121035 0.087160
0.575311 0.070863 0.024384
0.762814 0.187900 0.000000
0.879728 0.312413 0.000000
0.966369 0.396796 0.000000
1.000000 0.438941 0.000000
0.091493 0.167666 0.125185
0.159976 0.171939 0.116976
0.314977 0.158175 0.111421
0.565698 0.160372 0.098756
0.758145 0.243381 0.039277
0.876890 0.346014 0.000000
0.964660 0.418799 0.000000
1.000000 0.453895 0.000000
0.000000 0.329625 0.171176
0.094301 0.343267 0.169345
0.287663 0.353643 0.145144
0.506126 0.314824 0.158206
0.736812 0.374365 0.145785
0.864775 0.437446 0.141939
0.957000 0.484565 0.127779
1.000000 0.504082 0.000000
0.000000 0.556207 0.257786
0.000000 0.564782 0.257786
0.210605 0.581018 0.237552
0.486824 0.575463 0.201205
0.671138 0.520623 0.220310
0.830106 0.547723 0.253605
0.939239 0.574823 0.274754
1.000000 0.580255 0.223209
0.000000 0.722164 0.379553
0.000000 0.724788 0.378729
0.101900 0.729397 0.370397
0.433600 0.725093 0.345892
0.645838 0.713436 0.317601
0.786435 0.673304 0.336248
0.897368 0.663325 0.379431
0.992859 0.669245 0.391852
0.000000 0.830564 0.488930
0.000000 0.831052 0.489052
0.000000 0.830106 0.489601
0.427771 0.822660 0.493172
0.605982 0.813474 0.480781
0.750729 0.806882 0.461799
0.870970 0.782956 0.478462
0.956603 0.755154 0.501427
0.000000 0.917052 0.571405
0.000000 0.916350 0.572625
0.173526 0.911955 0.579431
0.461555 0.902068 0.596338
0.618616 0.892210 0.610559
0.723384 0.887816 0.600427
0.832578 0.885649 0.593683
0.936797 0.871366 0.607935
0.000000 0.988373 0.630213
0.000000 0.986725 0.633021
0.296056 0.980011 0.645136
0.512352 0.968902 0.669154
0.661585 0.957000 0.705470
0.743343 0.951843 0.710445
0.815244 0.950713 0.706294
0.901701 0.950225 0.710323
0.099336 0.103731 0.200015
0.167910 0.115846 0.188479
0.336980 0.127077 0.181735
0.585199 0.141665 0.170077
0.767147 0.235721 0.149172
0.881529 0.345129 0.135042
0.967163 0.420783 0.109041
1.000000 0.454871 0.000000
0.036774 0.183413 0.215335
0.148074 0.184787 0.211643
0.328862 0.203250 0.204776
0.577203 0.217624 0.192844
0.761685 0.288396 0.174258
0.878019 0.378271 0.164553
0.964874 0.442786 0.145754
1.000000 0.471077 0.000000
0.000000 0.339727 0.249943
0.092134 0.352758 0.255833
0.289433 0.377813 0.241703
0.524590 0.355474 0.246647
0.739803 0.407782 0.242710
0.864439 0.464576 0.245762
0.955749 0.506523 0.239689
1.000000 0.521508 0.163149
0.000000 0.563531 0.334722
0.000000 0.571679 0.336645
0.214603 0.589899 0.324895
0.485847 0.588586 0.291783
0.674098 0.538109 0.303044
0.830930 0.566491 0.339544
0.936858 0.591394 0.357183
1.000000 0.595148 0.310430
0.000000 0.725612 0.436927
0.000000 0.727993 0.436683
0.116243 0.732326 0.431525
0.441657 0.728542 0.413733
0.642939 0.718288 0.387457
0.784573 0.680598 0.401373
0.895384 0.673793 0.443519
0.989929 0.679927 0.452583
0.000000 0.832242 0.526635
0.000000 0.832578 0.527001
0.082582 0.831266 0.528130
0.438758 0.823667 0.533227
0.611231 0.814542 0.524865
0.748409 0.808835 0.507622
0.868101 0.786404 0.521050
0.954070 0.760525 0.539788
0.000000 0.917815 0.595941
0.000000 0.916991 0.597101
0.193973 0.912383 0.603265
0.468910 0.902464 0.618555
0.625757 0.892332 0.634821
0.726619 0.887877 0.626032
0.831418 0.886259 0.619532
0.934691 0.872892 0.631983
0.000000 0.988739 0.646204
0.000000 0.987060 0.648646
0.301671 0.980316 0.659541
0.515068 0.969207 0.681514
0.663935 0.957183 0.715908
0.747951 0.951446 0.724758
0.817807 0.950286 0.721157
0.901518 0.950195 0.724971
0.000000 0.108003 0.449866
0.041382 0.118105 0.450019
0.333593 0.145968 0.424903
0.559655 0.213840 0.436347
0.759152 0.284794 0.409461
0.872160 0.432258 0.406897
0.957183 0.504051 0.408515
1.000000 0.527550 0.362158
0.000000 0.184176 0.461311
0.000000 0.189792 0.461158
0.324743 0.220554 0.445167
0.554894 0.285039 0.450446
0.753506 0.350896 0.424506
0.867948 0.466346 0.427527
0.954376 0.523674 0.426856
1.000000 0.542077 0.380591
0.000000 0.381109 0.493477
0.000000 0.385931 0.492012
0.251560 0.402258 0.488594
0.540612 0.450752 0.486702
0.734401 0.502281 0.480110
0.854063 0.547723 0.486976
0.943847 0.578820 0.483223
1.000000 0.586053 0.438178
0.000000 0.588403 0.525170
0.000000 0.593072 0.526848
0.207645 0.606256 0.529900
0.504051 0.618555 0.524132
0.680507 0.595392 0.523339
0.827115 0.627283 0.552514
0.925200 0.644800 0.552300
1.000000 0.645808 0.516747
0.000000 0.735225 0.579675
0.000000 0.737057 0.580743
0.150790 0.740383 0.582605
0.471870 0.738521 0.581964
0.644678 0.731258 0.565789
0.778012 0.704341 0.568078
0.890593 0.708309 0.598474
0.980926 0.713832 0.596033
0.000000 0.837491 0.628931
0.000000 0.837461 0.629419
0.164920 0.835264 0.631281
0.467628 0.827695 0.636530
0.631220 0.819059 0.637934
0.745022 0.814969 0.623438
0.860685 0.797543 0.629114
0.947356 0.778714 0.640681
0.000000 0.920439 0.668055
0.000000 0.919371 0.668696
0.240208 0.914214 0.672602
0.487526 0.904509 0.682307
0.643000 0.894041 0.698299
0.739315 0.888396 0.698634
0.829679 0.888151 0.692317
0.928954 0.877867 0.699702
0.000000 0.990204 0.695888
0.000000 0.988434 0.697444
0.312383 0.981750 0.704189
0.520287 0.970733 0.719631
0.669734 0.958343 0.747616
0.762692 0.950561 0.766445
0.826566 0.949218 0.764157
0.901671 0.950072 0.767239
0.000000 0.131228 0.695521
0.000000 0.136294 0.695521
0.304509 0.145083 0.692348
0.561456 0.229252 0.675135
0.722805 0.373083 0.670588
0.836423 0.506889 0.671534
0.932921 0.570550 0.645472
0.999847 0.626246 0.633936
0.000000 0.196780 0.699580
0.000000 0.201968 0.699428
0.282902 0.217258 0.698970
0.555932 0.302647 0.680537
0.718166 0.422675 0.675868
0.833982 0.532464 0.677241
0.930480 0.590204 0.653529
0.998505 0.636805 0.640131
0.000000 0.380865 0.709285
0.000000 0.385138 0.708919
0.195773 0.399695 0.707057
0.533379 0.459754 0.699916
0.703548 0.542687 0.691859
0.827268 0.601160 0.692927
0.923003 0.647456 0.678401
0.994049 0.668666 0.659876
0.000000 0.606134 0.725673
0.000000 0.607965 0.725032
0.060090 0.613397 0.722530
0.482124 0.623835 0.717739
0.686183 0.655756 0.713283
0.816709 0.687007 0.713985
0.911955 0.709377 0.712337
0.985473 0.712032 0.690486
0.000000 0.752651 0.738979
0.000000 0.752956 0.738766
0.091188 0.752438 0.737606
0.479438 0.749355 0.735256
0.665797 0.751797 0.732876
0.778531 0.741939 0.727321
0.890379 0.760372 0.745144
0.969970 0.761074 0.729305
0.000000 0.844297 0.749538
0.000000 0.843839 0.749508
0.205356 0.840787 0.749325
0.488075 0.834592 0.749813
0.654078 0.829129 0.751858
0.758907 0.824735 0.749538
0.855497 0.815213 0.745327
0.942199 0.809506 0.753567
0.000000 0.924437 0.762417
0.000000 0.923278 0.762203
0.270298 0.918120 0.762142
0.499916 0.909392 0.763394
0.656855 0.899229 0.771023
0.762600 0.891386 0.782834
0.833677 0.891386 0.777005
0.923613 0.885344 0.778317
0.000000 0.993256 0.767727
0.000000 0.991516 0.767849
0.307073 0.985229 0.768887
0.515435 0.974731 0.774014
0.671077 0.961761 0.790707
0.780972 0.950988 0.815763
0.840299 0.948486 0.816800
0.903777 0.950286 0.818509
0.000000 0.162570 0.835508
0.000000 0.167483 0.835264
0.291020 0.186526 0.834531
0.540337 0.280888 0.827237
0.702693 0.412421 0.815915
0.818692 0.528679 0.810636
0.902281 0.635157 0.807858
0.975616 0.677882 0.788724
0.000000 0.220859 0.836698
0.000000 0.227634 0.836332
0.282628 0.252873 0.835142
0.535454 0.335180 0.829068
0.699825 0.457282 0.816617
0.816007 0.553948 0.812680
0.900847 0.648981 0.810605
0.975006 0.687037 0.790799
0.000000 0.383948 0.838132
0.000000 0.390845 0.837644
0.250889 0.417060 0.835752
0.518456 0.474403 0.832639
0.692134 0.559808 0.820645
0.807980 0.622309 0.818997
0.896818 0.690089 0.818753
0.973053 0.716915 0.797665
0.000000 0.579339 0.841215
0.000000 0.582483 0.840635
0.210575 0.593622 0.838193
0.493385 0.615656 0.833768
0.675135 0.654871 0.830747
0.797665 0.701625 0.826566
0.893126 0.742367 0.827390
0.968170 0.765621 0.810971
0.000000 0.730495 0.849149
0.000000 0.730892 0.848600
0.182345 0.731899 0.846281
0.483101 0.735775 0.841917
0.653712 0.746639 0.837491
0.789425 0.771389 0.834653
0.889372 0.797879 0.832792
0.962371 0.809537 0.824887
0.000000 0.841825 0.857298
0.000000 0.841306 0.856901
0.194583 0.839109 0.855375
0.478157 0.837034 0.852079
0.648859 0.837919 0.844907
0.778592 0.839780 0.841978
0.861051 0.836423 0.835843
0.945861 0.848173 0.844022
0.000000 0.927184 0.858366
0.000000 0.925994 0.857542
0.268742 0.921355 0.854520
0.492378 0.914549 0.848508
0.654108 0.907073 0.842527
0.776486 0.899718 0.846891
0.848875 0.897032 0.848325
0.922972 0.893645 0.843961
0.000000 0.996155 0.849424
0.000000 0.994690 0.848508
0.281193 0.989380 0.845335
0.492073 0.980713 0.840391
0.657527 0.968444 0.841093
0.783536 0.955718 0.855467
0.857939 0.949310 0.867552
0.909117 0.951171 0.866819
0.000000 0.213993 0.916045
0.000000 0.223362 0.915618
0.332830 0.259892 0.914153
0.527550 0.343938 0.910765
0.680537 0.476295 0.900969
0.791806 0.563195 0.894499
0.890532 0.637140 0.895140
0.956847 0.718441 0.886809
0.000000 0.266484 0.916045
0.026307 0.276249 0.915557
0.336522 0.312688 0.913848
0.527398 0.387335 0.910857
0.680232 0.504906 0.901122
0.790860 0.584680 0.894438
0.889189 0.651240 0.895689
0.956085 0.727077 0.887968
0.000000 0.410407 0.914977
0.106935 0.420478 0.914336
0.350683 0.452979 0.912108
0.533898 0.509270 0.908476
0.679042 0.579339 0.902251
0.788937 0.643915 0.894682
0.885100 0.693294 0.897368
0.953796 0.754482 0.891386
0.000000 0.568872 0.913634
0.103029 0.574121 0.913024
0.357488 0.592920 0.910704
0.539239 0.625299 0.906859
0.677424 0.664332 0.903319
0.788266 0.711696 0.897154
0.880858 0.748531 0.899474
0.951080 0.793393 0.895628
0.000000 0.698695 0.915129
0.117861 0.700618 0.914580
0.358404 0.707301 0.912566
0.529870 0.719600 0.909270
0.669032 0.739101 0.904906
0.784848 0.770871 0.901946
0.878508 0.803830 0.901152
0.950713 0.833738 0.897948
0.000000 0.803708 0.920287
0.084169 0.803861 0.919738
0.351690 0.804929 0.917784
0.524132 0.809110 0.914519
0.660822 0.818753 0.910430
0.775326 0.833890 0.906035
0.874846 0.857145 0.903044
0.948821 0.878416 0.901091
0.000000 0.901610 0.928954
0.000000 0.901122 0.928466
0.325872 0.900114 0.926787
0.501579 0.900908 0.923552
0.645075 0.904814 0.918212
0.770413 0.907622 0.909209
0.867308 0.908110 0.907286
0.928038 0.905028 0.901671
0.000000 0.992096 0.930266
0.000000 0.991028 0.929229
0.269749 0.987427 0.925231
0.475257 0.981781 0.917693
0.638270 0.973693 0.907652
0.773587 0.963287 0.901793
0.870787 0.953979 0.909514
0.920531 0.953124 0.912322
0.219913 0.291478 0.970520
0.275395 0.303380 0.970031
0.406439 0.346929 0.968231
0.547539 0.425635 0.964965
0.675837 0.528527 0.958221
0.778714 0.613123 0.950347
0.863676 0.670680 0.946777
0.944671 0.725673 0.948486
0.239841 0.336614 0.969909
0.290806 0.347936 0.969360
0.415717 0.389014 0.967437
0.552728 0.460456 0.964080
0.677424 0.548791 0.958007
0.779751 0.627558 0.950164
0.863767 0.682490 0.946532
0.944121 0.734096 0.948547
0.300053 0.463447 0.967285
0.340612 0.472450 0.966705
0.447242 0.503319 0.964630
0.569329 0.550225 0.961486
0.682673 0.605829 0.957519
0.783413 0.669856 0.949859
0.864591 0.718441 0.945800
0.942626 0.760281 0.948730
0.330053 0.584344 0.964813
0.370214 0.590997 0.964141
0.476478 0.613825 0.961944
0.593072 0.646509 0.958679
0.694820 0.680537 0.955444
0.789273 0.723903 0.950286
0.867124 0.765988 0.945342
0.941466 0.797055 0.948943
0.337835 0.685512 0.964050
0.374182 0.688441 0.963531
0.471443 0.698695 0.961791
0.587884 0.717128 0.958801
0.703609 0.747463 0.954528
0.794064 0.777493 0.951110
0.870787 0.812650 0.946380
0.941253 0.839231 0.949279
0.342718 0.774929 0.965209
0.377081 0.776272 0.964782
0.469703 0.781125 0.963256
0.580041 0.790494 0.960601
0.690272 0.806485 0.956817
0.790616 0.828946 0.952209
0.872496 0.856901 0.949248
0.942138 0.882444 0.949371
0.336461 0.858152 0.968719
0.371557 0.858671 0.968292
0.465339 0.860899 0.966735
0.576165 0.866178 0.964050
0.685725 0.875761 0.960235
0.783474 0.888670 0.955871
0.868620 0.903960 0.951537
0.940917 0.923980 0.948974
0.253849 0.945464 0.976532
0.299687 0.945495 0.976135
0.410346 0.945983 0.974670
0.535912 0.948119 0.971954
0.657465 0.952789 0.967742
0.765255 0.959472 0.961486
0.865690 0.960540 0.951049
0.937285 0.958190 0.951720
0.380072 0.388800 1.000000
0.406409 0.400122 1.000000
0.483558 0.439521 1.000000
0.582483 0.500359 1.000000
0.683680 0.573693 0.996979
0.778836 0.652338 0.990082
0.856901 0.714504 0.983703
0.921386 0.761593 0.981170
0.397040 0.425910 1.000000
0.421790 0.436378 1.000000
0.494362 0.471199 1.000000
0.589044 0.524437 1.000000
0.686549 0.588678 0.996521
0.780789 0.662776 0.989776
0.858152 0.722683 0.983398
0.921691 0.768276 0.980896
0.449989 0.528069 1.000000
0.469276 0.534508 1.000000
0.528344 0.556146 1.000000
0.610010 0.591089 0.997803
0.697719 0.635798 0.994751
0.787259 0.694667 0.988830
0.862333 0.748409 0.982513
0.922911 0.789487 0.980041
0.502373 0.627466 0.998444
0.523888 0.634852 0.997833
0.578485 0.652644 0.996246
0.642512 0.671534 0.994354
0.717556 0.699489 0.991791
0.796658 0.738216 0.987854
0.868467 0.783810 0.981689
0.925261 0.819791 0.978943
0.485603 0.687984 0.997833
0.506310 0.692164 0.997314
0.569879 0.706996 0.995544
0.658869 0.734249 0.992462
0.740536 0.763180 0.989136
0.808255 0.787594 0.986358
0.875395 0.822873 0.981445
0.929137 0.855039 0.977966
0.472114 0.756161 0.997803
0.491524 0.758267 0.997406
0.551324 0.765896 0.995941
0.637324 0.781399 0.993256
0.730800 0.805753 0.989471
0.821469 0.839689 0.984802
0.882231 0.863188 0.981781
0.934691 0.891264 0.977630
0.470863 0.827939 0.998535
0.489387 0.829221 0.998169
0.547326 0.834012 0.996765
0.630579 0.843870 0.994171
0.720363 0.858976 0.990600
0.805875 0.877958 0.986481
0.884947 0.902251 0.981842
0.940917 0.925658 0.978637
0.461830 0.902220 1.000000
0.481025 0.902953 1.000000
0.540551 0.905730 0.998810
0.625391 0.911589 0.996185
0.715785 0.920745 0.992523
0.800992 0.932341 0.988342
0.878721 0.945678 0.983886
0.944488 0.959197 0.979797
