Lut/inside1.cube
# Created by Adobe Lightroom plugin Export LUT (1.24.0)
# www.johnrellis.com/lightroom/exportlut.htm
# Photo: _27A0006.CR3
# Color profile: C:\Program Files (x86)\Common Files\Adobe\Color\Profiles\Recommended\AdobeRGB1998.icc
LUT_3D_SIZE 5
DOMAIN_MIN 0.000000 0.000000 0.000000
DOMAIN_MAX 0.903226 0.903226 0.903226
0.104646 0.104646 0.104646
0.278538 0.124392 0.092561
0.682094 0.118074 0.000000
0.903624 0.337621 0.000000
1.000000 0.438941 0.000000
0.000000 0.279759 0.156832
0.247593 0.298711 0.136324
0.655879 0.302861 0.134249
0.894072 0.427405 0.107362
1.000000 0.488533 0.000000
0.000000 0.650385 0.318273
0.000000 0.662531 0.309361
0.575952 0.653529 0.253544
0.832975 0.603906 0.303807
1.000000 0.624842 0.313542
0.000000 0.853727 0.511955
0.000000 0.852934 0.513695
0.530236 0.838621 0.524498
0.772671 0.827787 0.497108
0.950713 0.780453 0.525078
0.000000 0.988373 0.630213
0.219486 0.982238 0.641047
0.593164 0.962829 0.685969
0.761379 0.951232 0.709529
0.901701 0.950225 0.710323
0.000000 0.102785 0.378454
0.280705 0.137972 0.355383
0.685328 0.203037 0.342901
0.900114 0.432776 0.336797
1.000000 0.503868 0.278141
0.000000 0.320409 0.417945
0.214237 0.337682 0.412451
0.665461 0.419104 0.397894
0.887541 0.513878 0.404822
1.000000 0.551690 0.346868
0.000000 0.664759 0.507439
0.000000 0.675349 0.510430
0.576806 0.674952 0.486488
0.831205 0.650446 0.521569
0.996185 0.666621 0.514092
0.000000 0.858244 0.612818
0.000000 0.856382 0.614771
0.555016 0.841947 0.626856
0.767697 0.832639 0.611017
0.942657 0.793851 0.624659
0.000000 0.989685 0.680812
0.239872 0.983398 0.687922
0.599664 0.963958 0.721584
0.774624 0.950103 0.753780
0.901518 0.950072 0.755062
0.000000 0.145266 0.776364
0.202823 0.154147 0.775967
0.642481 0.317510 0.756924
0.847898 0.558251 0.750576
0.987091 0.656123 0.720943
0.000000 0.328832 0.781949
0.105562 0.349187 0.780728
0.630274 0.478370 0.765286
0.840452 0.622370 0.763699
0.983001 0.692531 0.735714
0.000000 0.678859 0.798001
0.000000 0.681483 0.795895
0.577722 0.693660 0.788205
0.827695 0.741543 0.785946
0.972473 0.764645 0.768093
0.000000 0.868681 0.809354
0.057740 0.865263 0.807675
0.579522 0.854398 0.801450
0.790066 0.847959 0.803922
0.934386 0.836423 0.800687
0.000000 0.995026 0.807950
0.224460 0.989380 0.806394
0.590356 0.971496 0.807919
0.804959 0.950866 0.840269
0.905943 0.950622 0.842924
0.000000 0.230930 0.931670
0.299687 0.267216 0.930175
0.609857 0.429358 0.922148
0.811124 0.592706 0.909575
0.955169 0.718990 0.903624
0.000000 0.382879 0.930510
0.322789 0.415595 0.928496
0.611139 0.523888 0.922332
0.809689 0.648249 0.909239
0.952941 0.746731 0.906218
0.100710 0.635828 0.928130
0.346227 0.648035 0.926116
0.618952 0.689265 0.919799
0.810941 0.754269 0.912413
0.948760 0.816190 0.911772
0.082734 0.818601 0.934142
0.341527 0.819669 0.932372
0.603204 0.828794 0.926848
0.800778 0.852903 0.919188
0.946563 0.891020 0.914916
0.000000 0.985412 0.946563
0.219760 0.983734 0.944121
0.559655 0.976745 0.931670
0.798642 0.962341 0.915221
0.924590 0.953979 0.922972
0.380072 0.388800 1.000000
0.461006 0.427161 1.000000
0.632471 0.534051 0.999573
0.799985 0.669398 0.988373
0.921386 0.761593 0.981170
0.434302 0.499763 1.000000
0.499245 0.524529 1.000000
0.648737 0.595697 0.997070
0.805783 0.699977 0.987427
0.922515 0.783047 0.980285
0.494881 0.656855 0.998047
0.561547 0.676112 0.996155
0.693996 0.720027 0.991608
0.820401 0.771786 0.986053
0.926909 0.836973 0.978424
0.470710 0.773922 0.997925
0.531060 0.780179 0.996551
0.680568 0.805966 0.991730
0.837705 0.855711 0.984009
0.936278 0.900084 0.977752
0.461830 0.902220 1.000000
0.522484 0.904784 0.999298
0.670863 0.915801 0.994476
0.820920 0.935515 0.987274
0.944488 0.959197 0.979797
