Lut/inside1.cube
# Created by Adobe Lightroom plugin Export LUT (1.24.0)
# www.johnrellis.com/lightroom/exportlut.htm
# Photo: _27A0006.CR3
# Color profile: C:\Program Files (x86)\Common Files\Adobe\Color\Profiles\Recommended\AdobeRGB1998.icc
LUT_3D_SIZE 32
DOMAIN_MIN 0.0 0.0 0.0
DOMAIN_MAX 1.0 1.0 1.0
0.104646 0.104646 0.104646
0.111330 0.105257 0.104646
0.119753 0.105684 0.104616
0.139223 0.108003 0.103517
0.166476 0.114015 0.101595
0.198367 0.119326 0.099367
0.235447 0.122988 0.096468
0.278538 0.124392 0.092561
0.329747 0.121035 0.087160
0.386969 0.113222 0.079530
0.448676 0.101137 0.068147
0.512627 0.078981 0.048249
0.575311 0.070863 0.024384
0.632563 0.087221 0.000000
0.682094 0.118074 0.000000
0.725216 0.152956 0.000000
0.762814 0.187900 0.000000
0.796262 0.221897 0.000000
0.826230 0.254093 0.000000
0.853971 0.284489 0.000000
0.879728 0.312413 0.000000
0.903624 0.337621 0.000000
0.925963 0.360204 0.000000
0.946838 0.379858 0.000000
0.966369 0.396796 0.000000
0.984680 0.411048 0.000000
1.000000 0.422827 0.000000
1.000000 0.431983 0.000000
1.000000 0.438941 0.000000
1.000000 0.446296 0.000000
1.000000 0.454627 0.000000
1.000000 0.462318 0.000000
0.104067 0.111666 0.106386
0.110567 0.112032 0.106172
0.117922 0.110323 0.106111
0.136812 0.112490 0.104158
0.164462 0.117617 0.101808
0.196384 0.122835 0.099123
0.233402 0.126558 0.096223
0.276982 0.127260 0.092378
0.328405 0.124056 0.086976
0.385687 0.116793 0.079286
0.447883 0.101381 0.069093
0.511833 0.087770 0.061433
0.574487 0.084627 0.048951
0.631891 0.099550 0.020600
0.681514 0.127749 0.000000
0.724697 0.160616 0.000000
0.762356 0.194400 0.000000
0.795895 0.227298 0.000000
0.825895 0.258793 0.000000
0.853696 0.288548 0.000000
0.879454 0.315953 0.000000
0.903410 0.340764 0.000000
0.925780 0.362921 0.000000
0.946654 0.382361 0.000000
0.966217 0.399054 0.000000
0.984527 0.413123 0.000000
1.000000 0.424689 0.000000
1.000000 0.433722 0.000000
1.000000 0.440467 0.000000
1.000000 0.447425 0.000000
1.000000 0.455726 0.000000
1.000000 0.463416 0.000000
0.103212 0.120089 0.108766
0.109743 0.120851 0.108522
0.118318 0.121004 0.108492
0.134096 0.119966 0.107637
0.161471 0.123323 0.103975
0.193851 0.126986 0.099550
0.231205 0.130220 0.095949
0.274998 0.130983 0.092103
0.326604 0.127382 0.086793
0.384375 0.119570 0.082002
0.446662 0.109041 0.077272
0.510460 0.100832 0.072816
0.573297 0.100038 0.064881
0.630854 0.114199 0.045167
0.680720 0.139925 0.013092
0.724025 0.170535 0.000000
0.761776 0.202609 0.000000
0.795346 0.234318 0.000000
0.825467 0.264836 0.000000
0.853269 0.293950 0.000000
0.879088 0.320775 0.000000
0.903075 0.345068 0.000000
0.925475 0.366674 0.000000
0.946410 0.385748 0.000000
0.965972 0.402136 0.000000
0.984344 0.415869 0.000000
1.000000 0.427253 0.000000
1.000000 0.436042 0.000000
1.000000 0.442481 0.000000
1.000000 0.449042 0.000000
1.000000 0.457252 0.000000
1.000000 0.464820 0.000000
0.099550 0.140322 0.115572
0.106722 0.141634 0.114229
0.117006 0.142489 0.112398
0.136629 0.142580 0.112428
0.157198 0.137453 0.111177
0.187900 0.138125 0.106172
0.226291 0.139712 0.101350
0.270878 0.139925 0.098329
0.322728 0.137850 0.096468
0.380652 0.134066 0.095857
0.442908 0.129000 0.093751
0.507256 0.125063 0.089418
0.570459 0.127321 0.081697
0.628565 0.140536 0.070680
0.678828 0.163027 0.053376
0.722438 0.190341 0.018128
0.760433 0.219425 0.000000
0.794186 0.248936 0.000000
0.824399 0.277775 0.000000
0.852323 0.305303 0.000000
0.878233 0.330877 0.000000
0.902312 0.354192 0.000000
0.924804 0.374884 0.000000
0.945830 0.393103 0.000000
0.965484 0.408789 0.000000
0.983917 0.421942 0.000000
1.000000 0.432685 0.000000
1.000000 0.441047 0.000000
1.000000 0.446906 0.000000
1.000000 0.452461 0.000000
1.000000 0.460487 0.000000
1.000000 0.467903 0.000000
0.091493 0.167666 0.125185
0.098268 0.169131 0.122988
0.109773 0.170779 0.120424
0.131350 0.172519 0.117067
0.159976 0.171939 0.116976
0.185031 0.162234 0.116732
0.216617 0.157870 0.113191
0.261631 0.158328 0.111482
0.314977 0.158175 0.111421
0.373602 0.156985 0.111391
0.436713 0.155215 0.109377
0.501701 0.155459 0.105409
0.565698 0.160372 0.098756
0.624689 0.173220 0.089631
0.675624 0.192996 0.078065
0.719692 0.217227 0.064668
0.758145 0.243381 0.039277
0.792203 0.270176 0.003967
0.822660 0.296574 0.000000
0.850797 0.322148 0.000000
0.876890 0.346014 0.000000
0.901122 0.367742 0.000000
0.923735 0.387152 0.000000
0.944884 0.404181 0.000000
0.964660 0.418799 0.000000
0.983215 0.431159 0.000000
1.000000 0.441138 0.000000
1.000000 0.448737 0.000000
1.000000 0.453895 0.000000
1.000000 0.457740 0.000000
1.000000 0.465553 0.000000
1.000000 0.472663 0.000000
0.077333 0.199619 0.134768
0.085298 0.201175 0.132906
0.098329 0.202853 0.131044
0.120363 0.206027 0.127077
0.149691 0.208377 0.122927
0.185672 0.207095 0.121736
0.217655 0.194919 0.123537
0.249607 0.184360 0.123201
0.300816 0.184207 0.123873
0.361944 0.185306 0.124544
0.427466 0.186679 0.123507
0.493751 0.189425 0.120333
0.558740 0.196323 0.114870
0.618982 0.209049 0.107088
0.670924 0.227054 0.097719
0.715816 0.248356 0.087739
0.754818 0.271702 0.077119
0.789334 0.295842 0.065705
0.820188 0.319768 0.051484
0.848569 0.343175 0.027008
0.874937 0.364965 0.000000
0.899413 0.384924 0.000000
0.922210 0.402747 0.000000
0.943511 0.418402 0.000000
0.963439 0.431891 0.000000
0.982116 0.443214 0.000000
0.999725 0.452247 0.000000
1.000000 0.459022 0.000000
1.000000 0.463294 0.000000
1.000000 0.465339 0.000000
1.000000 0.472114 0.000000
1.000000 0.478920 0.000000
0.047700 0.236576 0.144991
0.066896 0.238010 0.143862
0.082185 0.239902 0.142947
0.106477 0.243748 0.140810
0.136355 0.248356 0.136629
0.171267 0.251011 0.130953
0.214237 0.249210 0.128054
0.255314 0.235508 0.131258
0.290196 0.218845 0.133608
0.343664 0.217899 0.135958
0.410315 0.221683 0.136233
0.480537 0.227207 0.134340
0.548852 0.235355 0.130190
0.611170 0.247318 0.123842
0.664576 0.263279 0.116304
0.710597 0.282506 0.108614
0.750362 0.303258 0.101076
0.785519 0.324712 0.094087
0.816831 0.346166 0.087922
0.845640 0.367193 0.082063
0.872313 0.386969 0.075471
0.897063 0.405066 0.067414
0.920104 0.421088 0.054139
0.941680 0.435187 0.016754
0.961791 0.447395 0.000000
0.980682 0.457618 0.000000
0.998474 0.465675 0.000000
1.000000 0.471504 0.000000
1.000000 0.474830 0.000000
1.000000 0.475807 0.000000
1.000000 0.480171 0.000000
1.000000 0.486641 0.000000
0.000000 0.279759 0.156832
0.008179 0.281346 0.156710
0.051270 0.283391 0.156374
0.086458 0.287663 0.155337
0.119417 0.293187 0.152377
0.155856 0.298100 0.147158
0.196658 0.300786 0.140536
0.247593 0.298711 0.136324
0.298894 0.284794 0.139864
0.337865 0.264744 0.143526
0.390051 0.260044 0.146883
0.458686 0.265690 0.147219
0.530785 0.275120 0.144869
0.598566 0.287816 0.140139
0.655879 0.302861 0.134249
0.703731 0.319463 0.128634
0.744594 0.337377 0.123445
0.780575 0.356237 0.119142
0.812528 0.375128 0.116030
0.841886 0.393744 0.113527
0.868956 0.411353 0.110628
0.894072 0.427405 0.107362
0.917479 0.441718 0.102693
0.939300 0.454261 0.094942
0.959686 0.465156 0.081880
0.978820 0.474159 0.052949
0.996796 0.481209 0.000000
1.000000 0.486030 0.000000
1.000000 0.488533 0.000000
1.000000 0.488411 0.000000
1.000000 0.489540 0.000000
1.000000 0.495552 0.000000
0.000000 0.329625 0.171176
0.000000 0.331212 0.171145
0.000000 0.333288 0.171298
0.032837 0.337469 0.170901
0.094301 0.343267 0.169345
0.136507 0.349371 0.165225
0.180636 0.354009 0.158907
0.228519 0.356268 0.150454
0.287663 0.353643 0.145144
0.346960 0.340398 0.148898
0.389990 0.320439 0.153475
0.439429 0.308995 0.157473
0.506126 0.314824 0.158206
0.577050 0.327092 0.156008
0.640284 0.342351 0.152071
0.692958 0.358312 0.148623
0.736812 0.374365 0.145785
0.774289 0.390356 0.143526
0.807095 0.406256 0.142580
0.837125 0.422309 0.142245
0.864775 0.437446 0.141939
0.890349 0.451331 0.141115
0.914153 0.463844 0.139040
0.936309 0.475013 0.135134
0.957000 0.484565 0.127779
0.976440 0.492500 0.114107
0.994720 0.498512 0.088716
1.000000 0.502464 0.000000
1.000000 0.504082 0.000000
1.000000 0.502983 0.000000
1.000000 0.500145 0.000000
1.000000 0.505669 0.000000
0.000000 0.384405 0.187533
0.000000 0.385931 0.187869
0.000000 0.387823 0.188052
0.000000 0.391791 0.188083
0.021973 0.397436 0.187137
0.107424 0.403845 0.184054
0.159274 0.409522 0.178317
0.212375 0.413245 0.170474
0.267948 0.414771 0.161349
0.333227 0.411841 0.155337
0.397925 0.399207 0.159121
0.444190 0.380346 0.164096
0.491341 0.363500 0.168093
0.552178 0.366918 0.169924
0.617731 0.380072 0.168612
0.675410 0.395361 0.167666
0.723903 0.410620 0.167147
0.764858 0.425299 0.167514
0.800015 0.439246 0.169100
0.831296 0.452491 0.170871
0.859678 0.465034 0.172427
0.885801 0.476875 0.173526
0.910094 0.487556 0.173281
0.932647 0.497230 0.171664
0.953704 0.505455 0.166812
0.973480 0.512200 0.157259
0.992065 0.517296 0.140322
1.000000 0.520348 0.109316
1.000000 0.521172 0.001709
1.000000 0.519280 0.000000
1.000000 0.514488 0.000000
1.000000 0.516838 0.000000
0.000000 0.441993 0.207279
0.000000 0.443366 0.207645
0.000000 0.445167 0.207797
0.000000 0.448737 0.207980
0.000000 0.453925 0.207370
0.035523 0.459968 0.205051
0.129519 0.466102 0.200076
0.191257 0.470649 0.192569
0.252415 0.473060 0.183047
0.313237 0.473701 0.172915
0.382849 0.470283 0.167117
0.450294 0.458412 0.170993
0.498482 0.441260 0.176577
0.543511 0.422004 0.180148
0.595544 0.420539 0.182956
0.653010 0.431312 0.184695
0.705287 0.444800 0.186831
0.750210 0.458228 0.190066
0.788846 0.470893 0.194186
0.822873 0.482887 0.198520
0.853117 0.493904 0.202396
0.880339 0.503716 0.205112
0.905211 0.512535 0.206577
0.928283 0.520592 0.206394
0.949737 0.527550 0.203525
0.969909 0.533196 0.196475
0.988861 0.537285 0.183536
1.000000 0.539605 0.160983
1.000000 0.539666 0.120333
1.000000 0.537102 0.000000
1.000000 0.531518 0.000000
1.000000 0.528923 0.000000
0.000000 0.500145 0.230686
0.000000 0.501305 0.231022
0.000000 0.502831 0.231174
0.000000 0.505974 0.231479
0.000000 0.510521 0.231022
0.000000 0.515953 0.229038
0.078248 0.521660 0.224704
0.163821 0.526604 0.217807
0.233127 0.529564 0.208438
0.299229 0.530602 0.198001
0.363195 0.530236 0.187472
0.434974 0.525933 0.181888
0.502647 0.514855 0.186038
0.550774 0.499855 0.192416
0.591974 0.480873 0.195407
0.634974 0.472633 0.199619
0.684260 0.478767 0.204318
0.731350 0.489235 0.209781
0.773251 0.500389 0.216251
0.810422 0.511467 0.223362
0.843351 0.521660 0.229831
0.872648 0.530694 0.235325
0.899046 0.538567 0.239414
0.923003 0.545251 0.241001
0.945068 0.550866 0.239719
0.965637 0.555322 0.234623
0.984985 0.558465 0.224094
1.000000 0.559960 0.205936
1.000000 0.559472 0.175235
1.000000 0.556268 0.118654
1.000000 0.550072 0.000000
1.000000 0.542046 0.000000
0.000000 0.556207 0.257786
0.000000 0.557153 0.258091
0.000000 0.558465 0.258213
0.000000 0.561028 0.258305
0.000000 0.564782 0.257786
0.000000 0.569238 0.255985
0.000000 0.573968 0.252262
0.127199 0.578180 0.246128
0.210605 0.581018 0.237552
0.282628 0.582055 0.227298
0.350683 0.581720 0.216434
0.415412 0.580316 0.205722
0.486824 0.575463 0.201205
0.551629 0.565270 0.206119
0.597498 0.551476 0.212863
0.634424 0.533928 0.215854
0.671138 0.520623 0.220310
0.712398 0.521447 0.227146
0.754788 0.528832 0.235447
0.794461 0.538293 0.244511
0.830106 0.547723 0.253605
0.861906 0.556237 0.261936
0.890349 0.563653 0.268864
0.915984 0.569818 0.273350
0.939239 0.574823 0.274754
0.960601 0.578454 0.271885
0.980468 0.580743 0.263828
0.999207 0.581476 0.248783
1.000000 0.580255 0.223209
1.000000 0.576684 0.180850
1.000000 0.569970 0.095644
1.000000 0.559716 0.000000
0.000000 0.606714 0.287633
0.000000 0.607385 0.287663
0.000000 0.608331 0.287816
0.000000 0.610285 0.287755
0.000000 0.613092 0.287144
0.000000 0.616419 0.285557
0.000000 0.619928 0.282292
0.071901 0.623163 0.277134
0.186221 0.625513 0.269871
0.265110 0.626459 0.260624
0.336431 0.626001 0.250431
0.403204 0.624567 0.239536
0.466163 0.622522 0.229160
0.534142 0.617426 0.225345
0.594293 0.608148 0.230594
0.637934 0.595544 0.237858
0.671504 0.579767 0.241093
0.703944 0.564111 0.245060
0.738460 0.560174 0.252781
0.777035 0.565026 0.262791
0.814267 0.572595 0.273838
0.848295 0.580377 0.284642
0.878965 0.587457 0.294591
0.906554 0.593439 0.302159
0.931426 0.598169 0.306706
0.954070 0.601648 0.307286
0.974914 0.603601 0.302464
0.994324 0.603937 0.290745
1.000000 0.602197 0.269139
1.000000 0.598199 0.234073
1.000000 0.591211 0.174075
1.000000 0.580529 0.000000
0.000000 0.650385 0.318273
0.000000 0.650874 0.318303
0.000000 0.651606 0.318364
0.000000 0.653040 0.318181
0.000000 0.655085 0.317479
0.000000 0.657588 0.316167
0.000000 0.660182 0.313512
0.000000 0.662531 0.309361
0.160433 0.664302 0.303349
0.248295 0.664973 0.295537
0.322484 0.664393 0.286534
0.390784 0.662898 0.276707
0.454170 0.660914 0.266300
0.513359 0.658534 0.256748
0.575952 0.653529 0.253544
0.631495 0.645075 0.258824
0.672908 0.633539 0.266300
0.703975 0.619532 0.269780
0.733425 0.603540 0.273045
0.763760 0.596368 0.280613
0.798367 0.598383 0.291508
0.832975 0.603906 0.303807
0.865354 0.610163 0.316106
0.894926 0.615869 0.326726
0.921569 0.620569 0.334722
0.945708 0.624018 0.338842
0.967742 0.626062 0.337774
0.988159 0.626459 0.330205
1.000000 0.624842 0.313542
1.000000 0.620783 0.284337
1.000000 0.613672 0.235874
1.000000 0.602838 0.146792
0.000000 0.688563 0.349157
0.000000 0.688960 0.349157
0.000000 0.689418 0.349126
0.000000 0.690486 0.348913
0.000000 0.691981 0.348302
0.000000 0.693812 0.347143
0.000000 0.695613 0.344915
0.000000 0.697292 0.341802
0.132601 0.698512 0.337133
0.232639 0.698970 0.331121
0.310155 0.698360 0.323705
0.379400 0.696803 0.315099
0.443061 0.694697 0.305852
0.501305 0.692439 0.295933
0.555566 0.689937 0.287083
0.613062 0.685267 0.284642
0.664393 0.677607 0.289494
0.703639 0.667140 0.296788
0.733181 0.654749 0.300755
0.761013 0.639948 0.303532
0.788418 0.630213 0.310430
0.818967 0.629389 0.321660
0.851011 0.632959 0.334722
0.881712 0.637629 0.347692
0.909911 0.642084 0.358801
0.935637 0.645563 0.366491
0.959075 0.647852 0.369482
0.980591 0.648524 0.366125
1.000000 0.647272 0.354589
1.000000 0.643580 0.331456
1.000000 0.636866 0.291875
1.000000 0.626368 0.223911
0.000000 0.722164 0.379553
0.000000 0.722499 0.379461
0.000000 0.722866 0.379492
0.000000 0.723659 0.379339
0.000000 0.724788 0.378729
0.000000 0.726131 0.377813
0.000000 0.727474 0.376226
0.000000 0.728634 0.373724
0.101900 0.729397 0.370397
0.218906 0.729549 0.366064
0.299962 0.728908 0.360479
0.370092 0.727291 0.353643
0.433600 0.725093 0.345892
0.491310 0.722713 0.337041
0.543633 0.720394 0.327764
0.593225 0.717922 0.319677
0.645838 0.713436 0.317601
0.693355 0.706416 0.322118
0.730953 0.697139 0.329015
0.759823 0.686488 0.333440
0.786435 0.673304 0.336248
0.812161 0.662013 0.342290
0.839078 0.658534 0.352880
0.868528 0.660090 0.366217
0.897368 0.663325 0.379431
0.924285 0.666529 0.390295
0.949035 0.668940 0.397284
0.971740 0.669978 0.398383
0.992859 0.669245 0.391852
1.000000 0.666224 0.375128
1.000000 0.660273 0.343572
1.000000 0.650507 0.288975
0.000000 0.752438 0.409033
0.000000 0.752621 0.408942
0.000000 0.752926 0.409033
0.000000 0.753536 0.408820
0.000000 0.754360 0.408423
0.000000 0.755306 0.407813
0.000000 0.756222 0.406653
0.000000 0.756954 0.404944
0.066224 0.757290 0.402686
0.207889 0.757046 0.399878
0.292454 0.756161 0.396124
0.363592 0.754482 0.391424
0.426581 0.752193 0.385534
0.483284 0.749722 0.378302
0.534417 0.747341 0.370123
0.581079 0.745144 0.361334
0.626581 0.742855 0.353918
0.675135 0.738827 0.352056
0.719600 0.732753 0.356146
0.755886 0.724697 0.362707
0.784237 0.715419 0.367620
0.809903 0.703731 0.370642
0.834592 0.691981 0.375830
0.858793 0.686152 0.385626
0.885649 0.685817 0.398444
0.912566 0.687648 0.411200
0.938140 0.689662 0.421180
0.961944 0.690852 0.426215
0.984070 0.690639 0.424598
1.000000 0.688411 0.414038
1.000000 0.683436 0.390753
1.000000 0.674800 0.347784
0.000000 0.780209 0.437201
0.000000 0.780362 0.437232
0.000000 0.780575 0.437171
0.000000 0.781003 0.437201
0.000000 0.781552 0.436896
0.000000 0.782193 0.436530
0.000000 0.782712 0.435767
0.000000 0.783047 0.434852
0.000000 0.783017 0.433448
0.201266 0.782437 0.431891
0.288579 0.781277 0.429816
0.360479 0.779538 0.427344
0.423255 0.777157 0.423865
0.478706 0.774624 0.418738
0.528252 0.772183 0.412238
0.573449 0.770016 0.404639
0.615320 0.768185 0.396399
0.657435 0.766140 0.389502
0.702205 0.762631 0.387915
0.743954 0.757412 0.391516
0.778836 0.750362 0.397681
0.806790 0.742184 0.402869
0.831724 0.731807 0.406043
0.855741 0.720333 0.410956
0.878050 0.712642 0.419532
0.902373 0.710506 0.431250
0.927428 0.710872 0.442512
0.951720 0.711635 0.450599
0.974609 0.711604 0.453071
0.996063 0.710048 0.448127
1.000000 0.706111 0.432441
1.000000 0.698909 0.400580
0.000000 0.806149 0.463996
0.000000 0.806271 0.463966
0.000000 0.806394 0.463935
0.000000 0.806668 0.463905
0.000000 0.807004 0.463813
0.000000 0.807370 0.463630
0.000000 0.807614 0.463386
0.000000 0.807584 0.462959
0.000000 0.807187 0.462531
0.200198 0.806302 0.462074
0.288884 0.804929 0.461616
0.361181 0.802976 0.461067
0.424048 0.800534 0.460212
0.478157 0.797940 0.457588
0.525811 0.795499 0.453071
0.569177 0.793301 0.447211
0.609277 0.791440 0.439948
0.646876 0.789944 0.432441
0.685817 0.788205 0.426459
0.727352 0.785245 0.424903
0.766476 0.780728 0.428016
0.800107 0.774594 0.433661
0.827665 0.767300 0.438849
0.852018 0.758083 0.442267
0.875669 0.747341 0.447028
0.896727 0.738247 0.454170
0.918761 0.734340 0.463600
0.942138 0.733272 0.472602
0.965087 0.732784 0.478218
0.987030 0.731502 0.477821
1.000000 0.728420 0.468849
1.000000 0.722530 0.446815
0.000000 0.830564 0.488930
0.000000 0.830594 0.488960
0.000000 0.830716 0.488960
0.000000 0.830869 0.488991
0.000000 0.831052 0.489052
0.000000 0.831174 0.489082
0.000000 0.831113 0.489113
0.000000 0.830808 0.489357
0.000000 0.830106 0.489601
0.204807 0.828977 0.490089
0.293431 0.827298 0.490944
0.365454 0.825193 0.492042
0.427771 0.822660 0.493172
0.481086 0.820005 0.493263
0.526604 0.817563 0.490517
0.567834 0.815366 0.486305
0.605982 0.813474 0.480781
0.641718 0.811948 0.474372
0.675746 0.810849 0.467750
0.712123 0.809445 0.462745
0.750729 0.806882 0.461799
0.787533 0.803067 0.464698
0.819974 0.797635 0.469795
0.847166 0.791073 0.474891
0.870970 0.782956 0.478462
0.894072 0.773007 0.482399
0.914702 0.763088 0.487831
0.934936 0.757626 0.494881
0.956603 0.755154 0.501427
0.978271 0.753323 0.504356
0.999207 0.750637 0.500664
1.000000 0.745846 0.486702
0.000000 0.853727 0.511955
0.000000 0.853758 0.511986
0.000000 0.853788 0.512016
0.000000 0.853849 0.512169
0.000000 0.853880 0.512322
0.000000 0.853819 0.512657
0.000000 0.853513 0.513085
0.000000 0.852934 0.513695
0.059083 0.851987 0.514672
0.215152 0.850584 0.515984
0.301915 0.848661 0.517876
0.373022 0.846342 0.520378
0.433692 0.843778 0.522881
0.486030 0.841093 0.524987
0.530236 0.838621 0.524498
0.569329 0.836423 0.521782
0.605402 0.834531 0.517815
0.639216 0.833005 0.512810
0.671382 0.831815 0.507134
0.702449 0.831052 0.501427
0.736568 0.829892 0.497505
0.772671 0.827787 0.497108
0.807523 0.824460 0.499977
0.838773 0.819699 0.504723
0.865537 0.813840 0.509483
0.888853 0.806699 0.512902
0.911376 0.797452 0.516136
0.931823 0.787381 0.520226
0.950713 0.780453 0.525078
0.970794 0.776608 0.529046
0.991180 0.773342 0.529015
1.000000 0.769100 0.521386
0.000000 0.875853 0.533288
0.000000 0.875853 0.533410
0.000000 0.875853 0.533471
0.000000 0.875792 0.533654
0.000000 0.875669 0.533959
0.000000 0.875395 0.534478
0.000000 0.874907 0.535241
0.000000 0.874083 0.536339
0.100832 0.872892 0.537835
0.230320 0.871244 0.539910
0.314153 0.869108 0.542809
0.383032 0.866606 0.546227
0.441505 0.864012 0.549737
0.492348 0.861295 0.553094
0.536614 0.858701 0.555535
0.573449 0.856535 0.554070
0.607446 0.854643 0.551385
0.639246 0.853086 0.547784
0.669551 0.851896 0.543297
0.698665 0.851041 0.538384
0.727474 0.850553 0.533593
0.759548 0.849607 0.530632
0.793484 0.847868 0.530694
0.826596 0.844999 0.533562
0.856748 0.840848 0.538048
0.882902 0.835630 0.542596
0.905730 0.829313 0.545830
0.927733 0.820829 0.548486
0.948058 0.811002 0.551568
0.966033 0.802823 0.554223
0.984619 0.797513 0.555596
1.000000 0.792782 0.552392
0.000000 0.896941 0.553094
0.000000 0.896910 0.553216
0.000000 0.896849 0.553307
0.000000 0.896727 0.553552
0.000000 0.896483 0.554101
0.000000 0.896056 0.554772
0.000000 0.895354 0.555840
0.000000 0.894316 0.557336
0.138277 0.892882 0.559380
0.249546 0.890990 0.562158
0.329137 0.888701 0.565820
0.394751 0.886107 0.569818
0.450904 0.883421 0.574060
0.500114 0.880705 0.578424
0.543664 0.878050 0.582635
0.580011 0.875731 0.583673
0.611902 0.873869 0.582116
0.641718 0.872313 0.579614
0.670069 0.871061 0.576287
0.697383 0.870146 0.572351
0.724025 0.869596 0.568200
0.750973 0.869322 0.564355
0.781308 0.868620 0.562280
0.813413 0.867155 0.562829
0.844907 0.864652 0.565820
0.873869 0.861051 0.570062
0.899382 0.856443 0.574365
0.921721 0.850889 0.577417
0.943175 0.843107 0.579614
0.963470 0.833799 0.581720
0.980621 0.824552 0.582513
0.997833 0.817838 0.581201
0.000000 0.917052 0.571405
0.000000 0.916991 0.571496
0.000000 0.916899 0.571649
0.000000 0.916716 0.572015
0.000000 0.916350 0.572625
0.000000 0.915740 0.573602
0.000000 0.914855 0.574914
0.000000 0.913634 0.576806
0.173526 0.911955 0.579431
0.271397 0.909880 0.582849
0.345556 0.907469 0.586908
0.407752 0.904814 0.591455
0.461555 0.902068 0.596338
0.509117 0.899290 0.601465
0.551476 0.896605 0.606744
0.588800 0.894072 0.611231
0.618616 0.892210 0.610559
0.646540 0.890654 0.609064
0.673060 0.889372 0.606775
0.698573 0.888426 0.603845
0.723384 0.887816 0.600427
0.747860 0.887510 0.596918
0.773312 0.887449 0.593927
0.802121 0.886870 0.592676
0.832578 0.885649 0.593683
0.862486 0.883543 0.596735
0.890227 0.880369 0.600855
0.914977 0.876310 0.604974
0.936797 0.871366 0.607935
0.957580 0.864286 0.609705
0.977783 0.855711 0.611170
0.994232 0.845518 0.610010
0.000000 0.936248 0.588220
0.000000 0.936156 0.588342
0.000000 0.936034 0.588586
0.000000 0.935760 0.589044
0.000000 0.935271 0.589837
0.000000 0.934539 0.590997
0.000000 0.933501 0.592706
0.011505 0.932067 0.594965
0.207919 0.930205 0.598108
0.294163 0.927977 0.601923
0.363073 0.925444 0.606378
0.421759 0.922759 0.611383
0.473274 0.919951 0.616815
0.519188 0.917144 0.622644
0.560388 0.914397 0.628779
0.597772 0.911711 0.635218
0.627680 0.909667 0.637293
0.653651 0.908110 0.636622
0.678309 0.906828 0.635187
0.702052 0.905852 0.633143
0.725185 0.905150 0.630579
0.747921 0.904784 0.627771
0.770535 0.904692 0.624994
0.794888 0.904723 0.622797
0.822293 0.904326 0.622278
0.851011 0.903319 0.623774
0.879332 0.901518 0.626947
0.905821 0.898741 0.631006
0.929686 0.895140 0.634943
0.950805 0.890715 0.637751
0.970886 0.884245 0.639155
0.990387 0.876097 0.639704
0.000000 0.954528 0.603662
0.000000 0.954437 0.603845
0.000000 0.954284 0.604120
0.000000 0.953918 0.604700
0.000000 0.953338 0.605646
0.000000 0.952453 0.607080
0.000000 0.951232 0.609064
0.129427 0.949645 0.611780
0.240177 0.947631 0.615320
0.317082 0.945281 0.619440
0.380865 0.942718 0.624262
0.436469 0.939940 0.629725
0.485817 0.937102 0.635706
0.530114 0.934234 0.642176
0.570428 0.931395 0.649165
0.607141 0.928649 0.656641
0.638819 0.926238 0.662654
0.662898 0.924712 0.662623
0.685756 0.923430 0.661891
0.707790 0.922423 0.660609
0.729213 0.921660 0.658839
0.750332 0.921202 0.656764
0.771328 0.920989 0.654505
0.792386 0.921080 0.652369
0.815702 0.921172 0.651057
0.841672 0.920867 0.651209
0.868742 0.920073 0.653132
0.895445 0.918486 0.656519
0.920562 0.916075 0.660578
0.943389 0.912810 0.664363
0.963714 0.908843 0.667048
0.982971 0.902892 0.668116
0.000000 0.971923 0.617731
0.000000 0.971801 0.617945
0.000000 0.971618 0.618250
0.000000 0.971191 0.618921
0.000000 0.970489 0.620081
0.000000 0.969482 0.621759
0.000000 0.968109 0.624109
0.180636 0.966369 0.627222
0.269566 0.964263 0.631006
0.339086 0.961822 0.635523
0.398627 0.959167 0.640681
0.451423 0.956359 0.646571
0.498817 0.953460 0.653071
0.541955 0.950500 0.660273
