Lut/Night-2.cube
# Created by Adobe Lightroom plugin Export LUT (1.24.0)
# www.johnrellis.com/lightroom/exportlut.htm
# Photo: 未命名_1.3.1.PRE.jpg
# Color profile: C:\Program Files (x86)\Common Files\Adobe\Color\Profiles\Recommended\AdobeRGB1998.icc
LUT_3D_SIZE 8
DOMAIN_MIN 0.000000 0.000000 0.000000
DOMAIN_MAX 0.903226 0.903226 0.903226
0.000000 0.000000 0.000000
0.103975 0.036591 0.000000
0.202762 0.093904 0.000000
0.323735 0.152743 0.000000
0.471717 0.220096 0.000000
0.635065 0.291752 0.000000
0.809293 0.362524 0.000000
0.970031 0.419196 0.000000
0.020386 0.077607 0.007294
0.109285 0.051881 0.000000
0.209659 0.116060 0.000000
0.333196 0.170779 0.000000
0.482673 0.235904 0.000000
0.647608 0.306554 0.000000
0.818540 0.374487 0.000000
0.975097 0.428107 0.000000
0.070710 0.137575 0.052216
0.123354 0.143099 0.040711
0.211917 0.101076 0.000000
0.336980 0.187839 0.000000
0.488258 0.266453 0.000000
0.648920 0.334112 0.000000
0.811765 0.396246 0.000000
0.970336 0.448463 0.000000
0.099367 0.218997 0.068513
0.142733 0.223606 0.060304
0.248966 0.215640 0.003082
0.333654 0.154849 0.000000
0.479957 0.257389 0.000000
0.646571 0.357885 0.000000
0.816983 0.435554 0.000000
0.974975 0.486580 0.000000
0.128298 0.317510 0.074739
0.168521 0.320287 0.064332
0.271061 0.324498 0.000000
0.380194 0.270665 0.000000
0.481514 0.220127 0.000000
0.652125 0.339239 0.000000
0.826291 0.456214 0.000000
0.981109 0.532433 0.000000
0.155917 0.431128 0.066377
0.193484 0.429572 0.043427
0.288121 0.433478 0.000000
0.436103 0.425025 0.000000
0.529442 0.331334 0.000000
0.651972 0.296086 0.000000
0.823301 0.420722 0.000000
0.982605 0.540185 0.000000
0.179965 0.577539 0.000000
0.220890 0.578058 0.000000
0.326848 0.581811 0.000000
0.474342 0.580072 0.000000
0.631312 0.538842 0.000000
0.721462 0.412757 0.000000
0.843107 0.382666 0.000000
0.992370 0.503441 0.000000
0.199466 0.754788 0.000000
0.245090 0.755734 0.000000
0.363104 0.756741 0.000000
0.510246 0.750973 0.000000
0.715724 0.739651 0.000000
0.841367 0.654383 0.000000
0.924743 0.494362 0.000000
1.000000 0.469551 0.000000
0.000000 0.069795 0.122255
0.104128 0.074250 0.106935
0.213840 0.110842 0.033356
0.335943 0.172122 0.000000
0.485878 0.237949 0.000000
0.652705 0.308904 0.000000
0.823484 0.375952 0.000000
0.979583 0.428199 0.000000
0.000000 0.103059 0.123232
0.107729 0.107729 0.107729
0.215854 0.129458 0.056764
0.340490 0.182986 0.000000
0.491249 0.250065 0.000000
0.658564 0.320195 0.000000
0.829953 0.386481 0.000000
0.984436 0.436927 0.000000
0.063447 0.157504 0.119326
0.118288 0.165286 0.111116
0.221714 0.119600 0.060975
0.345556 0.190738 0.000000
0.497871 0.275364 0.000000
0.662501 0.347784 0.000000
0.829221 0.410437 0.000000
0.981994 0.457862 0.000000
0.085267 0.238315 0.125002
0.136843 0.243320 0.116640
0.255802 0.241337 0.094026
0.349279 0.161471 0.000000
0.496101 0.261326 0.000000
0.665980 0.368688 0.000000
0.834684 0.448737 0.000000
0.985931 0.495247 0.000000
0.111666 0.331975 0.127840
0.158694 0.336034 0.120119
0.264958 0.341802 0.093507
0.394324 0.293553 0.000000
0.494575 0.225742 0.000000
0.662318 0.340612 0.000000
0.835569 0.460304 0.000000
0.988434 0.537926 0.000000
0.139590 0.446845 0.127077
0.183627 0.449012 0.117769
0.288060 0.453010 0.083009
0.440894 0.445075 0.000000
0.541436 0.344793 0.000000
0.657832 0.298466 0.000000
0.827695 0.420081 0.000000
0.987518 0.542016 0.000000
0.159976 0.594720 0.097108
0.207156 0.597345 0.076997
0.321935 0.600763 0.000000
0.470466 0.597803 0.000000
0.639094 0.555932 0.000000
0.730190 0.422126 0.000000
0.850889 0.385626 0.000000
0.999023 0.504997 0.000000
0.174838 0.765377 0.000000
0.225376 0.765896 0.000000
0.349859 0.767208 0.000000
0.499336 0.762387 0.000000
0.704799 0.743954 0.000000
0.841367 0.658412 0.000000
0.928008 0.499886 0.000000
1.000000 0.470375 0.000000
0.000000 0.127718 0.254276
0.000000 0.121187 0.246647
0.210086 0.121035 0.217624
0.351568 0.172366 0.151888
0.499397 0.228611 0.000000
0.656397 0.320470 0.000000
0.824094 0.396765 0.000000
0.980865 0.443549 0.000000
0.000000 0.149660 0.251347
0.000000 0.147463 0.244388
0.213230 0.148257 0.219242
0.356085 0.190951 0.155673
0.506096 0.242344 0.000000
0.662593 0.329839 0.000000
0.829587 0.405951 0.000000
0.984222 0.450965 0.000000
0.000000 0.204959 0.252567
0.058869 0.205783 0.244785
0.219242 0.219242 0.219242
0.359899 0.234897 0.159701
0.509972 0.276585 0.000000
0.666438 0.352941 0.000000
0.832334 0.428687 0.000000
0.986389 0.471901 0.000000
0.000000 0.270787 0.248234
0.097322 0.275792 0.243046
0.229496 0.291478 0.220951
0.365148 0.218906 0.158816
0.512474 0.282872 0.000000
0.669856 0.370794 0.000000
0.835325 0.458137 0.000000
0.988617 0.505913 0.000000
0.000763 0.362829 0.254612
0.109621 0.368566 0.247105
0.245945 0.381445 0.224643
0.404944 0.363928 0.185122
0.513451 0.241550 0.014282
0.669612 0.343908 0.000000
0.836851 0.456580 0.000000
0.992523 0.544518 0.000000
0.049042 0.475929 0.258976
0.129793 0.480293 0.250156
0.266331 0.490455 0.226627
0.422004 0.492195 0.186893
0.567681 0.396521 0.059693
0.674250 0.305669 0.000000
0.832395 0.413581 0.000000
0.991180 0.540978 0.000000
0.002686 0.619257 0.256535
0.136110 0.622644 0.246342
0.286595 0.630121 0.214572
0.440436 0.632410 0.150607
0.642542 0.602014 0.000000
0.744015 0.446967 0.000000
0.853819 0.386419 0.000000
0.998596 0.498848 0.000000
0.000000 0.782345 0.241703
0.142885 0.783810 0.228733
0.304356 0.786893 0.175784
0.466499 0.785794 0.000000
0.673854 0.773922 0.000000
0.846616 0.687312 0.000000
0.933898 0.516686 0.000000
1.000000 0.469429 0.000000
0.000000 0.201053 0.425422
0.000000 0.193820 0.418494
0.101411 0.175662 0.400702
0.347906 0.170047 0.362554
0.519188 0.258213 0.291783
0.686458 0.302922 0.183688
0.848936 0.369909 0.000000
0.993286 0.471077 0.000000
0.000000 0.214939 0.417945
0.000000 0.210269 0.413367
0.112490 0.197574 0.397772
0.348669 0.190951 0.362188
0.520623 0.273442 0.293339
0.689570 0.315862 0.186801
0.852201 0.379095 0.000000
0.995087 0.476692 0.000000
0.000000 0.264134 0.419837
0.000000 0.262364 0.415351
0.141268 0.261051 0.398657
0.356207 0.257389 0.365576
0.523003 0.316747 0.294591
0.688411 0.350286 0.190585
0.847807 0.402106 0.000000
0.993469 0.492226 0.000000
0.000000 0.334539 0.421729
0.000000 0.335485 0.417456
0.163485 0.341955 0.400366
0.364050 0.364050 0.364050
0.530419 0.376349 0.295811
0.697505 0.404608 0.195254
0.857755 0.446784 0.000000
0.998474 0.523064 0.000000
0.000000 0.412940 0.415991
0.000000 0.416999 0.413184
0.195041 0.430274 0.398474
0.373754 0.445869 0.364202
0.528801 0.350927 0.287755
0.695796 0.405585 0.190616
0.858640 0.468147 0.000000
1.000000 0.552361 0.000000
0.000000 0.513909 0.423835
0.000000 0.515831 0.417121
0.202457 0.532494 0.398657
0.388342 0.547265 0.365087
0.578088 0.511742 0.304509
0.698268 0.352758 0.176669
0.854795 0.425696 0.000000
0.999115 0.540551 0.000000
0.000000 0.655055 0.439826
0.000000 0.658045 0.431800
0.204776 0.666651 0.403510
0.405158 0.672694 0.360937
0.602197 0.666407 0.290562
0.763638 0.516899 0.135103
0.870024 0.381628 0.000000
1.000000 0.495613 0.000000
0.000000 0.807919 0.441199
0.000000 0.808316 0.431312
0.209506 0.809598 0.399725
0.419013 0.810391 0.343755
0.600214 0.811002 0.218143
0.838163 0.752285 0.000000
0.943481 0.548058 0.000000
1.000000 0.470527 0.000000
0.000000 0.281010 0.611414
0.000000 0.275486 0.606928
0.000000 0.263737 0.595575
0.233585 0.235416 0.571130
0.506401 0.243473 0.528130
0.684871 0.372961 0.457862
0.846586 0.418982 0.372137
0.995300 0.445228 0.205966
0.000000 0.293126 0.608515
0.000000 0.287938 0.603388
0.000000 0.278202 0.592340
0.237858 0.255253 0.570642
0.508019 0.261540 0.528893
0.685176 0.385382 0.459297
0.847715 0.427253 0.372076
0.996826 0.450477 0.199680
0.000000 0.333867 0.606592
0.000000 0.331273 0.603021
0.000000 0.327581 0.592523
0.257633 0.319158 0.570336
0.514763 0.320409 0.532403
0.690425 0.428473 0.467323
0.854124 0.455665 0.371496
1.000000 0.469581 0.174289
0.000000 0.399664 0.610346
0.000000 0.399084 0.607080
0.000000 0.399817 0.593774
0.291356 0.407996 0.568597
0.521141 0.410742 0.532189
0.695491 0.480171 0.465644
0.861845 0.493111 0.355718
1.000000 0.496620 0.072969
0.000000 0.482460 0.613794
0.000000 0.483131 0.610101
0.000000 0.488197 0.597101
0.314977 0.502464 0.571496
0.531609 0.531609 0.531609
0.709194 0.538140 0.453651
0.873045 0.543145 0.331334
1.000000 0.541650 0.000000
0.000000 0.579370 0.617426
0.000000 0.582177 0.614862
0.058961 0.593774 0.605768
0.339544 0.613397 0.582574
0.546746 0.626368 0.536370
0.709346 0.502953 0.432868
0.870726 0.536919 0.314366
1.000000 0.561425 0.000000
0.000000 0.699062 0.633906
0.000000 0.703090 0.631128
0.000000 0.714382 0.616938
0.331762 0.725948 0.578393
0.554314 0.725887 0.529778
0.760800 0.669734 0.428443
0.881041 0.470344 0.275151
1.000000 0.512535 0.000000
0.000000 0.844755 0.651240
0.000000 0.846616 0.644831
0.000000 0.851316 0.620325
0.333532 0.847074 0.571435
0.564630 0.841032 0.520500
0.775631 0.831724 0.390082
0.953674 0.629267 0.133730
1.000000 0.475776 0.000000
0.000000 0.354833 0.769772
0.000000 0.352270 0.767086
0.000000 0.349035 0.760586
0.069734 0.345800 0.746059
0.388586 0.316136 0.728115
0.668879 0.352087 0.695583
0.824826 0.537102 0.641047
0.950805 0.603021 0.605859
0.000000 0.367926 0.774472
0.000000 0.366186 0.772488
0.000000 0.363622 0.764828
0.101198 0.362066 0.749508
0.394446 0.335485 0.730495
0.672053 0.368719 0.698024
0.826261 0.547112 0.643854
0.952361 0.607843 0.606165
0.000000 0.400916 0.771603
0.000000 0.400458 0.770321
0.000000 0.400793 0.763394
0.149142 0.405097 0.748440
0.407630 0.390661 0.728542
0.674830 0.415961 0.697902
0.826963 0.573266 0.647364
0.956695 0.618372 0.600275
0.000000 0.456977 0.773465
0.000000 0.457679 0.772244
0.000000 0.460517 0.764797
0.188663 0.467781 0.747036
0.432227 0.472877 0.722896
0.676112 0.487343 0.693996
0.828214 0.609430 0.648280
0.965545 0.629236 0.578210
0.000000 0.532006 0.779232
0.000000 0.533013 0.777005
0.000000 0.538018 0.769162
0.222873 0.549950 0.754208
0.469398 0.572442 0.730953
0.688930 0.586938 0.699336
0.842466 0.655085 0.646265
0.983825 0.647852 0.538659
0.000000 0.620569 0.785245
0.000000 0.621302 0.781949
0.000000 0.628382 0.774197
0.262333 0.643366 0.759731
0.494606 0.668757 0.737545
0.699428 0.699397 0.699428
0.858000 0.698268 0.622492
1.000000 0.675074 0.477852
0.000000 0.723842 0.796445
0.000000 0.725765 0.794217
0.000000 0.734981 0.787930
0.268772 0.751278 0.773831
0.498756 0.773007 0.745541
0.706966 0.779873 0.697505
0.860410 0.656306 0.588952
1.000000 0.666102 0.453010
0.000000 0.857603 0.827665
0.000000 0.860441 0.825559
0.000000 0.869261 0.815854
0.218997 0.880369 0.790768
0.496254 0.884031 0.743709
0.718227 0.872587 0.696498
0.915648 0.811002 0.563012
1.000000 0.579065 0.364569
0.000000 0.437293 0.907378
0.000000 0.439185 0.906279
0.000000 0.445686 0.899657
0.000000 0.460945 0.888426
0.387213 0.477852 0.875090
0.574731 0.460700 0.864866
0.816281 0.529473 0.841611
0.928374 0.717769 0.807401
0.000000 0.443946 0.905638
0.000000 0.445777 0.904479
0.000000 0.452186 0.897978
0.000000 0.467506 0.886748
0.388159 0.484443 0.872587
0.573083 0.467689 0.861265
0.813291 0.532982 0.838193
0.926665 0.717708 0.804898
0.000000 0.473732 0.908659
0.000000 0.475074 0.906798
0.000000 0.481544 0.899870
0.083497 0.498024 0.888212
0.407752 0.519524 0.872557
0.584924 0.510582 0.860044
0.816709 0.567132 0.839414
0.928618 0.735348 0.809537
0.000000 0.520165 0.911772
0.000000 0.521630 0.910002
0.000000 0.528099 0.903380
0.137209 0.545800 0.892332
0.435828 0.574640 0.875761
0.608118 0.580072 0.860624
0.822416 0.620172 0.841489
0.931212 0.759579 0.813901
0.000000 0.578668 0.912261
0.000000 0.579828 0.910338
0.000000 0.585840 0.904570
0.129122 0.600793 0.895171
0.439857 0.629236 0.879393
0.630610 0.654353 0.859068
0.825284 0.678584 0.839689
0.935058 0.787564 0.816129
0.000000 0.651118 0.912688
0.000000 0.653071 0.911406
0.000000 0.660365 0.906676
0.181888 0.675441 0.898619
0.451087 0.700618 0.885496
0.657069 0.735470 0.865873
0.834257 0.757473 0.842222
0.945281 0.814847 0.810239
0.000000 0.737148 0.917479
0.000000 0.739559 0.916381
0.000000 0.747402 0.911498
0.263340 0.762600 0.902892
0.487617 0.784817 0.889036
0.675929 0.812924 0.869688
0.842741 0.842710 0.842741
0.961883 0.838102 0.781033
0.000000 0.838407 0.935027
0.000000 0.840604 0.933959
0.000000 0.849638 0.930907
0.269871 0.863951 0.922820
0.489387 0.883635 0.908537
0.679194 0.905303 0.884001
0.849577 0.904631 0.842496
0.972259 0.795590 0.737819
0.000000 0.524407 0.988922
0.000000 0.529015 0.987549
0.000000 0.544060 0.981781
0.256992 0.575647 0.972992
0.479622 0.617243 0.962188
0.628901 0.647791 0.952941
0.755001 0.651514 0.950164
0.920409 0.728969 0.938170
0.000000 0.528618 0.988647
0.000000 0.533013 0.987213
0.000000 0.548241 0.981659
0.255161 0.579126 0.972717
0.479774 0.620813 0.961822
0.629694 0.651881 0.952270
0.755001 0.655695 0.949157
0.920012 0.731655 0.937530
0.000000 0.547204 0.990143
0.000000 0.551110 0.988617
0.000000 0.565118 0.982879
0.263645 0.597009 0.974304
0.487312 0.638453 0.962799
0.638666 0.671656 0.952148
0.761166 0.678492 0.948211
0.920745 0.746090 0.937163
0.000000 0.577691 0.993317
0.000000 0.581567 0.992065
0.000000 0.594629 0.986755
0.257481 0.623590 0.977752
0.492561 0.665522 0.965820
0.653407 0.704616 0.953765
0.773373 0.717617 0.947997
0.922881 0.771145 0.937407
0.000000 0.619043 0.996796
0.000000 0.621942 0.995666
0.000000 0.632136 0.991119
0.207706 0.655085 0.983062
0.475868 0.693996 0.970977
0.662348 0.740993 0.957061
0.789670 0.766690 0.948302
0.925505 0.803586 0.937469
0.000000 0.675135 0.998871
0.000000 0.676967 0.997681
0.000000 0.684474 0.993713
0.168154 0.702266 0.986847
0.450782 0.733364 0.977111
0.660975 0.780941 0.964233
0.809567 0.820951 0.950164
0.929839 0.844694 0.938445
0.000000 0.746426 0.999084
0.000000 0.748501 0.998077
0.000000 0.756497 0.994537
0.261173 0.772946 0.988464
0.480964 0.798428 0.980163
0.662715 0.831754 0.969787
0.818662 0.868040 0.954864
0.933928 0.889006 0.938628
0.000000 0.827970 1.000000
0.000000 0.830137 1.000000
0.157137 0.838041 0.997742
0.369574 0.851804 0.991516
0.539239 0.871305 0.982635
0.694606 0.895048 0.971344
0.831022 0.919768 0.957855
0.939544 0.939544 0.939544
