Lut/Night-2.cube
# Created by Adobe Lightroom plugin Export LUT (1.24.0)
# www.johnrellis.com/lightroom/exportlut.htm
# Photo: 未命名_1.3.1.PRE.jpg
# Color profile: C:\Program Files (x86)\Common Files\Adobe\Color\Profiles\Recommended\AdobeRGB1998.icc
LUT_3D_SIZE 5
DOMAIN_MIN 0.000000 0.000000 0.000000
DOMAIN_MAX 0.903226 0.903226 0.903226
0.000000 0.000000 0.000000
0.176303 0.081025 0.000000
0.394781 0.185489 0.000000
0.678187 0.309911 0.000000
0.970031 0.419196 0.000000
0.063203 0.119722 0.040589
0.183291 0.088197 0.000000
0.407538 0.223575 0.000000
0.686702 0.340917 0.000000
0.968261 0.440467 0.000000
0.114137 0.266758 0.072480
0.231449 0.275273 0.025299
0.404761 0.186160 0.000000
0.695369 0.383276 0.000000
0.978546 0.509941 0.000000
0.161807 0.461799 0.054688
0.269932 0.465003 0.000000
0.507805 0.434638 0.000000
0.698390 0.316930 0.000000
0.984131 0.534386 0.000000
0.199466 0.754788 0.000000
0.329717 0.756863 0.000000
0.615656 0.753872 0.000000
0.863157 0.617334 0.000000
1.000000 0.469551 0.000000
0.000000 0.113375 0.221317
0.182040 0.109621 0.188083
0.421851 0.197330 0.000000
0.700343 0.345281 0.000000
0.982849 0.440009 0.000000
0.000000 0.177401 0.217044
0.188602 0.188602 0.188602
0.429145 0.236393 0.013336
0.705348 0.371069 0.000000
0.984131 0.460761 0.000000
0.045045 0.305730 0.217594
0.211460 0.322515 0.193881
0.436561 0.209720 0.038025
0.709377 0.386358 0.000000
0.987335 0.523033 0.000000
0.091554 0.494362 0.218479
0.242679 0.502525 0.191287
0.517876 0.486244 0.107454
0.709712 0.321599 0.000000
0.989380 0.533196 0.000000
0.087404 0.772915 0.186984
0.277256 0.776516 0.121889
0.567803 0.774441 0.000000
0.866880 0.636408 0.000000
1.000000 0.468421 0.000000
0.000000 0.240940 0.518578
0.000000 0.224674 0.504082
0.425818 0.204288 0.444068
0.730404 0.341863 0.300145
1.000000 0.433326 0.000000
0.000000 0.284489 0.512200
0.000000 0.277592 0.500175
0.431495 0.266606 0.446357
0.735042 0.378515 0.303716
1.000000 0.456275 0.000000
0.000000 0.409461 0.519463
0.000000 0.413184 0.505364
0.447181 0.447150 0.447181
0.748043 0.470344 0.299046
1.000000 0.534234 0.000000
0.000000 0.572869 0.520500
0.095003 0.587945 0.509575
0.466224 0.611810 0.445624
0.747921 0.415137 0.269780
1.000000 0.544945 0.000000
0.000000 0.828305 0.547448
0.000000 0.830320 0.518395
0.488930 0.826261 0.430365
0.865599 0.760159 0.176516
1.000000 0.473426 0.000000
0.000000 0.377813 0.813260
0.000000 0.374731 0.805295
0.258396 0.372778 0.779629
0.710109 0.391943 0.737209
0.941772 0.644526 0.674403
0.000000 0.411261 0.814389
0.000000 0.411048 0.807279
0.285435 0.418921 0.780972
0.715358 0.439155 0.739803
0.945190 0.658137 0.674952
0.000000 0.509117 0.817563
0.000000 0.512474 0.810452
0.335393 0.535760 0.784451
0.721035 0.560937 0.736599
0.960113 0.683162 0.651209
0.000000 0.651026 0.821378
0.000000 0.658717 0.815854
0.378363 0.687068 0.792111
0.738674 0.738674 0.738674
0.992493 0.721218 0.570642
0.000000 0.855344 0.861570
0.000000 0.863249 0.854368
0.355840 0.886046 0.817716
0.753140 0.879881 0.735744
1.000000 0.636072 0.475837
0.000000 0.524407 0.988922
0.000000 0.538933 0.983551
0.382391 0.596460 0.967712
0.660487 0.651637 0.951476
0.920409 0.728969 0.938170
0.000000 0.541863 0.989837
0.000000 0.555749 0.984558
0.388159 0.612573 0.968414
0.668055 0.670680 0.950652
0.920836 0.742397 0.937560
0.000000 0.596796 0.995148
0.000000 0.607355 0.990295
0.374121 0.655970 0.974029
0.690150 0.728237 0.951751
0.923888 0.785855 0.937224
0.000000 0.692805 0.999573
0.000000 0.699825 0.995911
0.340246 0.732784 0.983734
0.705470 0.804776 0.962707
0.930694 0.855070 0.938384
0.000000 0.827970 1.000000
0.023896 0.835599 0.998901
0.456580 0.860899 0.987396
0.730953 0.901366 0.968170
0.939544 0.939544 0.939544
