Lut/Night-2.cube
# Created by Adobe Lightroom plugin Export LUT (1.24.0)
# www.johnrellis.com/lightroom/exportlut.htm
# Photo: 未命名_1.3.1.PRE.jpg
# Color profile: C:\Program Files (x86)\Common Files\Adobe\Color\Profiles\Recommended\AdobeRGB1998.icc
LUT_3D_SIZE 32
DOMAIN_MIN 0.0 0.0 0.0
DOMAIN_MAX 1.0 1.0 1.0
0.000000 0.000000 0.000000
0.022065 0.003418 0.000000
0.052735 0.007446 0.000000
0.081056 0.017792 0.000000
0.103975 0.036591 0.000000
0.127138 0.058442 0.000000
0.151217 0.069184 0.000000
0.176303 0.081025 0.000000
0.202762 0.093904 0.000000
0.230533 0.108095 0.000000
0.259922 0.122408 0.000000
0.290867 0.137301 0.000000
0.323735 0.152743 0.000000
0.358373 0.168887 0.000000
0.394781 0.185489 0.000000
0.432654 0.202609 0.000000
0.471717 0.220096 0.000000
0.511376 0.237736 0.000000
0.551324 0.255436 0.000000
0.592370 0.273472 0.000000
0.635065 0.291752 0.000000
0.678187 0.309911 0.000000
0.721859 0.327947 0.000000
0.765713 0.345495 0.000000
0.809293 0.362524 0.000000
0.852018 0.378668 0.000000
0.893248 0.393591 0.000000
0.932708 0.407172 0.000000
0.970031 0.419196 0.000000
1.000000 0.429480 0.000000
1.000000 0.438148 0.000000
1.000000 0.444953 0.000000
0.001984 0.011353 0.001190
0.025818 0.005158 0.000000
0.055818 0.016175 0.000000
0.081788 0.027955 0.000000
0.104524 0.046754 0.000000
0.127810 0.062043 0.000000
0.152132 0.072419 0.000000
0.177188 0.084352 0.000000
0.203738 0.097169 0.000000
0.231693 0.110719 0.000000
0.261295 0.124941 0.000000
0.292546 0.139864 0.000000
0.325628 0.155306 0.000000
0.360662 0.171328 0.000000
0.397314 0.187961 0.000000
0.435554 0.205142 0.000000
0.474952 0.222751 0.000000
0.514855 0.240482 0.000000
0.555077 0.258213 0.000000
0.596399 0.276280 0.000000
0.639124 0.294560 0.000000
0.682185 0.312627 0.000000
0.725765 0.330480 0.000000
0.769375 0.347997 0.000000
0.812680 0.364843 0.000000
0.855100 0.380804 0.000000
0.896025 0.395575 0.000000
0.935119 0.408972 0.000000
0.972198 0.420813 0.000000
1.000000 0.430976 0.000000
1.000000 0.439490 0.000000
1.000000 0.446174 0.000000
0.004517 0.028504 0.001892
0.037385 0.025544 0.000000
0.059510 0.011688 0.000000
0.082521 0.038117 0.000000
0.105501 0.057679 0.000000
0.128847 0.067018 0.000000
0.153292 0.076844 0.000000
0.178470 0.088258 0.000000
0.205020 0.100923 0.000000
0.233219 0.114229 0.000000
0.262913 0.128084 0.000000
0.294255 0.142824 0.000000
0.327428 0.158145 0.000000
0.362554 0.173983 0.000000
0.399329 0.190738 0.000000
0.437690 0.207828 0.000000
0.477089 0.225284 0.000000
0.517144 0.242954 0.000000
0.557397 0.260624 0.000000
0.598749 0.278630 0.000000
0.641413 0.296849 0.000000
0.684382 0.314794 0.000000
0.727779 0.332586 0.000000
0.771298 0.349950 0.000000
0.814450 0.366705 0.000000
0.856718 0.382544 0.000000
0.897459 0.397162 0.000000
0.936339 0.410437 0.000000
0.973236 0.422187 0.000000
1.000000 0.432258 0.000000
1.000000 0.440681 0.000000
1.000000 0.447303 0.000000
0.009888 0.061524 0.002686
0.041016 0.062867 0.000000
0.069490 0.056916 0.000000
0.085481 0.028138 0.000000
0.107149 0.062318 0.000000
0.130495 0.074861 0.000000
0.154574 0.084627 0.000000
0.179812 0.095064 0.000000
0.206516 0.107179 0.000000
0.234684 0.120241 0.000000
0.264530 0.133791 0.000000
0.296117 0.148196 0.000000
0.329564 0.163149 0.000000
0.364813 0.178988 0.000000
0.401831 0.195377 0.000000
0.440253 0.212345 0.000000
0.479866 0.229801 0.000000
0.520134 0.247410 0.000000
0.560723 0.265171 0.000000
0.602533 0.283207 0.000000
0.645411 0.301396 0.000000
0.688411 0.319280 0.000000
0.731472 0.336797 0.000000
0.774380 0.353796 0.000000
0.816770 0.370092 0.000000
0.858274 0.385504 0.000000
0.898497 0.399786 0.000000
0.937133 0.412879 0.000000
0.973938 0.424475 0.000000
1.000000 0.434516 0.000000
1.000000 0.442847 0.000000
1.000000 0.449470 0.000000
0.020386 0.077607 0.007294
0.044892 0.078584 0.000977
0.069978 0.078767 0.000000
0.091371 0.067536 0.000000
0.109285 0.051881 0.000000
0.133059 0.075166 0.000000
0.157626 0.091005 0.000000
0.182864 0.103883 0.000000
0.209659 0.116060 0.000000
0.237888 0.128664 0.000000
0.267887 0.141939 0.000000
0.299687 0.155978 0.000000
0.333196 0.170779 0.000000
0.368597 0.186282 0.000000
0.405402 0.202365 0.000000
0.443488 0.218967 0.000000
0.482673 0.235904 0.000000
0.522545 0.253239 0.000000
0.562890 0.270634 0.000000
0.604669 0.288487 0.000000
0.647608 0.306554 0.000000
0.690639 0.324285 0.000000
0.733669 0.341650 0.000000
0.776364 0.358434 0.000000
0.818540 0.374487 0.000000
0.859800 0.389685 0.000000
0.899809 0.403784 0.000000
0.938384 0.416663 0.000000
0.975097 0.428107 0.000000
1.000000 0.438025 0.000000
1.000000 0.446143 0.000000
1.000000 0.452613 0.000000
0.033600 0.091127 0.015930
0.054994 0.091951 0.011780
0.069215 0.092714 0.005280
0.094759 0.091737 0.000000
0.113405 0.074311 0.000000
0.133455 0.065766 0.000000
0.159152 0.086549 0.000000
0.184939 0.105226 0.000000
0.211887 0.120912 0.000000
0.240146 0.135470 0.000000
0.270176 0.149874 0.000000
0.301946 0.164065 0.000000
0.335454 0.178653 0.000000
0.370794 0.193942 0.000000
0.407477 0.209781 0.000000
0.445502 0.226108 0.000000
0.484504 0.242802 0.000000
0.524163 0.259770 0.000000
0.564263 0.276890 0.000000
0.605768 0.294499 0.000000
0.648371 0.312261 0.000000
0.691005 0.329625 0.000000
0.711696 0.336431 0.000000
0.755581 0.353674 0.000000
0.799344 0.370367 0.000000
0.842435 0.386328 0.000000
0.884428 0.401282 0.000000
0.924895 0.414893 0.000000
0.963470 0.427070 0.000000
0.999756 0.437629 0.000000
1.000000 0.446387 0.000000
1.000000 0.453376 0.000000
0.050690 0.103944 0.027161
0.063416 0.104677 0.024140
0.073274 0.105440 0.020935
0.092927 0.107027 0.015259
0.117800 0.102235 0.000000
0.134951 0.080995 0.000000
0.156161 0.076112 0.000000
0.182650 0.096590 0.000000
0.209751 0.116670 0.000000
0.237613 0.134279 0.000000
0.266911 0.150942 0.000000
0.298161 0.166934 0.000000
0.331365 0.183017 0.000000
0.366552 0.198825 0.000000
0.403510 0.214878 0.000000
0.441871 0.231357 0.000000
0.481086 0.248020 0.000000
0.520745 0.264897 0.000000
0.560388 0.281682 0.000000
0.600793 0.298589 0.000000
0.641901 0.315465 0.000000
0.682551 0.331853 0.000000
0.723049 0.347784 0.000000
0.763790 0.363348 0.000000
0.804837 0.378637 0.000000
0.846220 0.393683 0.000000
0.887266 0.407996 0.000000
0.927245 0.421271 0.000000
0.965484 0.433143 0.000000
1.000000 0.443397 0.000000
1.000000 0.451942 0.000000
1.000000 0.458686 0.000000
0.063203 0.119722 0.040589
0.070741 0.120577 0.039643
0.079347 0.121706 0.037354
0.095247 0.123476 0.032776
0.121492 0.123903 0.028138
0.142947 0.113222 0.000000
0.160739 0.090608 0.000000
0.183291 0.088197 0.000000
0.211368 0.108797 0.000000
0.240177 0.130404 0.000000
0.269871 0.150454 0.000000
0.301335 0.169406 0.000000
0.334844 0.187808 0.000000
0.370367 0.205936 0.000000
0.407538 0.223575 0.000000
0.445991 0.240848 0.000000
0.485206 0.257755 0.000000
0.524865 0.274479 0.000000
0.564477 0.291081 0.000000
0.605005 0.307958 0.000000
0.646052 0.324681 0.000000
0.686702 0.340917 0.000000
0.727260 0.356695 0.000000
0.767941 0.372107 0.000000
0.808835 0.387274 0.000000
0.850004 0.401984 0.000000
0.890715 0.416052 0.000000
0.930327 0.428962 0.000000
0.968261 0.440467 0.000000
1.000000 0.450416 0.000000
1.000000 0.458595 0.000000
1.000000 0.465034 0.000000
0.070710 0.137575 0.052216
0.077729 0.138460 0.050629
0.085878 0.139376 0.049683
0.100496 0.141268 0.045869
0.123354 0.143099 0.040711
0.150088 0.140475 0.033326
0.169863 0.123873 0.000000
0.188113 0.101869 0.000000
0.211917 0.101076 0.000000
0.241154 0.121187 0.000000
0.271519 0.144411 0.000000
0.303288 0.166506 0.000000
0.336980 0.187839 0.000000
0.372717 0.208469 0.000000
0.410132 0.228580 0.000000
0.448890 0.248020 0.000000
0.488258 0.266453 0.000000
0.527916 0.283909 0.000000
0.567498 0.300725 0.000000
0.607965 0.317479 0.000000
0.648920 0.334112 0.000000
0.689601 0.350286 0.000000
0.730190 0.365942 0.000000
0.770932 0.381292 0.000000
0.811765 0.396246 0.000000
0.852781 0.410803 0.000000
0.893278 0.424537 0.000000
0.932647 0.437201 0.000000
0.970336 0.448463 0.000000
1.000000 0.458106 0.000000
1.000000 0.466072 0.000000
1.000000 0.472175 0.000000
0.078492 0.156832 0.059602
0.084443 0.157626 0.058747
0.092226 0.158541 0.057038
0.106813 0.160342 0.054078
0.126375 0.162356 0.048615
0.154910 0.162966 0.045960
0.179171 0.156252 0.024445
0.198276 0.134279 0.000000
0.217502 0.113558 0.000000
0.242496 0.114626 0.000000
0.272831 0.134920 0.000000
0.305303 0.159457 0.000000
0.339361 0.183627 0.000000
0.375097 0.207004 0.000000
0.412360 0.229496 0.000000
0.450782 0.251072 0.000000
0.489998 0.271580 0.000000
0.529686 0.291051 0.000000
0.569421 0.309422 0.000000
0.610193 0.326940 0.000000
0.651575 0.344030 0.000000
0.692897 0.360449 0.000000
0.734127 0.376379 0.000000
0.775357 0.391913 0.000000
0.816373 0.406836 0.000000
0.857145 0.421149 0.000000
0.897154 0.434577 0.000000
0.935912 0.446754 0.000000
0.972961 0.457588 0.000000
1.000000 0.466743 0.000000
1.000000 0.474281 0.000000
1.000000 0.480049 0.000000
0.086061 0.178256 0.063050
0.091768 0.178927 0.062196
0.099153 0.179660 0.061219
0.113283 0.181186 0.059205
0.131716 0.183047 0.053346
0.157839 0.184665 0.048066
0.187442 0.182559 0.043427
0.209293 0.170443 0.001984
0.227817 0.144869 0.000000
0.247623 0.125978 0.000000
0.273838 0.128450 0.000000
0.305791 0.149081 0.000000
0.340246 0.174899 0.000000
0.376349 0.200839 0.000000
0.413794 0.226047 0.000000
0.452461 0.250248 0.000000
0.491890 0.273259 0.000000
0.531853 0.295048 0.000000
0.571984 0.315557 0.000000
0.613184 0.335332 0.000000
0.654810 0.353948 0.000000
0.696071 0.371099 0.000000
0.737087 0.386969 0.000000
0.778042 0.402350 0.000000
0.818875 0.417121 0.000000
0.859495 0.431250 0.000000
0.899351 0.444526 0.000000
0.937987 0.456580 0.000000
0.974884 0.467170 0.000000
1.000000 0.476112 0.000000
1.000000 0.483345 0.000000
1.000000 0.488808 0.000000
0.093416 0.199954 0.066224
0.098909 0.200504 0.065461
0.106050 0.201144 0.064088
0.119692 0.202518 0.062013
0.137942 0.204196 0.057710
0.160586 0.206027 0.049256
0.191653 0.206210 0.045991
0.219059 0.200687 0.029084
0.239597 0.182956 0.000000
0.257511 0.156252 0.000000
0.278447 0.138766 0.000000
0.305852 0.142489 0.000000
0.328405 0.158663 0.000000
0.363531 0.184512 0.000000
0.400397 0.211246 0.000000
0.438697 0.237613 0.000000
0.478248 0.262913 0.000000
0.518395 0.287144 0.000000
0.558862 0.310185 0.000000
0.600580 0.332311 0.000000
0.643366 0.353613 0.000000
0.686030 0.373297 0.000000
0.728573 0.391363 0.000000
0.770840 0.408026 0.000000
0.812772 0.423499 0.000000
0.854215 0.438117 0.000000
0.894865 0.451789 0.000000
0.934295 0.464240 0.000000
0.971984 0.475105 0.000000
1.000000 0.484321 0.000000
1.000000 0.491676 0.000000
1.000000 0.497169 0.000000
0.099367 0.218997 0.068513
0.104799 0.219455 0.067720
0.111421 0.220218 0.066377
0.124788 0.221653 0.063966
0.142733 0.223606 0.060304
0.163424 0.225681 0.051545
0.192599 0.227146 0.042756
0.224460 0.225254 0.037781
0.248966 0.215640 0.003082
0.267979 0.192966 0.000000
0.285252 0.166232 0.000000
0.306188 0.150240 0.000000
0.333654 0.154849 0.000000
0.366674 0.175357 0.000000
0.402564 0.201938 0.000000
0.440528 0.229801 0.000000
0.479957 0.257389 0.000000
0.520287 0.284184 0.000000
0.561120 0.309514 0.000000
0.603357 0.334203 0.000000
0.646571 0.357885 0.000000
0.689631 0.380011 0.000000
0.732601 0.400488 0.000000
0.775082 0.419135 0.000000
0.816983 0.435554 0.000000
0.858244 0.450202 0.000000
0.898619 0.463722 0.000000
0.937652 0.475929 0.000000
0.974975 0.486580 0.000000
1.000000 0.495460 0.000000
1.000000 0.502525 0.000000
1.000000 0.507683 0.000000
0.106691 0.242741 0.070954
0.111971 0.243168 0.069795
0.118379 0.243809 0.068452
0.131350 0.245151 0.066102
0.149325 0.246891 0.061616
0.169986 0.248814 0.053834
0.195682 0.250584 0.040436
0.228763 0.250675 0.033021
0.259281 0.245701 0.018341
0.281559 0.231083 0.000000
0.299596 0.204440 0.000000
0.317327 0.178714 0.000000
0.339574 0.164370 0.000000
0.368750 0.170230 0.000000
0.403449 0.191501 0.000000
0.441505 0.219303 0.000000
0.481239 0.248508 0.000000
0.521965 0.277531 0.000000
0.563287 0.305486 0.000000
0.606104 0.332769 0.000000
0.649653 0.359106 0.000000
0.693019 0.383764 0.000000
0.736141 0.406622 0.000000
0.778744 0.427436 0.000000
0.820706 0.445899 0.000000
0.861753 0.461891 0.000000
0.901762 0.475807 0.000000
0.940368 0.487861 0.000000
0.977264 0.498299 0.000000
1.000000 0.506950 0.000000
1.000000 0.513756 0.000000
1.000000 0.518700 0.000000
0.114137 0.266758 0.072480
0.118776 0.267124 0.071412
0.125246 0.267704 0.070130
0.138003 0.268986 0.067689
0.155795 0.270573 0.063325
0.176455 0.272465 0.055940
0.199680 0.274235 0.039094
0.231449 0.275273 0.025299
0.265690 0.273198 0.015961
0.293370 0.264714 0.000000
0.314122 0.244938 0.000000
0.331395 0.216556 0.000000
0.350225 0.191714 0.000000
0.373907 0.178988 0.000000
0.404761 0.186160 0.000000
0.441352 0.208225 0.000000
0.480995 0.236912 0.000000
0.522087 0.267247 0.000000
0.563928 0.297368 0.000000
0.607416 0.327337 0.000000
0.651545 0.356115 0.000000
0.695369 0.383276 0.000000
0.738857 0.408728 0.000000
0.781735 0.432044 0.000000
0.823789 0.453101 0.000000
0.864775 0.471565 0.000000
0.904417 0.487129 0.000000
0.942382 0.499794 0.000000
0.978546 0.509941 0.000000
1.000000 0.518303 0.000000
1.000000 0.524865 0.000000
1.000000 0.529564 0.000000
0.121065 0.291661 0.073701
0.125887 0.291966 0.072602
0.131960 0.292393 0.071412
0.144533 0.293309 0.068727
0.162020 0.294621 0.064088
0.182498 0.296117 0.056641
0.204746 0.297459 0.038270
0.233219 0.298680 0.017334
0.268345 0.298314 0.005493
0.301396 0.293645 0.000000
0.326513 0.281437 0.000000
0.346441 0.257603 0.000000
0.364019 0.229129 0.000000
0.384680 0.205600 0.000000
0.410224 0.194308 0.000000
0.443091 0.203159 0.000000
0.481117 0.225864 0.000000
0.521752 0.255009 0.000000
0.563806 0.286290 0.000000
0.607538 0.318090 0.000000
0.651820 0.349065 0.000000
0.695796 0.378729 0.000000
0.739467 0.406653 0.000000
0.782498 0.432471 0.000000
0.824704 0.456062 0.000000
0.865812 0.477150 0.000000
0.905516 0.495338 0.000000
0.943481 0.510338 0.000000
0.979553 0.521782 0.000000
1.000000 0.530144 0.000000
1.000000 0.536706 0.000000
1.000000 0.541436 0.000000
0.128298 0.317510 0.074739
0.133028 0.317754 0.073671
0.138888 0.318273 0.072389
0.151339 0.319127 0.069368
0.168521 0.320287 0.064332
0.189181 0.321630 0.056092
0.211429 0.322881 0.037263
0.237034 0.324010 0.011505
0.271061 0.324498 0.000000
0.307378 0.322240 0.000000
0.338018 0.314580 0.000000
0.361364 0.297765 0.000000
0.380194 0.270665 0.000000
0.398169 0.242374 0.000000
0.420142 0.220005 0.000000
0.447272 0.210300 0.000000
0.481514 0.220127 0.000000
0.520714 0.243381 0.000000
0.562951 0.273472 0.000000
0.607263 0.306218 0.000000
0.652125 0.339239 0.000000
0.696620 0.371130 0.000000
0.740597 0.401404 0.000000
0.783902 0.429877 0.000000
0.826291 0.456214 0.000000
0.867460 0.479988 0.000000
0.907164 0.500816 0.000000
0.945129 0.518486 0.000000
0.981109 0.532433 0.000000
1.000000 0.542321 0.000000
1.000000 0.549065 0.000000
1.000000 0.553704 0.000000
0.135164 0.343267 0.074983
0.139712 0.343328 0.073640
0.143221 0.336584 0.071962
0.155062 0.337469 0.068879
0.171725 0.338720 0.063661
0.191897 0.340215 0.055390
0.214084 0.341741 0.035676
0.237858 0.343084 0.008911
0.269017 0.344182 0.000000
0.305486 0.343786 0.000000
0.340673 0.339574 0.000000
0.368566 0.329229 0.000000
0.390784 0.308812 0.000000
0.409308 0.280674 0.000000
0.428717 0.253361 0.000000
0.452094 0.232578 0.000000
0.480964 0.224735 0.000000
0.516869 0.235813 0.000000
0.557946 0.259983 0.000000
0.602350 0.291203 0.000000
0.648005 0.324926 0.000000
0.693172 0.358526 0.000000
0.737819 0.391211 0.000000
0.781857 0.422248 0.000000
0.825162 0.451392 0.000000
0.867338 0.478187 0.000000
0.907988 0.502220 0.000000
0.946593 0.523003 0.000000
0.982849 0.540032 0.000000
1.000000 0.552972 0.000000
1.000000 0.561547 0.000000
1.000000 0.566583 0.000000
0.141634 0.368811 0.073793
0.145754 0.367987 0.072602
0.151003 0.367254 0.071260
0.162417 0.367071 0.067903
0.179049 0.367407 0.062226
0.199008 0.368383 0.051453
0.221469 0.369543 0.029389
0.245335 0.370794 0.000092
0.273442 0.371832 0.000000
0.309331 0.372229 0.000000
0.347234 0.370123 0.000000
0.380804 0.363317 0.000000
0.406836 0.349401 0.000000
0.428199 0.325200 0.000000
0.446845 0.296391 0.000000
0.467781 0.269230 0.000000
0.492622 0.249546 0.000000
0.523339 0.243046 0.000000
0.561059 0.255467 0.000000
0.603845 0.280613 0.000000
0.648920 0.312444 0.000000
0.694026 0.346319 0.000000
0.738735 0.380316 0.000000
0.782834 0.413306 0.000000
0.826261 0.444831 0.000000
0.868528 0.474067 0.000000
0.909239 0.500633 0.000000
0.947936 0.524193 0.000000
0.984222 0.544121 0.000000
1.000000 0.560113 0.000000
1.000000 0.571832 0.000000
1.000000 0.579065 0.000000
0.148959 0.399054 0.071565
0.152895 0.398230 0.070405
0.158267 0.397498 0.068208
0.169650 0.397223 0.064363
0.186252 0.397528 0.057130
0.206394 0.398383 0.040650
0.229099 0.399512 0.015534
0.253513 0.400671 0.000000
0.279820 0.401648 0.000000
0.313939 0.402258 0.000000
0.352941 0.401465 0.000000
0.390784 0.397192 0.000000
0.422217 0.387671 0.000000
0.447059 0.369512 0.000000
0.467628 0.342412 0.000000
0.486885 0.313329 0.000000
0.509361 0.286473 0.000000
0.535607 0.267247 0.000000
0.568048 0.262333 0.000000
0.607446 0.276158 0.000000
0.650568 0.301732 0.000000
0.694881 0.333440 0.000000
0.739345 0.367468 0.000000
0.783505 0.401740 0.000000
0.827085 0.435065 0.000000
0.869505 0.466712 0.000000
0.910399 0.496040 0.000000
0.949248 0.522210 0.000000
0.985626 0.544976 0.000000
1.000000 0.563958 0.000000
1.000000 0.578790 0.000000
1.000000 0.589258 0.000000
0.155917 0.431128 0.066377
0.159884 0.430304 0.064759
0.165347 0.429572 0.062745
0.176791 0.429328 0.057496
0.193484 0.429572 0.043427
0.213962 0.430396 0.020996
0.237125 0.431464 0.000000
0.262028 0.432593 0.000000
0.288121 0.433478 0.000000
0.319799 0.434119 0.000000
0.358556 0.434089 0.000000
0.399207 0.431739 0.000000
0.436103 0.425025 0.000000
0.465370 0.412329 0.000000
0.489387 0.390021 0.000000
0.509178 0.361151 0.000000
0.529442 0.331334 0.000000
0.552636 0.304509 0.000000
0.579706 0.285466 0.000000
0.613092 0.282048 0.000000
0.651972 0.296086 0.000000
0.693690 0.321294 0.000000
0.736751 0.352697 0.000000
0.780179 0.386511 0.000000
0.823301 0.420722 0.000000
0.865690 0.453986 0.000000
0.906676 0.485389 0.000000
0.945800 0.514366 0.000000
0.982605 0.540185 0.000000
1.000000 0.562249 0.000000
1.000000 0.580407 0.000000
1.000000 0.594385 0.000000
0.161807 0.461799 0.054688
0.165866 0.461494 0.051331
0.171450 0.461311 0.047456
0.183139 0.461555 0.034668
0.199985 0.462165 0.014923
0.220951 0.463111 0.000000
0.244480 0.464088 0.000000
0.269932 0.465003 0.000000
0.296513 0.465583 0.000000
0.325780 0.465888 0.000000
0.362860 0.465858 0.000000
0.404456 0.464546 0.000000
0.445228 0.460182 0.000000
0.480140 0.450874 0.000000
0.507805 0.434638 0.000000
0.530816 0.409125 0.000000
0.550774 0.379278 0.000000
0.572503 0.349310 0.000000
0.597101 0.323125 0.000000
0.625605 0.304509 0.000000
0.659663 0.302434 0.000000
0.698390 0.316930 0.000000
0.739834 0.342412 0.000000
0.782467 0.373846 0.000000
0.825254 0.407813 0.000000
0.867399 0.442023 0.000000
0.908232 0.475166 0.000000
0.947295 0.506126 0.000000
0.984131 0.534386 0.000000
1.000000 0.559472 0.000000
1.000000 0.580713 0.000000
1.000000 0.597772 0.000000
0.168490 0.498512 0.021241
0.172671 0.498177 0.016815
0.178256 0.497932 0.009705
0.190066 0.498054 0.000000
0.207279 0.498543 0.000000
0.228641 0.499428 0.000000
0.252781 0.500420 0.000000
0.278904 0.501366 0.000000
0.306523 0.501946 0.000000
0.334966 0.502190 0.000000
0.370245 0.502159 0.000000
0.411933 0.501396 0.000000
0.455268 0.498634 0.000000
0.495338 0.491798 0.000000
0.528069 0.479683 0.000000
0.554742 0.459205 0.000000
0.576562 0.431189 0.000000
0.597528 0.400366 0.000000
0.620356 0.369848 0.000000
0.645441 0.343023 0.000000
0.673640 0.324285 0.000000
0.707362 0.323369 0.000000
0.745235 0.338018 0.000000
0.785428 0.363409 0.000000
0.830045 0.396124 0.000000
0.871458 0.429877 0.000000
0.911833 0.463722 0.000000
0.950652 0.496345 0.000000
0.987243 0.526665 0.000000
1.000000 0.554009 0.000000
1.000000 0.577905 0.000000
1.000000 0.598108 0.000000
0.173861 0.534478 0.000000
0.178012 0.534020 0.000000
0.183780 0.533898 0.000000
0.195865 0.534295 0.000000
0.213504 0.535119 0.000000
0.235386 0.536248 0.000000
0.260197 0.537530 0.000000
0.287388 0.538781 0.000000
0.316075 0.539757 0.000000
0.345495 0.540307 0.000000
0.378882 0.540581 0.000000
0.420020 0.540337 0.000000
0.465095 0.538811 0.000000
0.509392 0.534234 0.000000
0.548486 0.525231 0.000000
0.579919 0.510338 0.000000
0.606104 0.486427 0.000000
0.628016 0.456672 0.000000
0.649897 0.424445 0.000000
0.672480 0.392493 0.000000
0.697230 0.364691 0.000000
0.725185 0.346044 0.000000
0.758541 0.345800 0.000000
0.795773 0.360967 0.000000
0.835172 0.386419 0.000000
0.875212 0.417395 0.000000
0.914946 0.450813 0.000000
0.953491 0.484199 0.000000
0.990021 0.516167 0.000000
1.000000 0.545678 0.000000
1.000000 0.571984 0.000000
1.000000 0.594751 0.000000
0.179965 0.577539 0.000000
0.184421 0.577081 0.000000
0.190097 0.576959 0.000000
0.202701 0.577295 0.000000
0.220890 0.578058 0.000000
0.243351 0.579065 0.000000
0.269078 0.580133 0.000000
0.297185 0.581170 0.000000
0.326848 0.581811 0.000000
0.357397 0.582086 0.000000
0.389441 0.581903 0.000000
0.428992 0.581384 0.000000
0.474342 0.580072 0.000000
0.521080 0.576806 0.000000
0.564874 0.569818 0.000000
0.601709 0.557855 0.000000
0.631312 0.538842 0.000000
0.655573 0.511681 0.000000
0.677394 0.479713 0.000000
0.699092 0.446174 0.000000
0.721462 0.412757 0.000000
0.746090 0.384344 0.000000
0.774044 0.366491 0.000000
0.806882 0.366918 0.000000
0.843107 0.382666 0.000000
0.880919 0.407904 0.000000
0.918944 0.438239 0.000000
0.956451 0.470954 0.000000
0.992370 0.503441 0.000000
1.000000 0.534478 0.000000
1.000000 0.563012 0.000000
1.000000 0.587884 0.000000
0.185550 0.621149 0.000000
0.190066 0.620844 0.000000
0.196170 0.620874 0.000000
0.209018 0.621302 0.000000
0.227817 0.622095 0.000000
0.250980 0.623133 0.000000
0.277562 0.624140 0.000000
0.306615 0.625025 0.000000
0.337407 0.625605 0.000000
0.369116 0.625696 0.000000
0.401495 0.625330 0.000000
0.439094 0.624506 0.000000
0.483955 0.623285 0.000000
0.532189 0.620783 0.000000
0.579583 0.615442 0.000000
0.621851 0.605737 0.000000
0.656062 0.590692 0.000000
0.683986 0.567498 0.000000
0.706966 0.537346 0.000000
0.728908 0.503838 0.000000
0.750179 0.468971 0.000000
0.772427 0.433906 0.000000
0.796811 0.404761 0.000000
0.824552 0.387518 0.000000
0.856779 0.389105 0.000000
0.891691 0.405035 0.000000
0.927550 0.429938 0.000000
0.963317 0.459663 0.000000
0.998047 0.491432 0.000000
1.000000 0.522881 0.000000
1.000000 0.552789 0.000000
1.000000 0.579431 0.000000
0.191318 0.667140 0.000000
0.195987 0.666957 0.000000
0.202304 0.666987 0.000000
0.215518 0.667292 0.000000
0.234806 0.667750 0.000000
0.258457 0.668208 0.000000
0.285374 0.668391 0.000000
0.314794 0.668330 0.000000
0.346136 0.667842 0.000000
0.378393 0.666835 0.000000
0.411200 0.665400 0.000000
0.446357 0.663539 0.000000
0.489357 0.661524 0.000000
0.537316 0.658961 0.000000
0.586389 0.654536 0.000000
0.632471 0.646754 0.000000
0.672023 0.634211 0.000000
0.703395 0.615869 0.000000
0.729122 0.589502 0.000000
0.752041 0.558221 0.000000
0.773404 0.523980 0.000000
0.794522 0.486915 0.000000
0.816770 0.450813 0.000000
0.841123 0.421668 0.000000
0.868742 0.405646 0.000000
0.900267 0.408545 0.000000
0.933654 0.424598 0.000000
0.967529 0.449073 0.000000
1.000000 0.477974 0.000000
1.000000 0.508812 0.000000
1.000000 0.538933 0.000000
1.000000 0.566979 0.000000
0.194614 0.707698 0.000000
0.199283 0.707637 0.000000
0.205753 0.707790 0.000000
0.219364 0.708248 0.000000
0.239139 0.708919 0.000000
0.263371 0.709651 0.000000
0.291325 0.710231 0.000000
0.321721 0.710567 0.000000
0.354223 0.710567 0.000000
0.387884 0.710170 0.000000
0.422431 0.709255 0.000000
0.457649 0.707790 0.000000
0.499397 0.706081 0.000000
0.547539 0.703975 0.000000
